N10O0(F:\Documents\CODE\Blender-MCP\helix_test_4axis.tap)
N20G21
N30(G-code Generated with BlenderCAM and NC library)
N40G17G90
N50T1M06
N60(Tool: D = 6000.0 mm  type END flutes 4)
N70S12000M03
N80G00 Z5000.0
N90
N100G00X-49968.17Y0Z10000
N110G01Z8000F50000
N120G00X-49936.34A5.729
N130G00X-49904.51A11.459
N140G00X-49872.68A17.188
N150G00X-49840.85A22.918
N160G00X-49809.02A28.647
N170G00X-49777.191A34.377
N180G00X-49745.361Y-0A40.107
N190G00X-49713.531Y0Z7999.999A45.836
N200G00X-49681.701Y-0Z8000A51.566
N210G00X-49649.871Y0A57.295
N220G00X-49618.041A63.025
N230G00X-49586.212A68.754
N240G00X-49554.382Y-0Z8000.001A74.484
N250G00X-49522.552Z8000.002A80.214
N260G00X-49518.413Y-25.853Z7994.52A80.958
N270G00X-49490.718Y-0Z10000.001A85.943
N280G00X-49458.892Z10000.002A91.673
N290G00X-49427.062Y0A97.402
N300G00X-49395.233Y-0.001Z10000.003A103.132
N310G00X-49363.403Y-0Z10000.002A108.861
N320G00X-49331.573Y0Z10000.003A114.591
N330G01X-49299.743Y-0.002Z8437.893A120.321
N340G01X-49293.235Y34.933Z7994.529A121.492
N350G00X-49267.913Y0Z8000.003A126.05
N360G00X-49236.083Y-0.001A131.78
N370G00X-49204.254Y0A137.509
N380G00X-49172.424A143.239
N390G00X-49140.594A148.969
N400G00X-49108.764A154.698
N410G00X-49076.934A160.428
N420G00X-49045.104A166.157
N430G00X-49013.275A171.887
N440G00X-48981.445Y-0Z8000.004A177.616
N450G00X-48949.615Y0A183.346
N460G00X-48917.785Y-0A189.076
N470G00X-48885.955Y0Z8000.003A194.805
N480G00X-48854.125A200.535
N490G00X-48822.296Z8000.004A206.264
N500G00X-48790.466A211.994
N510G00X-48758.636Y-0.001A217.723
N520G00X-48726.806Y0A223.453
N530G00X-48694.976Y-0.001A229.183
N540G00X-48663.146A234.912
N550G00X-48631.317Y-0.002Z8000.005A240.642
N560G00X-48599.487Y0A246.371
N570G00X-48567.657A252.101
N580G00X-48535.827Y-0.001A257.831
N590G00X-48520.092Y-98.809Z7989.953A260.662
N600G00X-48503.993Y-0.002Z10000.004A263.56
N610G00X-48472.167Y-0.003Z10000.003A269.29
N620G00X-48440.338Y0A275.019
N630G00X-48408.508Y-0Z10000.002A280.749
N640G00X-48376.678Y-0.001Z10000.005A286.478
N650G00X-48344.848Y-0.002Z10000.004A292.208
N660G01X-48313.018Z8275.022A297.938
N670G01X-48309.238Y24.312Z7996.743A298.618
N680G00X-48281.188Y0.001Z8000.005A303.667
N690G00X-48249.359Y0A309.397
N700G00X-48217.529A315.126
N710G00X-48185.699Y-0.001A320.856
N720G00X-48153.869Z8000.006A326.585
N730G00X-48122.039Y0.001A332.315
N740G00X-48090.209Y0A338.045
N750G00X-48058.38A343.774
N760G00X-48026.55Y-0Z8000.005A349.504
N770G00X-47994.72Y-0.001A355.233
N780G00X-47968.17Y24.019Z8000.144A360
N790G00X-47936.34A365.729
N800G00X-47904.51Y24.018A371.459
N810G00X-47872.68Y24.017A377.188
N820G00X-47840.85Y24.016A382.918
N830G00X-47809.02Y24.019A388.647
N840G00X-47777.191Y24.018A394.377
N850G00X-47745.361Y24.017A400.107
N860G00X-47713.531A405.836
N870G00X-47681.701Y24.016A411.566
N880G00X-47649.871Y24.019A417.295
N890G00X-47618.041Y24.018A423.025
N900G00X-47586.212Z8000.145A428.754
N910G00X-47554.382Y24.017A434.484
N920G00X-47522.552Y24.016Z8000.146A440.214
N930G00X-47490.722Y24.019A445.943
N940G00X-47471.401Y-61.565Z7990.494A449.421
N950G00X-47458.892Y7.095Z9409.17A451.673
N960G00X-47427.062Y-0Z10000.002A457.402
N970G00X-47395.233Y-0.002A463.132
N980G00X-47363.403Y0.001Z10000.003A468.861
N990G01X-47347.553Y124.344Z7991.374A471.715
N1000G00X-47331.573Y24.015Z8000.147A474.591
N1010G00X-47299.743Y24.018Z8000.146A480.321
N1020G00X-47267.913Y24.022Z8000.147A486.05
N1030G00X-47236.083Y24.016A491.78
N1040G00X-47204.254Y24.02Z8000.148A497.509
N1050G00X-47172.424Y24.016Z8000.147A503.239
N1060G00X-47140.594Y24.018Z8000.146A508.969
N1070G00X-47108.764Y24.022Z8000.147A514.698
N1080G00X-47076.934Y24.017A520.428
N1090G00X-47045.104Y24.02Z8000.148A526.157
N1100G00X-47013.275Y24.016Z8000.147A531.887
N1110G00X-46981.445Y24.019Z8000.148A537.616
N1120G00X-46949.615Y24.021A543.346
N1130G00X-46917.785Y24.017A549.076
N1140G00X-46885.955Y24.02A554.805
N1150G00X-46854.125Y24.015Z8000.147A560.535
N1160G00X-46822.296Y24.019Z8000.148A566.264
N1170G00X-46790.466Y24.022A571.994
N1180G00X-46758.636Y24.017A577.723
N1190G00X-46726.806Y24.019A583.453
N1200G00X-46694.976Y24.015A589.183
N1210G00X-46663.146Y24.018A594.912
N1220G00X-46631.317Y24.021Z8000.149A600.642
N1230G00X-46599.487Y24.016A606.371
N1240G00X-46567.657Y24.019A612.101
N1250G00X-46535.827Y24.014A617.83
N1260G00X-46503.997Y24.018A623.56
N1270G00X-46472.167Y24.021Z8000.148A629.29
N1280G00X-46440.338Y24.016Z8000.149A635.019
N1290G00X-46408.508Y24.019A640.749
N1300G00X-46376.678Y24.014Z8000.148A646.478
N1310G00X-46344.848Y24.018A652.208
N1320G00X-46313.018Y24.021Z8000.149A657.938
N1330G00X-46281.188Y24.017A663.667
N1340G00X-46249.359Y24.02Z8000.15A669.397
N1350G00X-46217.529Y24.015A675.126
N1360G00X-46185.699Y24.018A680.856
N1370G00X-46153.869Y24.021A686.585
N1380G00X-46122.039Y24.016A692.315
N1390G00X-46090.209Y24.02Z8000.151A698.045
N1400G00X-46058.38Y24.015Z8000.15A703.774
N1410G00X-46026.55Y24.019Z8000.149A709.504
N1420G00X-45994.72Y24.021A715.233
N1430G00X-45968.17Y48.025Z8000.576A720
N1440G00X-45936.34Y48.021A725.729
N1450G00X-45904.51Y48.024A731.459
N1460G00X-45872.68Y48.019A737.188
N1470G00X-45840.85Y48.022A742.918
N1480G00X-45809.02Y48.025A748.647
N1490G00X-45777.191Y48.021A754.377
N1500G00X-45745.361Y48.024A760.107
N1510G00X-45713.531Y48.019A765.836
N1520G00X-45681.701Y48.022A771.566
N1530G00X-45649.871Y48.025Z8000.577A777.295
N1540G00X-45618.041Y48.021A783.025
N1550G00X-45586.212Y48.023A788.754
N1560G00X-45554.382Y48.019Z8000.578A794.484
N1570G00X-45522.552Y48.022A800.214
N1580G00X-45490.722Y48.025A805.943
N1590G00X-45458.892Y48.02A811.673
N1600G00X-45427.062Y48.023A817.402
N1610G00X-45395.233Y48.019Z8000.58A823.132
N1620G00X-45363.403Y48.022A828.861
N1630G00X-45331.573Y48.025A834.591
N1640G00X-45299.743Y48.021Z8000.579A840.321
N1650G00X-45267.913Y48.024A846.05
N1660G00X-45236.083Y48.019Z8000.58A851.78
N1670G00X-45204.254Y48.022A857.509
N1680G00X-45172.424Y48.025A863.239
N1690G00X-45140.594Y48.021Z8000.579A868.969
N1700G00X-45108.764Y48.024Z8000.58A874.698
N1710G00X-45076.934Y48.019Z8000.579A880.428
N1720G00X-45045.104Y48.022Z8000.581A886.157
N1730G00X-45013.275Y48.026Z8000.58A891.887
N1740G00X-44981.445Y48.021A897.616
N1750G00X-44949.615Y48.024A903.346
N1760G00X-44917.785Y48.019A909.076
N1770G00X-44885.955Y48.022A914.805
N1780G00X-44854.125Y48.018Z8000.581A920.535
N1790G00X-44822.296Y48.021Z8000.58A926.264
N1800G00X-44790.466Y48.024Z8000.581A931.994
N1810G00X-44758.636Y48.026Z8000.58A937.723
N1820G00X-44726.806Y48.03Z8000.581A943.453
N1830G00X-44694.976Y48.017A949.183
N1840G00X-44663.146Y48.02A954.912
N1850G00X-44631.317Y48.023A960.642
N1860G00X-44599.487Y48.026A966.371
N1870G00X-44567.657Y48.029A972.101
N1880G00X-44535.827Y48.017Z8000.582A977.83
N1890G00X-44503.997Y48.02Z8000.581A983.56
N1900G00X-44472.167Y48.023Z8000.58A989.29
N1910G00X-44440.338Y48.026Z8000.581A995.019
N1920G00X-44408.508Y48.029A1000.749
N1930G00X-44376.678Y48.017A1006.478
N1940G00X-44344.848Y48.02A1012.208
N1950G00X-44313.018Y48.024A1017.938
N1960G00X-44281.188Y48.027A1023.667
N1970G00X-44249.359Y48.03A1029.397
N1980G00X-44217.529Y48.018Z8000.582A1035.126
N1990G00X-44185.699Y48.021A1040.856
N2000G00X-44153.869Y48.024A1046.585
N2010G00X-44122.039Y48.027Z8000.583A1052.315
N2020G00X-44090.209Y48.03A1058.045
N2030G00X-44058.38Y48.018Z8000.582A1063.774
N2040G00X-44026.55Y48.021A1069.504
N2050G00X-43994.72Y48.024Z8000.581A1075.233
N2060G00X-43968.17Y72.004Z8001.296A1080
N2070G00X-43936.34Y72.007A1085.729
N2080G00X-43904.51Y72.01A1091.459
N2090G00X-43872.68Y71.997A1097.188
N2100G00X-43840.85Y72.001A1102.918
N2110G00X-43809.02Y72.003A1108.647
N2120G00X-43777.191Y72.006A1114.377
N2130G00X-43745.361Y72.01A1120.107
N2140G00X-43713.531Y71.997A1125.836
N2150G00X-43681.701Y72A1131.566
N2160G00X-43649.871Y72.003A1137.295
N2170G00X-43618.041Y72.006Z8001.297A1143.025
N2180G00X-43586.212Y72.01A1148.754
N2190G00X-43554.382Y71.997Z8001.298A1154.484
N2200G00X-43522.552Y72A1160.214
N2210G00X-43490.722Y72.003Z8001.299A1165.943
N2220G00X-43458.892Y72.006A1171.673
N2230G00X-43427.062Y72.009Z8001.298A1177.402
N2240G00X-43395.233Y71.997Z8001.299A1183.132
N2250G00X-43363.403Y72A1188.861
N2260G00X-43331.573Y72.003A1194.591
N2270G00X-43299.743Y72.006A1200.321
N2280G00X-43267.913Y72.009A1206.05
N2290G00X-43236.083Y71.998A1211.78
N2300G00X-43204.254Y72Z8001.3A1217.509
N2310G00X-43172.424Y72.004A1223.239
N2320G00X-43140.594Y72.006A1228.969
N2330G00X-43108.764Y72.01Z8001.299A1234.698
N2340G00X-43076.934Y71.998A1240.428
N2350G00X-43045.104Y72.001Z8001.301A1246.157
N2360G00X-43013.275Y72.004Z8001.299A1251.887
N2370G00X-42981.445Y72.007Z8001.301A1257.616
N2380G00X-42949.615Y72.01Z8001.3A1263.346
N2390G00X-42917.785Y71.998A1269.076
N2400G00X-42885.955Y72.001A1274.805
N2410G00X-42854.125Y72.004A1280.535
N2420G00X-42822.296Y72.007A1286.264
N2430G00X-42790.466Y72.01A1291.994
N2440G00X-42758.636Y71.997A1297.723
N2450G00X-42726.806Y72A1303.453
N2460G00X-42694.976Y72.003A1309.183
N2470G00X-42663.146Y72.006Z8001.301A1314.912
N2480G00X-42631.317Y72.009Z8001.302A1320.642
N2490G00X-42599.487Y71.996Z8001.301A1326.371
N2500G00X-42567.657Y72Z8001.302A1332.101
N2510G00X-42535.827Y72.003Z8001.301A1337.831
N2520G00X-42503.997Y72.006A1343.56
N2530G00X-42472.167Y72.009Z8001.3A1349.29
N2540G00X-42440.338Y71.997Z8001.301A1355.019
N2550G00X-42408.508Y71.999A1360.749
N2560G00X-42376.678Y72.002Z8001.3A1366.478
N2570G00X-42344.848Y72.006Z8001.301A1372.208
N2580G00X-42313.018Y72.009A1377.938
N2590G00X-42281.188Y71.997A1383.667
N2600G00X-42249.359Y72Z8001.302A1389.397
N2610G00X-42217.529Y72.003A1395.126
N2620G00X-42185.699Y72.007A1400.856
N2630G00X-42153.869Y72.009A1406.585
N2640G00X-42122.039Y71.997Z8001.303A1412.315
N2650G00X-42090.209Y72Z8001.302A1418.045
N2660G00X-42058.38Y72.004A1423.774
N2670G00X-42026.55Y72.007A1429.504
N2680G00X-41994.72Y72.01Z8001.301A1435.233
N2690G00X-41968.17Y95.955Z8002.303A1440
N2700G00X-41936.34Y95.943A1445.729
N2710G00X-41904.51Y95.946A1451.459
N2720G00X-41872.68Y95.949A1457.188
N2730G00X-41840.85Y95.952A1462.918
N2740G00X-41809.02Y95.955A1468.647
N2750G00X-41777.191Y95.942A1474.377
N2760G00X-41745.361Y95.946A1480.107
N2770G00X-41713.531Y95.948A1485.836
N2780G00X-41681.701Y95.952A1491.566
N2790G00X-41649.871Y95.954Z8002.304A1497.295
N2800G00X-41618.041Y95.942A1503.025
N2810G00X-41586.212Y95.945Z8002.305A1508.754
N2820G00X-41554.382Y95.949A1514.484
N2830G00X-41522.552Y95.952A1520.214
N2840G00X-41490.722Y95.955A1525.943
N2850G00X-41458.892Y95.942A1531.673
N2860G00X-41427.062Y95.945A1537.402
N2870G00X-41395.233Y95.948A1543.132
N2880G00X-41363.403Y95.952A1548.861
N2890G00X-41331.573Y95.955Z8002.306A1554.591
N2900G00X-41299.743Y95.942A1560.321
N2910G00X-41267.913Y95.946Z8002.305A1566.05
N2920G00X-41236.083Y95.949Z8002.306A1571.78
N2930G00X-41204.254Y95.951A1577.509
N2940G00X-41172.424Y95.955Z8002.305A1583.239
N2950G00X-41140.594Y95.943A1588.968
N2960G00X-41108.764Y95.946Z8002.306A1594.698
N2970G00X-41076.934Y95.949Z8002.305A1600.428
N2980G00X-41045.104Y95.952Z8002.306A1606.157
N2990G00X-41013.275Y95.955A1611.887
N3000G00X-40981.445Y95.943Z8002.307A1617.616
N3010G00X-40949.615Y95.946A1623.346
N3020G00X-40917.785Y95.949A1629.076
N3030G00X-40885.955Y95.952Z8002.306A1634.805
N3040G00X-40854.125Y95.955A1640.535
N3050G00X-40822.296Y95.943Z8002.307A1646.264
N3060G00X-40790.466Y95.946Z8002.306A1651.994
N3070G00X-40758.636Y95.948A1657.723
N3080G00X-40726.806Y95.952Z8002.307A1663.453
N3090G00X-40694.976Y95.955A1669.183
N3100G00X-40663.146Y95.942A1674.912
N3110G00X-40631.317Y95.945Z8002.308A1680.642
N3120G00X-40599.487Y95.948Z8002.307A1686.371
N3130G00X-40567.657Y95.951A1692.101
N3140G00X-40535.827Y95.954A1697.831
N3150G00X-40503.997Y95.942Z8002.308A1703.56
N3160G00X-40472.167Y95.945Z8002.306A1709.29
N3170G00X-40440.338Y95.948Z8002.307A1715.019
N3180G00X-40408.508Y95.951A1720.749
N3190G00X-40376.678Y95.954A1726.478
N3200G00X-40344.848Y95.942A1732.208
N3210G00X-40313.018Y95.946Z8002.308A1737.938
N3220G00X-40281.188Y95.949A1743.667
N3230G00X-40249.359Y95.953A1749.397
N3240G00X-40217.529Y95.955A1755.126
N3250G00X-40185.699Y95.943A1760.856
N3260G00X-40153.869Y95.946Z8002.309A1766.585
N3270G00X-40122.039Y95.949A1772.315
N3280G00X-40090.209Y95.952A1778.045
N3290G00X-40058.38Y95.955A1783.774
N3300G00X-40026.55Y95.943Z8002.308A1789.504
N3310G00X-39994.72Y95.946A1795.233
N3320G00X-39968.17Y119.847Z8003.594A1799.999
N3330G00X-39936.34Y119.85A1805.729
N3340G00X-39904.51Y119.853A1811.459
N3350G00X-39872.68Y119.856A1817.188
N3360G00X-39840.85Y119.844A1822.918
N3370G00X-39809.02Y119.847Z8003.595A1828.647
N3380G00X-39777.191Y119.849Z8003.594A1834.377
N3390G00X-39745.361Y119.837A1840.106
N3400G00X-39713.531Y119.856A1845.836
N3410G00X-39681.701Y119.843A1851.566
N3420G00X-39649.871Y119.862Z8003.595A1857.295
N3430G00X-39618.041Y119.849A1863.025
N3440G00X-39586.212Y119.837Z8003.596A1868.754
N3450G00X-39554.382Y119.855Z8003.595A1874.484
N3460G00X-39522.552Y119.843Z8003.596A1880.214
N3470G00X-39490.722Y119.861A1885.943
N3480G00X-39458.892Y119.849A1891.673
N3490G00X-39427.062Y119.837Z8003.597A1897.402
N3500G00X-39395.233Y119.855Z8003.598A1903.132
N3510G00X-39363.403Y119.843A1908.861
N3520G00X-39331.573Y119.862A1914.591
N3530G00X-39299.743Y119.849Z8003.597A1920.321
N3540G00X-39267.913Y119.837Z8003.598A1926.05
N3550G00X-39236.083Y119.856A1931.78
N3560G00X-39204.254Y119.843A1937.509
N3570G00X-39172.424Y119.863Z8003.597A1943.239
N3580G00X-39140.594Y119.85A1948.969
N3590G00X-39108.764Y119.838Z8003.598A1954.698
N3600G00X-39076.934Y119.856A1960.428
N3610G00X-39045.104Y119.844Z8003.599A1966.157
N3620G00X-39013.275Y119.862Z8003.598A1971.887
N3630G00X-38981.445Y119.85Z8003.599A1977.616
N3640G00X-38949.615Y119.838A1983.346
N3650G00X-38917.785Y119.856Z8003.598A1989.076
N3660G00X-38885.955Y119.844Z8003.599A1994.805
N3670G00X-38854.125Y119.862Z8003.598A2000.535
N3680G00X-38822.296Y119.85Z8003.599A2006.264
N3690G00X-38790.466Y119.837A2011.994
N3700G00X-38758.636Y119.855A2017.723
N3710G00X-38726.806Y119.843A2023.453
N3720G00X-38694.976Y119.862A2029.183
N3730G00X-38663.146Y119.849A2034.912
N3740G00X-38631.317Y119.837Z8003.6A2040.642
N3750G00X-38599.487Y119.855A2046.371
N3760G00X-38567.657Y119.843A2052.101
N3770G00X-38535.827Y119.861Z8003.599A2057.831
N3780G00X-38503.997Y119.849A2063.56
N3790G00X-38472.167Y119.837A2069.29
N3800G00X-38440.338Y119.855A2075.019
N3810G00X-38408.508Y119.843A2080.749
N3820G00X-38376.678Y119.861Z8003.598A2086.478
N3830G00X-38344.848Y119.849Z8003.599A2092.208
N3840G00X-38313.018Y119.837Z8003.6A2097.937
N3850G00X-38281.188Y119.856Z8003.599A2103.667
N3860G00X-38249.359Y119.843Z8003.601A2109.397
N3870G00X-38217.529Y119.863Z8003.6A2115.126
N3880G00X-38185.699Y119.85A2120.856
N3890G00X-38153.869Y119.838Z8003.601A2126.585
N3900G00X-38122.039Y119.856A2132.315
N3910G00X-38090.209Y119.844A2138.045
N3920G00X-38058.38Y119.862A2143.774
N3930G00X-38026.55Y119.85Z8003.6A2149.504
N3940G00X-37994.72Y119.838A2155.233
N3950G00X-37968.17Y143.699Z8005.168A2160
N3960G00X-37936.34Y143.687Z8005.169A2165.729
N3970G00X-37904.51Y143.705Z8005.168A2171.459
N3980G00X-37872.68Y143.692A2177.188
N3990G00X-37840.85Y143.711Z8005.169A2182.918
N4000G00X-37809.02Y143.699Z8005.168A2188.647
N4010G00X-37777.191Y143.687A2194.377
N4020G00X-37745.361Y143.705A2200.107
N4030G00X-37713.531Y143.693A2205.836
N4040G00X-37681.701Y143.711A2211.566
N4050G00X-37649.871Y143.699Z8005.169A2217.295
N4060G00X-37618.041Y143.686Z8005.17A2223.025
N4070G00X-37586.212Y143.705Z8005.169A2228.754
N4080G00X-37554.382Y143.693Z8005.17A2234.484
N4090G00X-37522.552Y143.711Z8005.171A2240.214
N4100G00X-37490.722Y143.699A2245.943
N4110G00X-37458.892Y143.686Z8005.172A2251.673
N4120G00X-37427.062Y143.705Z8005.171A2257.402
N4130G00X-37395.233Y143.692Z8005.172A2263.132
N4140G00X-37363.403Y143.711A2268.862
N4150G00X-37331.573Y143.699A2274.591
N4160G00X-37299.743Y143.686A2280.321
N4170G00X-37267.913Y143.706A2286.05
N4180G00X-37236.083Y143.693A2291.78
N4190G00X-37204.254Y143.711A2297.509
N4200G00X-37172.424Y143.699A2303.239
N4210G00X-37140.594Y143.687A2308.968
N4220G00X-37108.764Y143.706A2314.698
N4230G00X-37076.934Y143.693A2320.428
N4240G00X-37045.104Y143.711Z8005.173A2326.157
N4250G00X-37013.275Y143.699Z8005.172A2331.887
N4260G00X-36981.445Y143.687Z8005.173A2337.616
N4270G00X-36949.615Y143.705A2343.346
N4280G00X-36917.785Y143.693Z8005.172A2349.076
N4290G00X-36885.955Y143.711A2354.805
N4300G00X-36854.125Y143.699A2360.535
N4310G00X-36822.296Y143.687Z8005.173A2366.264
N4320G00X-36790.466Y143.705Z8005.172A2371.994
N4330G00X-36758.636Y143.693Z8005.173A2377.723
N4340G00X-36726.806Y143.711Z8005.172A2383.453
N4350G00X-36694.976Y143.699Z8005.173A2389.183
N4360G00X-36663.146Y143.686A2394.912
N4370G00X-36631.317Y143.704Z8005.174A2400.642
N4380G00X-36599.487Y143.692A2406.371
N4390G00X-36567.657Y143.711A2412.101
N4400G00X-36535.827Y143.698A2417.831
N4410G00X-36503.997Y143.686A2423.56
N4420G00X-36472.167Y143.704Z8005.173A2429.29
N4430G00X-36440.338Y143.692A2435.019
N4440G00X-36408.508Y143.71A2440.749
N4450G00X-36376.678Y143.698A2446.478
N4460G00X-36344.848Y143.686Z8005.174A2452.208
N4470G00X-36313.018Y143.705A2457.938
N4480G00X-36281.188Y143.693A2463.667
N4490G00X-36249.359Y143.712A2469.397
N4500G00X-36217.529Y143.699A2475.126
N4510G00X-36185.699Y143.687A2480.856
N4520G00X-36153.869Y143.705A2486.585
N4530G00X-36122.039Y143.693Z8005.175A2492.315
N4540G00X-36090.209Y143.711A2498.045
N4550G00X-36058.38Y143.699A2503.774
N4560G00X-36026.55Y143.687A2509.504
N4570G00X-35994.72Y143.705Z8005.174A2515.233
N4580G00X-35968.17Y167.471Z8007.024A2519.999
N4590G00X-35936.34Y167.49A2525.729
N4600G00X-35904.51Y167.477A2531.459
N4610G00X-35872.68Y167.495A2537.188
N4620G00X-35840.85Y167.483Z8007.025A2542.918
N4630G00X-35809.02Y167.47Z8007.024A2548.647
N4640G00X-35777.191Y167.489A2554.377
N4650G00X-35745.361Y167.477Z8007.025A2560.107
N4660G00X-35713.531Y167.495Z8007.024A2565.836
N4670G00X-35681.701Y167.483A2571.566
N4680G00X-35649.871Y167.47Z8007.025A2577.295
N4690G00X-35618.041Y167.489A2583.025
N4700G00X-35586.212Y167.477Z8007.026A2588.754
N4710G00X-35554.382Y167.495Z8007.025A2594.484
N4720G00X-35522.552Y167.483Z8007.026A2600.214
N4730G00X-35490.722Y167.47Z8007.027A2605.943
N4740G00X-35458.892Y167.489A2611.673
N4750G00X-35427.062Y167.476A2617.402
N4760G00X-35395.233Y167.495A2623.132
N4770G00X-35363.403Y167.483Z8007.028A2628.862
N4780G00X-35331.573Y167.47A2634.591
N4790G00X-35299.743Y167.489Z8007.027A2640.321
N4800G00X-35267.913Y167.477Z8007.028A2646.05
N4810G00X-35236.083Y167.495A2651.78
N4820G00X-35204.254Y167.483A2657.509
N4830G00X-35172.424Y167.471A2663.239
N4840G00X-35140.594Y167.49Z8007.027A2668.969
N4850G00X-35108.764Y167.477Z8007.028A2674.698
N4860G00X-35076.934Y167.495A2680.428
N4870G00X-35045.104Y167.483A2686.157
N4880G00X-35013.275Y167.471A2691.887
N4890G00X-34981.445Y167.489A2697.616
N4900G00X-34949.615Y167.477Z8007.029A2703.346
N4910G00X-34917.785Y167.495Z8007.028A2709.076
N4920G00X-34885.955Y167.483A2714.805
N4930G00X-34854.125Y167.471Z8007.029A2720.535
N4940G00X-34822.296Y167.49A2726.264
N4950G00X-34790.466Y167.477A2731.994
N4960G00X-34758.636Y167.495Z8007.028A2737.724
N4970G00X-34726.806Y167.483Z8007.029A2743.453
N4980G00X-34694.976Y167.47A2749.183
N4990G00X-34663.146Y167.489Z8007.028A2754.912
N5000G00X-34631.317Y167.476Z8007.03A2760.642
N5010G00X-34599.487Y167.495A2766.371
N5020G00X-34567.657Y167.482Z8007.029A2772.101
N5030G00X-34535.827Y167.47Z8007.03A2777.83
N5040G00X-34503.997Y167.489Z8007.029A2783.56
N5050G00X-34472.167Y167.476A2789.29
N5060G00X-34440.338Y167.495A2795.019
N5070G00X-34408.508Y167.482A2800.749
N5080G00X-34376.678Y167.47A2806.478
N5090G00X-34344.848Y167.489Z8007.03A2812.208
N5100G00X-34313.018Y167.477A2817.938
N5110G00X-34281.188Y167.495Z8007.029A2823.667
N5120G00X-34249.359Y167.483Z8007.03A2829.397
N5130G00X-34217.529Y167.471A2835.126
N5140G00X-34185.699Y167.489A2840.856
N5150G00X-34153.869Y167.476Z8007.031A2846.585
N5160G00X-34122.039Y167.495A2852.315
N5170G00X-34090.209Y167.483A2858.045
N5180G00X-34058.38Y167.471A2863.774
N5190G00X-34026.55Y167.49Z8007.03A2869.504
N5200G00X-33994.72Y167.477A2875.233
N5210G00X-33968.17Y191.199Z8009.159A2880
N5220G00X-33936.34Y191.187A2885.729
N5230G00X-33904.51Y191.174A2891.459
N5240G00X-33872.68Y191.193A2897.188
N5250G00X-33840.85Y191.18Z8009.16A2902.918
N5260G00X-33809.02Y191.199Z8009.159A2908.647
N5270G00X-33777.191Y191.187A2914.377
N5280G00X-33745.361Y191.175Z8009.16A2920.106
N5290G00X-33713.531Y191.193Z8009.159A2925.836
N5300G00X-33681.701Y191.18A2931.566
N5310G00X-33649.871Y191.198Z8009.16A2937.295
N5320G00X-33618.041Y191.186A2943.025
N5330G00X-33586.212Y191.174A2948.754
N5340G00X-33554.382Y191.192A2954.484
N5350G00X-33522.552Y191.18A2960.214
N5360G00X-33490.722Y191.198A2965.943
N5370G00X-33458.892Y191.186Z8009.161A2971.673
N5380G00X-33427.062Y191.174A2977.402
N5390G00X-33395.233Y191.192Z8009.162A2983.132
N5400G00X-33363.403Y191.18A2988.861
N5410G00X-33331.573Y191.199A2994.591
N5420G00X-33299.743Y191.186A3000.321
N5430G00X-33267.913Y191.174A3006.05
N5440G00X-33236.083Y191.192A3011.78
N5450G00X-33204.254Y191.18Z8009.163A3017.509
N5460G00X-33172.424Y191.199Z8009.162A3023.239
N5470G00X-33140.594Y191.187A3028.969
N5480G00X-33108.764Y191.175A3034.698
N5490G00X-33076.934Y191.193A3040.428
N5500G00X-33045.104Y191.181Z8009.163A3046.157
N5510G00X-33013.275Y191.199Z8009.162A3051.887
N5520G00X-32981.445Y191.187A3057.616
N5530G00X-32949.615Y191.174Z8009.163A3063.346
N5540G00X-32917.785Y191.193Z8009.162A3069.076
N5550G00X-32885.955Y191.18Z8009.163A3074.805
N5560G00X-32854.125Y191.199Z8009.162A3080.535
N5570G00X-32822.296Y191.187Z8009.164A3086.264
N5580G00X-32790.466Y191.174A3091.994
N5590G00X-32758.636Y191.192Z8009.162A3097.723
N5600G00X-32726.806Y191.18Z8009.163A3103.453
N5610G00X-32694.976Y191.198Z8009.162A3109.183
N5620G00X-32663.146Y191.186Z8009.163A3114.912
N5630G00X-32631.317Y191.174Z8009.164A3120.642
N5640G00X-32599.487Y191.192A3126.371
N5650G00X-32567.657Y191.18A3132.101
N5660G00X-32535.827Y191.198A3137.831
N5670G00X-32503.997Y191.186Z8009.163A3143.56
N5680G00X-32472.167Y191.173Z8009.164A3149.29
N5690G00X-32440.338Y191.192Z8009.163A3155.019
N5700G00X-32408.508Y191.179A3160.749
N5710G00X-32376.678Y191.198A3166.478
N5720G00X-32344.848Y191.185Z8009.164A3172.208
N5730G00X-32313.018Y191.174A3177.937
N5740G00X-32281.188Y191.193A3183.667
N5750G00X-32249.359Y191.18A3189.397
N5760G00X-32217.529Y191.199A3195.126
N5770G00X-32185.699Y191.187A3200.856
N5780G00X-32153.869Y191.174Z8009.165A3206.585
N5790G00X-32122.039Y191.192A3212.315
N5800G00X-32090.209Y191.18A3218.045
N5810G00X-32058.38Y191.199A3223.774
N5820G00X-32026.55Y191.186A3229.504
N5830G00X-31994.718Y191.174Z8009.164A3235.233
N5840G00X-31968.168Y214.812Z8011.569A3240
N5850G00X-31936.336Y214.799A3245.729
N5860G00X-31904.504Y214.818A3251.459
N5870G00X-31872.673Y214.805A3257.188
N5880G00X-31840.841Y214.824A3262.918
N5890G00X-31809.009Y214.812A3268.647
N5900G00X-31777.177Y214.799A3274.377
N5910G00X-31745.346Y214.818A3280.107
N5920G00X-31713.514Y214.805A3285.836
N5930G00X-31681.682Y214.823A3291.566
N5940G00X-31649.85Y214.811A3297.295
N5950G00X-31618.019Y214.799Z8011.571A3303.025
N5960G00X-31586.187Y214.817Z8011.57A3308.754
N5970G00X-31554.355Y214.805A3314.484
N5980G00X-31522.523Y214.823Z8011.571A3320.214
N5990G00X-31490.692Y214.811A3325.943
N6000G00X-31458.86Y214.799Z8011.572A3331.673
N6010G00X-31427.028Y214.817Z8011.571A3337.402
N6020G00X-31395.196Y214.805Z8011.572A3343.132
N6030G00X-31363.365Y214.823A3348.862
N6040G00X-31331.533Y214.811A3354.591
N6050G00X-31299.701Y214.799Z8011.573A3360.321
N6060G00X-31267.869Y214.818Z8011.572A3366.05
N6070G00X-31236.038Y214.805A3371.78
N6080G00X-31204.206Y214.823A3377.509
N6090G00X-31172.374Y214.811Z8011.573A3383.239
N6100G00X-31140.542Y214.799A3388.968
N6110G00X-31108.711Y214.818Z8011.572A3394.698
N6120G00X-31076.879Y214.805Z8011.573A3400.428
N6130G00X-31045.047Y214.824A3406.157
N6140G00X-31013.216Y214.812Z8011.572A3411.887
N6150G00X-30981.384Y214.799Z8011.574A3417.616
N6160G00X-30949.552Y214.818Z8011.573A3423.346
N6170G00X-30917.72Y214.805A3429.076
N6180G00X-30885.889Y214.824Z8011.572A3434.805
N6190G00X-30854.057Y214.811Z8011.573A3440.535
N6200G00X-30822.225Y214.8Z8011.574A3446.264
N6210G00X-30790.393Y214.817Z8011.572A3451.994
N6220G00X-30758.562Y214.805Z8011.573A3457.723
N6230G00X-30726.73Y214.823A3463.453
N6240G00X-30694.898Y214.811A3469.183
N6250G00X-30663.066Y214.799Z8011.574A3474.912
N6260G00X-30631.235Y214.816Z8011.573A3480.642
N6270G00X-30599.403Y214.804Z8011.574A3486.371
N6280G00X-30567.571Y214.822A3492.101
N6290G00X-30535.739Y214.81A3497.831
N6300G00X-30503.908Y214.798A3503.56
N6310G00X-30472.076Y214.816Z8011.573A3509.29
N6320G00X-30440.244Y214.804Z8011.574A3515.019
N6330G00X-30408.412Y214.822Z8011.573A3520.749
N6340G00X-30376.581Y214.81A3526.478
N6350G00X-30344.749Y214.798Z8011.574A3532.208
N6360G00X-30312.917Y214.817A3537.938
N6370G00X-30281.085Y214.805A3543.667
N6380G00X-30249.254Y214.823A3549.397
N6390G00X-30217.422Y214.811Z8011.575A3555.126
N6400G00X-30185.59Y214.799A3560.856
N6410G00X-30153.759Y214.817A3566.585
N6420G00X-30121.927Y214.804Z8011.576A3572.315
N6430G00X-30090.095Y214.823Z8011.575A3578.045
N6440G00X-30058.263Y214.811Z8011.576A3583.774
N6450G00X-30026.432Y214.799Z8011.575A3589.504
N6460G00X-29994.6Y214.817Z8011.573A3595.233
N6470G00X-29968.168Y238.33Z8014.252A3599.999
N6480G00X-29936.336Y238.349A3605.729
N6490G00X-29904.504Y238.336A3611.459
N6500G00X-29872.673Y238.324A3617.188
N6510G00X-29840.841Y238.342Z8014.253A3622.918
N6520G00X-29809.009Y238.33Z8014.252A3628.647
N6530G00X-29777.177Y238.348Z8014.251A3634.377
N6540G00X-29745.346Y238.336Z8014.252A3640.107
N6550G00X-29713.514Y238.324Z8014.253A3645.836
N6560G00X-29681.682Y238.342Z8014.251A3651.566
N6570G00X-29649.85Y238.329Z8014.253A3657.295
N6580G00X-29618.019Y238.348A3663.025
N6590G00X-29586.187Y238.336A3668.754
N6600G00X-29554.355Y238.323Z8014.254A3674.484
N6610G00X-29522.523Y238.311Z8014.255A3680.213
N6620G00X-29490.692Y238.36Z8014.254A3685.943
N6630G00X-29458.86Y238.348Z8014.255A3691.673
N6640G00X-29427.028Y238.336A3697.402
N6650G00X-29395.196Y238.324Z8014.256A3703.132
N6660G00X-29363.365Y238.312A3708.861
N6670G00X-29331.533Y238.361Z8014.255A3714.591
N6680G00X-29299.701Y238.348A3720.321
N6690G00X-29267.869Y238.336Z8014.256A3726.05
N6700G00X-29236.038Y238.323A3731.78
N6710G00X-29204.206Y238.312A3737.509
N6720G00X-29172.374Y238.361Z8014.255A3743.239
N6730G00X-29140.542Y238.349A3748.969
N6740G00X-29108.711Y238.336A3754.698
N6750G00X-29076.879Y238.324A3760.428
N6760G00X-29045.047Y238.312Z8014.257A3766.157
N6770G00X-29013.216Y238.361Z8014.255A3771.887
N6780G00X-28981.384Y238.348Z8014.256A3777.616
N6790G00X-28949.552Y238.336Z8014.257A3783.346
N6800G00X-28917.72Y238.324Z8014.256A3789.075
N6810G00X-28885.889Y238.312Z8014.257A3794.805
N6820G00X-28854.057Y238.361Z8014.256A3800.535
N6830G00X-28822.225Y238.348A3806.264
N6840G00X-28790.393Y238.335Z8014.257A3811.994
N6850G00X-28758.562Y238.323A3817.723
N6860G00X-28726.73Y238.311A3823.453
N6870G00X-28694.898Y238.36Z8014.256A3829.183
N6880G00X-28663.066Y238.348A3834.912
N6890G00X-28631.235Y238.335Z8014.258A3840.642
N6900G00X-28599.403Y238.323Z8014.257A3846.371
N6910G00X-28567.571Y238.311Z8014.258A3852.101
N6920G00X-28535.739Y238.36Z8014.256A3857.831
N6930G00X-28503.908Y238.347Z8014.257A3863.56
N6940G00X-28472.076Y238.335Z8014.256A3869.29
N6950G00X-28440.244Y238.323Z8014.257A3875.019
N6960G00X-28408.412Y238.31A3880.749
N6970G00X-28376.581Y238.359Z8014.256A3886.479
N6980G00X-28344.749Y238.347A3892.208
N6990G00X-28312.917Y238.335Z8014.257A3897.938
N7000G00X-28281.085Y238.324A3903.667
N7010G00X-28249.254Y238.311Z8014.258A3909.397
N7020G00X-28217.422Y238.36Z8014.257A3915.126
N7030G00X-28185.59Y238.348Z8014.258A3920.856
N7040G00X-28153.759Y238.336A3926.585
N7050G00X-28121.927Y238.323Z8014.259A3932.315
N7060G00X-28090.095Y238.312Z8014.26A3938.044
N7070G00X-28058.263Y238.36Z8014.258A3943.774
N7080G00X-28026.432Y238.348A3949.504
N7090G00X-27994.6Y238.336Z8014.257A3955.233
N7100G00X-27968.168Y261.746Z8017.205A3959.999
N7110G00X-27936.336Y261.795Z8017.203A3965.729
N7120G00X-27904.504Y261.782A3971.459
N7130G00X-27872.673Y261.77Z8017.204A3977.188
N7140G00X-27840.841Y261.758Z8017.205A3982.918
N7150G00X-27809.009Y261.745Z8017.204A3988.647
N7160G00X-27777.177Y261.795Z8017.203A3994.377
N7170G00X-27745.346Y261.782Z8017.204A4000.107
N7180G00X-27713.514Y261.77A4005.836
N7190G00X-27681.682Y261.757A4011.566
N7200G00X-27649.85Y261.745Z8017.206A4017.295
N7210G00X-27618.019Y261.794Z8017.204A4023.025
N7220G00X-27586.187Y261.782Z8017.205A4028.755
N7230G00X-27554.355Y261.77Z8017.206A4034.484
N7240G00X-27522.523Y261.757Z8017.207A4040.214
N7250G00X-27490.692Y261.745A4045.943
N7260G00X-27458.86Y261.794Z8017.205A4051.673
N7270G00X-27427.028Y261.782Z8017.206A4057.402
N7280G00X-27395.196Y261.77Z8017.208A4063.132
N7290G00X-27363.365Y261.757Z8017.209A4068.861
N7300G00X-27331.533Y261.745A4074.591
N7310G00X-27299.701Y261.794Z8017.206A4080.321
N7320G00X-27267.869Y261.782Z8017.207A4086.05
N7330G00X-27236.038Y261.77Z8017.208A4091.78
N7340G00X-27204.206Y261.757A4097.509
N7350G00X-27172.374Y261.746Z8017.209A4103.239
N7360G00X-27140.542Y261.795Z8017.206A4108.969
N7370G00X-27108.711Y261.783Z8017.207A4114.698
N7380G00X-27076.879Y261.77Z8017.208A4120.428
N7390G00X-27045.047Y261.758Z8017.209A4126.157
N7400G00X-27013.216Y261.746A4131.887
N7410G00X-26981.384Y261.795Z8017.208A4137.617
N7420G00X-26949.552Y261.782A4143.346
N7430G00X-26917.72Y261.77A4149.076
N7440G00X-26885.889Y261.758Z8017.209A4154.805
N7450G00X-26854.057Y261.745A4160.535
N7460G00X-26822.225Y261.795Z8017.208A4166.265
N7470G00X-26790.393Y261.782A4171.994
N7480G00X-26758.562Y261.769A4177.724
N7490G00X-26726.73Y261.757Z8017.209A4183.453
N7500G00X-26694.898Y261.745A4189.182
N7510G00X-26663.066Y261.794Z8017.208A4194.912
N7520G00X-26631.235Y261.781Z8017.209A4200.642
N7530G00X-26599.403Y261.769Z8017.21A4206.371
N7540G00X-26567.571Y261.756A4212.101
N7550G00X-26535.739Y261.745A4217.83
N7560G00X-26503.908Y261.794Z8017.209A4223.56
N7570G00X-26472.076Y261.781Z8017.208A4229.29
N7580G00X-26440.244Y261.769Z8017.209A4235.019
N7590G00X-26408.412Y261.757A4240.749
N7600G00X-26376.581Y261.744Z8017.21A4246.478
N7610G00X-26344.749Y261.794Z8017.208A4252.208
N7620G00X-26312.917Y261.782Z8017.209A4257.938
N7630G00X-26281.085Y261.77A4263.667
N7640G00X-26249.254Y261.758Z8017.21A4269.397
N7650G00X-26217.422Y261.745A4275.126
N7660G00X-26185.59Y261.794Z8017.209A4280.856
N7670G00X-26153.759Y261.782Z8017.21A4286.586
N7680G00X-26121.927Y261.77Z8017.211A4292.315
N7690G00X-26090.095Y261.758A4298.045
N7700G00X-26058.263Y261.745Z8017.21A4303.774
N7710G00X-26026.432Y261.795Z8017.209A4309.504
N7720G00X-25994.6Y261.782A4315.233
N7730G00X-25968.168Y285.08Z8020.421A4320
N7740G00X-25936.336Y285.067Z8020.422A4325.729
N7750G00X-25904.504Y285.055A4331.458
N7760G00X-25872.673Y285.104Z8020.421A4337.188
N7770G00X-25840.841Y285.092A4342.918
N7780G00X-25809.009Y285.079A4348.647
N7790G00X-25777.177Y285.067A4354.377
N7800G00X-25745.346Y285.055Z8020.422A4360.106
N7810G00X-25713.514Y285.104Z8020.421A4365.836
N7820G00X-25681.682Y285.091A4371.566
N7830G00X-25649.85Y285.079A4377.295
N7840G00X-25618.019Y285.067Z8020.423A4383.025
N7850G00X-25586.187Y285.055Z8020.424A4388.754
N7860G00X-25554.355Y285.104Z8020.422A4394.484
N7870G00X-25522.523Y285.091Z8020.423A4400.214
N7880G00X-25490.692Y285.079A4405.943
N7890G00X-25458.86Y285.067Z8020.424A4411.673
N7900G00X-25427.028Y285.054A4417.402
N7910G00X-25395.196Y285.103A4423.132
N7920G00X-25363.365Y285.091A4428.862
N7930G00X-25331.533Y285.079Z8020.425A4434.591
N7940G00X-25299.701Y285.067Z8020.424A4440.321
N7950G00X-25267.869Y285.055Z8020.425A4446.05
N7960G00X-25236.038Y285.103Z8020.423A4451.78
N7970G00X-25204.206Y285.092Z8020.424A4457.509
N7980G00X-25172.374Y285.079Z8020.425A4463.239
N7990G00X-25140.542Y285.068A4468.968
N8000G00X-25108.711Y285.055Z8020.426A4474.698
N8010G00X-25076.879Y285.104Z8020.424A4480.428
N8020G00X-25045.047Y285.092Z8020.425A4486.157
N8030G00X-25013.216Y285.079A4491.887
N8040G00X-24981.384Y285.067A4497.616
N8050G00X-24949.552Y285.055Z8020.426A4503.346
N8060G00X-24917.72Y285.104Z8020.424A4509.076
N8070G00X-24885.889Y285.091Z8020.425A4514.805
N8080G00X-24854.057Y285.079A4520.535
N8090G00X-24822.225Y285.067Z8020.427A4526.264
N8100G00X-24790.393Y285.055A4531.994
N8110G00X-24758.562Y285.103Z8020.424A4537.724
N8120G00X-24726.73Y285.091Z8020.425A4543.453
N8130G00X-24694.898Y285.079Z8020.426A4549.183
N8140G00X-24663.066Y285.066A4554.912
N8150G00X-24631.235Y285.054Z8020.427A4560.642
N8160G00X-24599.403Y285.103Z8020.426A4566.372
N8170G00X-24567.571Y285.091A4572.101
N8180G00X-24535.739Y285.078Z8020.427A4577.831
N8190G00X-24503.908Y285.066Z8020.426A4583.56
N8200G00X-24472.076Y285.054Z8020.427A4589.29
N8210G00X-24440.244Y285.103Z8020.425A4595.019
N8220G00X-24408.412Y285.09A4600.749
N8230G00X-24376.581Y285.078Z8020.426A4606.478
N8240G00X-24344.749Y285.066Z8020.427A4612.208
N8250G00X-24312.917Y285.054A4617.937
N8260G00X-24281.085Y285.104Z8020.425A4623.667
N8270G00X-24249.254Y285.092Z8020.427A4629.397
N8280G00X-24217.422Y285.08A4635.126
N8290G00X-24185.59Y285.067Z8020.428A4640.856
N8300G00X-24153.759Y285.055A4646.585
N8310G00X-24121.927Y285.103Z8020.427A4652.315
N8320G00X-24090.095Y285.091A4658.045
N8330G00X-24058.263Y285.079Z8020.428A4663.774
N8340G00X-24026.432Y285.067Z8020.427A4669.504
N8350G00X-23994.6Y285.055Z8020.428A4675.233
N8360G00X-23968.168Y308.292Z8023.9A4680
N8370G00X-23936.336Y308.28A4685.729
N8380G00X-23904.504Y308.267A4691.459
N8390G00X-23872.673Y308.255A4697.188
N8400G00X-23840.841Y308.243Z8023.902A4702.918
N8410G00X-23809.009Y308.292Z8023.9A4708.648
N8420G00X-23777.177Y308.279A4714.377
N8430G00X-23745.346Y308.267A4720.107
N8440G00X-23713.514Y308.255A4725.836
N8450G00X-23681.682Y308.243Z8023.901A4731.566
N8460G00X-23649.85Y308.291Z8023.9A4737.295
N8470G00X-23618.019Y308.279A4743.025
N8480G00X-23586.187Y308.267Z8023.901A4748.754
N8490G00X-23554.355Y308.255Z8023.902A4754.484
N8500G00X-23522.523Y308.242Z8023.903A4760.213
N8510G00X-23490.692Y308.291Z8023.902A4765.943
N8520G00X-23458.86Y308.279Z8023.903A4771.673
N8530G00X-23427.028Y308.267Z8023.902A4777.402
N8540G00X-23395.196Y308.255Z8023.904A4783.132
N8550G00X-23363.365Y308.242A4788.861
N8560G00X-23331.533Y308.292Z8023.903A4794.591
N8570G00X-23299.701Y308.279A4800.321
N8580G00X-23267.869Y308.267Z8023.904A4806.05
N8590G00X-23236.038Y308.255Z8023.905A4811.78
N8600G00X-23204.206Y308.243Z8023.904A4817.509
N8610G00X-23172.374Y308.292Z8023.903A4823.239
N8620G00X-23140.542Y308.28Z8023.902A4828.969
N8630G00X-23108.711Y308.268Z8023.904A4834.698
N8640G00X-23076.879Y308.255Z8023.903A4840.428
N8650G00X-23045.047Y308.243Z8023.905A4846.157
N8660G00X-23013.216Y308.292Z8023.903A4851.887
N8670G00X-22981.384Y308.28Z8023.904A4857.616
N8680G00X-22949.552Y308.267A4863.346
N8690G00X-22917.72Y308.255A4869.075
N8700G00X-22885.889Y308.243Z8023.905A4874.805
N8710G00X-22854.057Y308.292Z8023.903A4880.535
N8720G00X-22822.225Y308.28Z8023.904A4886.264
N8730G00X-22790.393Y308.267A4891.994
N8740G00X-22758.562Y308.255A4897.723
N8750G00X-22726.73Y308.242Z8023.906A4903.453
N8760G00X-22694.898Y308.291Z8023.903A4909.183
N8770G00X-22663.066Y308.279Z8023.904A4914.912
N8780G00X-22631.235Y308.267Z8023.905A4920.642
N8790G00X-22599.403Y308.254Z8023.906A4926.371
N8800G00X-22567.571Y308.242A4932.101
N8810G00X-22535.739Y308.291Z8023.904A4937.831
N8820G00X-22503.908Y308.279Z8023.905A4943.56
N8830G00X-22472.076Y308.267Z8023.904A4949.29
N8840G00X-22440.244Y308.254A4955.019
N8850G00X-22408.412Y308.242Z8023.906A4960.749
N8860G00X-22376.581Y308.291Z8023.904A4966.479
N8870G00X-22344.749Y308.279A4972.208
N8880G00X-22312.917Y308.267Z8023.905A4977.938
N8890G00X-22281.085Y308.255Z8023.906A4983.667
N8900G00X-22249.254Y308.243A4989.397
N8910G00X-22217.422Y308.292Z8023.904A4995.126
N8920G00X-22185.59Y308.28Z8023.905A5000.856
N8930G00X-22153.759Y308.267Z8023.907A5006.585
N8940G00X-22121.927Y308.255Z8023.908A5012.315
N8950G00X-22090.095Y308.243A5018.044
N8960G00X-22058.263Y308.292Z8023.905A5023.774
N8970G00X-22026.432Y308.28A5029.504
N8980G00X-21994.6Y308.268Z8023.906A5035.233
N8990G00X-21968.168Y331.314Z8027.637A5039.999
N9000G00X-21936.336Y331.363Z8027.634A5045.729
N9010G00X-21904.504Y331.351Z8027.635A5051.459
N9020G00X-21872.673Y331.338A5057.188
N9030G00X-21840.841Y331.326Z8027.637A5062.918
N9040G00X-21809.009Y331.313A5068.647
N9050G00X-21777.177Y331.362Z8027.635A5074.377
N9060G00X-21745.346Y331.351A5080.107
N9070G00X-21713.514Y331.338A5085.836
N9080G00X-21681.682Y331.326Z8027.636A5091.566
N9090G00X-21649.85Y331.313Z8027.637A5097.295
N9100G00X-21618.019Y331.362Z8027.636A5103.025
N9110G00X-21586.187Y331.35Z8027.637A5108.755
N9120G00X-21554.355Y331.338A5114.484
N9130G00X-21522.523Y331.325Z8027.639A5120.214
N9140G00X-21490.692Y331.313Z8027.64A5125.943
N9150G00X-21458.86Y331.362Z8027.637A5131.673
N9160G00X-21427.028Y331.35Z8027.638A5137.402
N9170G00X-21395.196Y331.338Z8027.64A5143.132
N9180G00X-21363.365Y331.325Z8027.639A5148.861
N9190G00X-21331.533Y331.313Z8027.641A5154.591
N9200G00X-21299.701Y331.362Z8027.638A5160.321
N9210G00X-21267.869Y331.35Z8027.639A5166.05
N9220G00X-21236.038Y331.338A5171.78
N9230G00X-21204.206Y331.325Z8027.641A5177.509
N9240G00X-21172.374Y331.313A5183.239
N9250G00X-21140.542Y331.362Z8027.637A5188.969
N9260G00X-21108.711Y331.35Z8027.639A5194.698
N9270G00X-21076.879Y331.338Z8027.64A5200.428
N9280G00X-21045.047Y331.326Z8027.641A5206.157
N9290G00X-21013.216Y331.313Z8027.64A5211.887
N9300G00X-20981.384Y331.362Z8027.639A5217.617
N9310G00X-20949.552Y331.35A5223.346
N9320G00X-20917.72Y331.338Z8027.64A5229.076
N9330G00X-20885.889Y331.326Z8027.641A5234.805
N9340G00X-20854.057Y331.313A5240.535
N9350G00X-20822.225Y331.362Z8027.639A5246.265
N9360G00X-20790.393Y331.35A5251.994
N9370G00X-20758.562Y331.337Z8027.64A5257.724
N9380G00X-20726.73Y331.325Z8027.641A5263.453
N9390G00X-20694.898Y331.312Z8027.642A5269.182
N9400G00X-20663.066Y331.362Z8027.64A5274.912
N9410G00X-20631.235Y331.35Z8027.641A5280.642
N9420G00X-20599.403Y331.337A5286.371
N9430G00X-20567.571Y331.325Z8027.642A5292.101
N9440G00X-20535.739Y331.313A5297.83
N9450G00X-20503.908Y331.362Z8027.64A5303.56
N9460G00X-20472.076Y331.349A5309.29
N9470G00X-20440.244Y331.337A5315.019
N9480G00X-20408.412Y331.325Z8027.641A5320.749
N9490G00X-20376.581Y331.312A5326.478
N9500G00X-20344.749Y331.362Z8027.64A5332.208
N9510G00X-20312.917Y331.35Z8027.641A5337.938
N9520G00X-20281.085Y331.338A5343.667
N9530G00X-20249.254Y331.326Z8027.642A5349.397
N9540G00X-20217.422Y331.313A5355.126
N9550G00X-20185.59Y331.362Z8027.641A5360.856
N9560G00X-20153.759Y331.35Z8027.642A5366.586
N9570G00X-20121.927Y331.338Z8027.643A5372.315
N9580G00X-20090.095Y331.326A5378.045
N9590G00X-20058.263Y331.313A5383.774
N9600G00X-20026.432Y331.363Z8027.641A5389.504
N9610G00X-19994.6Y331.35A5395.233
N9620G00X-19968.168Y354.258Z8031.624A5400
N9630G00X-19936.336Y354.246Z8031.625A5405.729
N9640G00X-19904.504Y354.234A5411.458
N9650G00X-19872.673Y354.282Z8031.622A5417.188
N9660G00X-19840.841Y354.27Z8031.624A5422.918
N9670G00X-19809.009Y354.258A5428.647
N9680G00X-19777.177Y354.245A5434.377
N9690G00X-19745.346Y354.233A5440.106
N9700G00X-19713.514Y354.282Z8031.622A5445.836
N9710G00X-19681.682Y354.27Z8031.623A5451.566
N9720G00X-19649.85Y354.258Z8031.625A5457.295
N9730G00X-19618.019Y354.245Z8031.626A5463.025
N9740G00X-19586.187Y354.233A5468.754
N9750G00X-19554.355Y354.282Z8031.625A5474.484
N9760G00X-19522.523Y354.27Z8031.626A5480.214
N9770G00X-19490.692Y354.257A5485.943
N9780G00X-19458.86Y354.245Z8031.627A5491.673
N9790G00X-19427.028Y354.233Z8031.628A5497.402
N9800G00X-19395.196Y354.282Z8031.626A5503.132
N9810G00X-19363.365Y354.27Z8031.627A5508.862
N9820G00X-19331.533Y354.258Z8031.628A5514.591
N9830G00X-19299.701Y354.245Z8031.627A5520.321
N9840G00X-19267.869Y354.233Z8031.629A5526.05
N9850G00X-19236.038Y354.282Z8031.627A5531.78
N9860G00X-19204.206Y354.27A5537.509
N9870G00X-19172.374Y354.258A5543.239
N9880G00X-19140.542Y354.246Z8031.628A5548.968
N9890G00X-19108.711Y354.234A5554.698
N9900G00X-19076.879Y354.283Z8031.627A5560.428
N9910G00X-19045.047Y354.27Z8031.628A5566.157
N9920G00X-19013.216Y354.258A5571.887
N9930G00X-18981.384Y354.246A5577.616
N9940G00X-18949.552Y354.233Z8031.629A5583.346
N9950G00X-18917.72Y354.282Z8031.627A5589.076
N9960G00X-18885.889Y354.27Z8031.628A5594.805
N9970G00X-18854.057Y354.258A5600.535
N9980G00X-18822.225Y354.246Z8031.629A5606.264
N9990G00X-18790.393Y354.234A5611.994
N10000G00X-18758.562Y354.282Z8031.627A5617.724
N10010G00X-18726.73Y354.269Z8031.628A5623.453
N10020G00X-18694.898Y354.257Z8031.629A5629.183
N10030G00X-18663.066Y354.245A5634.912
N10040G00X-18631.235Y354.233Z8031.63A5640.642
N10050G00X-18599.403Y354.282Z8031.628A5646.372
N10060G00X-18567.571Y354.269Z8031.629A5652.101
N10070G00X-18535.739Y354.257A5657.831
N10080G00X-18503.908Y354.245Z8031.63A5663.56
N10090G00X-18472.076Y354.232Z8031.629A5669.29
N10100G00X-18440.244Y354.281Z8031.628A5675.019
N10110G00X-18408.412Y354.269A5680.749
N10120G00X-18376.581Y354.257Z8031.629A5686.478
N10130G00X-18344.749Y354.244Z8031.63A5692.208
N10140G00X-18312.917Y354.233Z8031.631A5697.937
N10150G00X-18281.085Y354.282Z8031.629A5703.667
N10160G00X-18249.254Y354.27A5709.397
N10170G00X-18217.422Y354.258Z8031.63A5715.126
N10180G00X-18185.59Y354.246A5720.856
N10190G00X-18153.759Y354.233Z8031.631A5726.585
N10200G00X-18121.927Y354.282Z8031.63A5732.315
N10210G00X-18090.095Y354.27A5738.045
N10220G00X-18058.263Y354.258Z8031.631A5743.774
N10230G00X-18026.432Y354.246Z8031.63A5749.504
N10240G00X-17994.6Y354.233A5755.233
N10250G00X-17968.168Y377.056Z8035.859A5760
N10260G00X-17936.336Y377.044Z8035.86A5765.729
N10270G00X-17904.504Y377.031A5771.459
N10280G00X-17872.673Y377.019Z8035.861A5777.188
N10290G00X-17840.841Y377.007A5782.918
N10300G00X-17809.009Y377.055Z8035.859A5788.648
N10310G00X-17777.177Y377.043Z8035.86A5794.377
N10320G00X-17745.346Y377.031A5800.107
N10330G00X-17713.514Y377.019A5805.836
N10340G00X-17681.682Y377.006Z8035.861A5811.566
N10350G00X-17649.85Y377.055Z8035.86A5817.295
N10360G00X-17618.019Y377.043Z8035.861A5823.025
N10370G00X-17586.187Y377.031A5828.754
N10380G00X-17554.355Y377.019Z8035.862A5834.484
N10390G00X-17522.523Y377.006Z8035.863A5840.213
N10400G00X-17490.692Y377.055Z8035.861A5845.943
N10410G00X-17458.86Y377.043Z8035.862A5851.673
N10420G00X-17427.028Y377.031A5857.402
N10430G00X-17395.196Y377.018Z8035.863A5863.132
N10440G00X-17363.365Y377.007Z8035.865A5868.861
N10450G00X-17331.533Y377.056Z8035.862A5874.591
N10460G00X-17299.701Y377.043A5880.321
N10470G00X-17267.869Y377.031Z8035.863A5886.05
N10480G00X-17236.038Y377.019Z8035.864A5891.78
N10490G00X-17204.206Y377.006A5897.509
N10500G00X-17172.374Y377.056Z8035.862A5903.239
N10510G00X-17140.542Y377.043A5908.969
N10520G00X-17108.711Y377.032Z8035.863A5914.698
N10530G00X-17076.879Y377.019Z8035.864A5920.428
N10540G00X-17045.047Y377.007Z8035.866A5926.157
N10550G00X-17013.216Y377.056Z8035.863A5931.887
N10560G00X-16981.384Y377.043Z8035.862A5937.616
N10570G00X-16949.552Y377.031Z8035.864A5943.346
N10580G00X-16917.72Y377.019A5949.075
N10590G00X-16885.889Y377.007Z8035.865A5954.805
N10600G00X-16854.057Y377.056Z8035.863A5960.535
N10610G00X-16822.225Y377.043A5966.264
N10620G00X-16790.393Y377.031Z8035.864A5971.994
N10630G00X-16758.562Y377.018A5977.723
N10640G00X-16726.73Y377.006Z8035.865A5983.453
N10650G00X-16694.898Y377.055Z8035.863A5989.183
N10660G00X-16663.066Y377.043A5994.912
N10670G00X-16631.235Y377.03Z8035.865A6000.642
N10680G00X-16599.403Y377.018Z8035.866A6006.371
N10690G00X-16567.571Y377.006A6012.101
N10700G00X-16535.739Y377.055Z8035.864A6017.831
N10710G00X-16503.908Y377.043A6023.56
N10720G00X-16472.076Y377.03A6029.29
N10730G00X-16440.244Y377.018Z8035.865A6035.019
N10740G00X-16408.412Y377.006A6040.749
N10750G00X-16376.581Y377.055Z8035.863A6046.479
N10760G00X-16344.749Y377.043Z8035.865A6052.208
N10770G00X-16312.917Y377.031A6057.938
N10780G00X-16281.085Y377.019A6063.667
N10790G00X-16249.254Y377.007Z8035.867A6069.397
N10800G00X-16217.422Y377.056Z8035.864A6075.126
N10810G00X-16185.59Y377.044Z8035.865A6080.856
N10820G00X-16153.759Y377.031A6086.585
N10830G00X-16121.927Y377.019Z8035.867A6092.315
N10840G00X-16090.095Y377.007A6098.044
N10850G00X-16058.263Y377.056Z8035.865A6103.774
N10860G00X-16026.432Y377.044A6109.504
N10870G00X-15994.601Y377.031A6115.233
N10880G00X-15968.169Y399.639Z8040.339A6119.999
N10890G00X-15936.338Y399.626Z8040.34A6125.729
N10900G00X-15904.507Y399.675Z8040.337A6131.459
N10910G00X-15872.676Y399.663Z8040.338A6137.188
N10920G00X-15840.846Y399.651Z8040.339A6142.918
N10930G00X-15809.015Y399.638Z8040.338A6148.647
N10940G00X-15777.184Y399.626Z8040.339A6154.377
N10950G00X-15745.353Y399.675Z8040.337A6160.107
N10960G00X-15713.522Y399.663Z8040.338A6165.836
N10970G00X-15681.692Y399.65Z8040.339A6171.566
N10980G00X-15649.861Y399.638Z8040.34A6177.295
N10990G00X-15618.03Y399.626A6183.025
N11000G00X-15586.199Y399.675Z8040.339A6188.755
N11010G00X-15554.368Y399.663Z8040.34A6194.484
N11020G00X-15522.538Y399.65Z8040.341A6200.214
N11030G00X-15490.707Y399.638A6205.943
N11040G00X-15458.876Y399.626Z8040.343A6211.673
N11050G00X-15427.045Y399.675Z8040.339A6217.402
N11060G00X-15395.215Y399.662Z8040.341A6223.132
N11070G00X-15363.384Y399.651Z8040.342A6228.861
N11080G00X-15331.553Y399.638Z8040.343A6234.591
N11090G00X-15299.722Y399.626A6240.32
N11100G00X-15267.891Y399.675Z8040.341A6246.05
N11110G00X-15236.061Y399.662Z8040.342A6251.78
N11120G00X-15204.23Y399.65A6257.509
N11130G00X-15172.399Y399.639A6263.239
N11140G00X-15140.568Y399.627Z8040.343A6268.968
N11150G00X-15108.737Y399.675Z8040.34A6274.698
N11160G00X-15076.907Y399.663Z8040.341A6280.428
N11170G00X-15045.076Y399.651Z8040.343A6286.157
N11180G00X-15013.245Y399.639A6291.887
N11190G00X-14981.414Y399.626Z8040.345A6297.616
N11200G00X-14949.584Y399.675Z8040.342A6303.346
N11210G00X-14917.753Y399.663A6309.076
N11220G00X-14885.922Y399.651A6314.805
N11230G00X-14854.091Y399.638Z8040.343A6320.535
N11240G00X-14822.26Y399.626Z8040.344A6326.264
N11250G00X-14790.43Y399.675Z8040.342A6331.994
N11260G00X-14758.599Y399.662A6337.724
N11270G00X-14726.768Y399.649Z8040.343A6343.453
N11280G00X-14694.937Y399.638Z8040.344A6349.182
N11290G00X-14663.106Y399.626A6354.912
N11300G00X-14631.276Y399.674Z8040.342A6360.642
N11310G00X-14599.445Y399.662Z8040.343A6366.371
N11320G00X-14567.614Y399.65Z8040.344A6372.101
N11330G00X-14535.783Y399.637A6377.83
N11340G00X-14503.952Y399.625A6383.56
N11350G00X-14472.122Y399.674Z8040.342A6389.29
N11360G00X-14440.291Y399.662A6395.019
N11370G00X-14408.46Y399.649Z8040.343A6400.749
N11380G00X-14376.629Y399.637Z8040.344A6406.478
N11390G00X-14344.799Y399.625Z8040.345A6412.208
N11400G00X-14312.968Y399.675Z8040.342A6417.938
N11410G00X-14281.137Y399.663Z8040.343A6423.667
N11420G00X-14249.306Y399.651Z8040.344A6429.397
N11430G00X-14217.475Y399.639Z8040.345A6435.126
N11440G00X-14185.645Y399.626Z8040.346A6440.856
N11450G00X-14153.814Y399.675Z8040.344A6446.586
N11460G00X-14121.983Y399.662A6452.315
N11470G00X-14090.152Y399.651Z8040.345A6458.045
N11480G00X-14058.321Y399.638Z8040.346A6463.774
N11490G00X-14026.491Y399.626A6469.504
N11500G00X-13994.66Y399.675Z8040.343A6475.233
N11510G00X-13968.169Y422.121Z8045.053A6480
N11520G00X-13936.338Y422.108Z8045.054A6485.729
N11530G00X-13904.507Y422.096Z8045.055A6491.458
N11540G00X-13872.676Y422.145Z8045.051A6497.188
N11550G00X-13840.846Y422.132Z8045.053A6502.918
N11560G00X-13809.015Y422.12A6508.647
N11570G00X-13777.184Y422.108Z8045.055A6514.377
N11580G00X-13745.353Y422.096Z8045.054A6520.106
N11590G00X-13713.522Y422.144Z8045.051A6525.836
N11600G00X-13681.692Y422.132Z8045.053A6531.566
N11610G00X-13649.861Y422.12Z8045.054A6537.295
N11620G00X-13618.03Y422.107Z8045.055A6543.025
N11630G00X-13586.199Y422.095A6548.754
N11640G00X-13554.368Y422.145Z8045.053A6554.484
N11650G00X-13522.538Y422.132Z8045.054A6560.214
N11660G00X-13490.707Y422.12Z8045.056A6565.943
N11670G00X-13458.876Y422.107A6571.673
N11680G00X-13427.045Y422.095Z8045.057A6577.402
N11690G00X-13395.215Y422.144Z8045.055A6583.132
N11700G00X-13363.384Y422.132Z8045.056A6588.862
N11710G00X-13331.553Y422.12Z8045.057A6594.591
N11720G00X-13299.722Y422.108A6600.321
N11730G00X-13267.891Y422.096Z8045.058A6606.05
N11740G00X-13236.061Y422.144Z8045.055A6611.78
N11750G00X-13204.23Y422.132A6617.509
N11760G00X-13172.399Y422.12Z8045.057A6623.239
N11770G00X-13140.568Y422.108A6628.968
N11780G00X-13108.737Y422.096Z8045.058A6634.698
N11790G00X-13076.907Y422.145Z8045.055A6640.428
N11800G00X-13045.076Y422.133Z8045.057A6646.157
N11810G00X-13013.245Y422.121A6651.887
N11820G00X-12981.414Y422.108Z8045.058A6657.616
N11830G00X-12949.584Y422.096Z8045.059A6663.346
N11840G00X-12917.753Y422.145Z8045.056A6669.076
N11850G00X-12885.922Y422.132Z8045.057A6674.805
N11860G00X-12854.091Y422.12A6680.535
N11870G00X-12822.26Y422.108Z8045.059A6686.264
N11880G00X-12790.43Y422.096A6691.994
N11890G00X-12758.599Y422.144Z8045.056A6697.724
N11900G00X-12726.768Y422.132Z8045.057A6703.453
N11910G00X-12694.937Y422.12Z8045.059A6709.183
N11920G00X-12663.106Y422.107A6714.912
N11930G00X-12631.276Y422.095Z8045.06A6720.642
N11940G00X-12599.445Y422.144Z8045.057A6726.372
N11950G00X-12567.614Y422.132Z8045.058A6732.101
N11960G00X-12535.783Y422.119A6737.831
N11970G00X-12503.952Y422.107Z8045.06A6743.56
N11980G00X-12472.122Y422.095Z8045.059A6749.29
N11990G00X-12440.291Y422.144Z8045.057A6755.019
N12000G00X-12408.46Y422.132Z8045.058A6760.749
N12010G00X-12376.629Y422.119A6766.478
N12020G00X-12344.799Y422.107Z8045.059A6772.208
N12030G00X-12312.968Y422.095A6777.937
N12040G00X-12281.137Y422.145Z8045.057A6783.667
N12050G00X-12249.306Y422.132Z8045.059A6789.397
N12060G00X-12217.475Y422.12A6795.126
N12070G00X-12185.645Y422.108A6800.856
N12080G00X-12153.814Y422.096Z8045.061A6806.585
N12090G00X-12121.983Y422.144Z8045.059A6812.315
N12100G00X-12090.152Y422.132A6818.045
N12110G00X-12058.321Y422.121Z8045.06A6823.774
N12120G00X-12026.491Y422.108A6829.504
N12130G00X-11994.66Y422.096A6835.233
N12140G00X-11968.169Y444.433Z8049.999A6840
N12150G00X-11936.338Y444.421Z8050A6845.729
N12160G00X-11904.507Y444.409A6851.459
N12170G00X-11872.676Y444.396Z8050.001A6857.188
N12180G00X-11840.846Y444.384Z8050.003A6862.918
N12190G00X-11809.015Y444.433Z8049.999A6868.648
N12200G00X-11777.184Y444.421A6874.377
N12210G00X-11745.353Y444.409Z8050A6880.107
N12220G00X-11713.522Y444.396Z8050.001A6885.836
N12230G00X-11681.692Y444.383Z8050.002A6891.566
N12240G00X-11649.861Y444.432Z8050A6897.295
N12250G00X-11618.03Y444.42Z8050.001A6903.025
N12260G00X-11586.199Y444.408Z8050.002A6908.754
N12270G00X-11554.368Y444.396Z8050.003A6914.484
N12280G00X-11522.538Y444.384Z8050.004A6920.213
N12290G00X-11490.707Y444.433Z8050.002A6925.943
N12300G00X-11458.876Y444.42Z8050.003A6931.673
N12310G00X-11427.045Y444.408A6937.402
N12320G00X-11395.215Y444.396Z8050.004A6943.132
N12330G00X-11363.384Y444.383Z8050.005A6948.861
N12340G00X-11331.553Y444.433Z8050.002A6954.591
N12350G00X-11299.722Y444.421Z8050.003A6960.321
N12360G00X-11267.891Y444.408Z8050.004A6966.05
N12370G00X-11236.061Y444.396A6971.78
N12380G00X-11204.23Y444.383Z8050.005A6977.509
N12390G00X-11172.399Y444.433Z8050.003A6983.239
N12400G00X-11140.568Y444.421A6988.969
N12410G00X-11108.737Y444.409Z8050.004A6994.698
N12420G00X-11076.907Y444.396A7000.428
N12430G00X-11045.076Y444.384Z8050.006A7006.157
N12440G00X-11013.245Y444.433Z8050.003A7011.887
N12450G00X-10981.414Y444.421Z8050.004A7017.616
N12460G00X-10949.584Y444.409A7023.346
N12470G00X-10917.753Y444.396A7029.075
N12480G00X-10885.922Y444.384Z8050.005A7034.805
N12490G00X-10854.091Y444.433Z8050.003A7040.535
N12500G00X-10822.26Y444.421Z8050.004A7046.264
N12510G00X-10790.43Y444.408A7051.994
N12520G00X-10758.599Y444.396A7057.723
N12530G00X-10726.768Y444.384Z8050.006A7063.453
N12540G00X-10694.937Y444.432Z8050.004A7069.183
N12550G00X-10663.106Y444.421A7074.912
N12560G00X-10631.276Y444.408Z8050.005A7080.642
N12570G00X-10599.445Y444.395Z8050.006A7086.371
N12580G00X-10567.614Y444.383Z8050.007A7092.101
N12590G00X-10535.783Y444.432Z8050.004A7097.831
N12600G00X-10503.952Y444.42A7103.56
N12610G00X-10472.122Y444.408A7109.29
N12620G00X-10440.291Y444.395Z8050.005A7115.019
N12630G00X-10408.46Y444.383Z8050.006A7120.749
N12640G00X-10376.629Y444.432Z8050.004A7126.479
N12650G00X-10344.799Y444.42A7132.208
N12660G00X-10312.968Y444.408Z8050.005A7137.938
N12670G00X-10281.137Y444.396Z8050.006A7143.667
N12680G00X-10249.306Y444.384A7149.397
N12690G00X-10217.475Y444.433Z8050.005A7155.126
N12700G00X-10185.645Y444.42A7160.856
N12710G00X-10153.814Y444.409Z8050.006A7166.585
N12720G00X-10121.983Y444.396Z8050.008A7172.315
N12730G00X-10090.152Y444.384A7178.044
N12740G00X-10058.321Y444.433Z8050.005A7183.774
N12750G00X-10026.491Y444.421A7189.504
N12760G00X-9994.66Y444.409A7195.233
N12770G00X-9968.169Y466.509Z8055.173A7199.999
N12780G00X-9936.338Y466.497Z8055.175A7205.729
N12790G00X-9904.507Y466.546Z8055.171A7211.459
N12800G00X-9872.676Y466.533Z8055.172A7217.188
N12810G00X-9840.846Y466.521Z8055.173A7222.918
N12820G00X-9809.015Y466.509A7228.647
N12830G00X-9777.184Y466.496A7234.377
N12840G00X-9745.353Y466.545Z8055.171A7240.107
N12850G00X-9713.522Y466.533Z8055.172A7245.836
N12860G00X-9681.692Y466.52Z8055.173A7251.566
N12870G00X-9649.861Y466.508Z8055.174A7257.295
N12880G00X-9618.03Y466.496Z8055.175A7263.025
N12890G00X-9586.199Y466.545Z8055.173A7268.755
N12900G00X-9554.368Y466.533Z8055.174A7274.484
N12910G00X-9522.538Y466.521Z8055.175A7280.214
N12920G00X-9490.707Y466.508Z8055.177A7285.943
N12930G00X-9458.876Y466.496A7291.673
N12940G00X-9427.045Y466.545Z8055.173A7297.402
N12950G00X-9396.174Y373.391Z8036.258A7302.959
N12960G00X-9395.215Y238.628Z9005.251A7303.132
N12970G00X-9363.384Y156.409Z9347.946A7308.861
N12980G00X-9331.552Y89.403Z9627.215A7314.591
N12990G00X-9299.722Y38.279Z9840.27A7320.32
N13000G00X-9267.891Y3.623Z9984.99A7326.05
N13010G00X-9236.061Y0.008Z10000.002A7331.78
N13020G00X-9204.23Y-0.007Z10000.003A7337.509
N13030G00X-9172.398Y0.515Z9998.073A7343.239
N13040G01X-9140.568Y33.078Z9861.955A7348.968
N13050G01X-9108.737Y82.241Z9657.255A7354.698
N13060G01X-9076.907Y147.206Z9386.072A7360.427
N13070G01X-9045.076Y227.632Z9051.039A7366.157
N13080G01X-9013.244Y322.558Z8655.54A7371.887
N13090G01X-8981.414Y430.893Z8203.597A7377.616
N13100G01X-8978.038Y479.495Z8055.059A7378.224
N13110G00X-8949.584Y466.546Z8055.175A7383.346
N13120G00X-8917.753Y466.472Z8055.179A7389.075
N13130G00X-8885.922Y466.521Z8055.177A7394.805
N13140G00X-8854.091Y466.57Z8055.174A7400.535
N13150G00X-8822.26Y466.497Z8055.179A7406.264
N13160G00X-8790.43Y466.546Z8055.176A7411.994
N13170G00X-8758.599Y466.472Z8055.18A7417.723
N13180G00X-8726.768Y466.521Z8055.177A7423.453
N13190G00X-8694.937Y466.569Z8055.175A7429.183
N13200G00X-8663.106Y466.496Z8055.179A7434.912
N13210G00X-8631.276Y466.545Z8055.177A7440.642
N13220G00X-8599.445Y466.471Z8055.181A7446.371
N13230G00X-8567.614Y466.52Z8055.179A7452.101
N13240G00X-8535.783Y466.569Z8055.175A7457.831
N13250G00X-8503.952Y466.496Z8055.18A7463.56
N13260G00X-8472.122Y466.545Z8055.176A7469.29
N13270G00X-8440.291Y466.471Z8055.181A7475.019
N13280G00X-8408.46Y466.52Z8055.177A7480.749
N13290G00X-8376.629Y466.569Z8055.175A7486.479
N13300G00X-8344.799Y466.496Z8055.179A7492.208
N13310G00X-8312.968Y466.545Z8055.177A7497.938
N13320G00X-8281.137Y466.471Z8055.181A7503.667
N13330G00X-8249.306Y466.521Z8055.179A7509.397
N13340G00X-8217.475Y466.57Z8055.176A7515.127
N13350G00X-8185.645Y466.496Z8055.181A7520.856
N13360G00X-8153.814Y466.545Z8055.177A7526.586
N13370G00X-8121.983Y466.472Z8055.183A7532.315
N13380G00X-8090.152Y466.521Z8055.179A7538.045
N13390G00X-8058.321Y466.57Z8055.177A7543.774
N13400G00X-8026.491Y466.497Z8055.18A7549.504
N13410G00X-7994.66Y466.546Z8055.176A7555.233
N13420G00X-7968.169Y488.402Z8060.569A7559.999
N13430G00X-7936.338Y488.451Z8060.565A7565.729
N13440G00X-7904.507Y488.5Z8060.563A7571.459
N13450G00X-7872.676Y488.426Z8060.567A7577.188
N13460G00X-7840.846Y488.476Z8060.564A7582.918
N13470G00X-7809.015Y488.402Z8060.569A7588.647
N13480G00X-7777.184Y488.451Z8060.565A7594.377
N13490G00X-7745.353Y488.5Z8060.563A7600.107
N13500G00X-7713.522Y488.426Z8060.567A7605.836
N13510G00X-7681.692Y488.475Z8060.564A7611.566
N13520G00X-7649.861Y488.401Z8060.569A7617.295
N13530G00X-7618.03Y488.451Z8060.566A7623.025
N13540G00X-7586.199Y488.5Z8060.564A7628.755
N13550G00X-7554.368Y488.426Z8060.569A7634.484
N13560G00X-7522.538Y488.475Z8060.566A7640.214
N13570G00X-7490.707Y488.401Z8060.571A7645.943
N13580G00X-7458.963Y480.03Z8058.785A7651.657
N13590G00X-7458.876Y467.473Z8143.86A7651.673
N13600G00X-7427.045Y351.995Z8602.566A7657.403
N13610G00X-7395.214Y250.501Z9005.231A7663.132
N13620G00X-7363.384Y164.24Z9347.953A7668.862
N13630G00X-7331.552Y93.822Z9627.202A7674.591
N13640G00X-7299.722Y40.215Z9840.273A7680.321
N13650G00X-7267.891Y3.829Z9984.992A7686.05
N13660G00X-7236.06Y-0.043Z10000.003A7691.78
N13670G00X-7204.23Y0.017A7697.509
N13680G00X-7172.399Y0.409Z9998.085A7703.239
N13690G01X-7140.568Y34.757Z9861.951A7708.968
N13700G01X-7108.737Y86.373Z9657.247A7714.698
N13710G01X-7076.906Y154.585Z9386.064A7720.427
N13720G01X-7045.076Y239.022Z9051.031A7726.157
N13730G01X-7013.245Y338.537Z8655.592A7731.886
N13740G01X-6981.414Y452.432Z8203.584A7737.616
N13750G01X-6972.382Y498.3Z8055.171A7739.242
N13760G00X-6949.584Y488.5Z8060.566A7743.346
N13770G00X-6917.753Y488.426Z8060.571A7749.075
N13780G00X-6885.922Y488.476Z8060.568A7754.805
N13790G00X-6854.091Y488.402Z8060.573A7760.534
N13800G00X-6822.26Y488.451Z8060.571A7766.264
N13810G00X-6790.43Y488.5Z8060.567A7771.994
N13820G00X-6758.599Y488.426Z8060.571A7777.723
N13830G00X-6726.768Y488.475Z8060.569A7783.453
N13840G00X-6694.937Y488.401Z8060.574A7789.182
N13850G00X-6663.106Y488.45Z8060.57A7794.912
N13860G00X-6631.276Y488.499Z8060.568A7800.642
N13870G00X-6599.445Y488.425Z8060.573A7806.371
N13880G00X-6567.614Y488.475Z8060.57A7812.101
N13890G00X-6535.783Y488.401Z8060.574A7817.83
N13900G00X-6503.952Y488.45Z8060.571A7823.56
N13910G00X-6472.122Y488.499Z8060.566A7829.29
N13920G00X-6440.291Y488.426Z8060.572A7835.019
N13930G00X-6408.46Y488.475Z8060.569A7840.749
N13940G00X-6376.629Y488.401Z8060.573A7846.478
N13950G00X-6344.799Y488.451Z8060.57A7852.208
N13960G00X-6312.968Y488.5Z8060.568A7857.938
N13970G00X-6281.137Y488.426Z8060.573A7863.667
N13980G00X-6249.306Y488.476Z8060.57A7869.397
N13990G00X-6217.475Y488.402Z8060.575A7875.126
N14000G00X-6185.645Y488.451Z8060.571A7880.856
N14010G00X-6153.814Y488.5Z8060.569A7886.586
N14020G00X-6121.983Y488.426Z8060.574A7892.315
N14030G00X-6090.152Y488.476Z8060.571A7898.045
N14040G00X-6058.321Y488.402Z8060.575A7903.774
N14050G00X-6026.491Y488.451Z8060.571A7909.504
N14060G00X-5994.66Y488.5Z8060.568A7915.234
N14070G00X-5968.169Y510.168Z8066.175A7919.999
N14080G00X-5936.338Y510.217Z8066.172A7925.729
N14090G00X-5904.507Y510.266Z8066.168A7931.459
N14100G00X-5872.676Y510.192Z8066.173A7937.188
N14110G00X-5840.846Y510.241Z8066.17A7942.918
N14120G00X-5809.015Y510.167Z8066.174A7948.647
N14130G00X-5777.184Y510.216Z8066.171A7954.377
N14140G00X-5745.353Y510.266Z8066.168A7960.107
N14150G00X-5713.522Y510.192Z8066.172A7965.836
N14160G00X-5681.692Y510.241Z8066.169A7971.566
N14170G00X-5649.861Y510.167Z8066.175A7977.295
N14180G00X-5618.03Y510.217Z8066.172A7983.025
N14190G00X-5586.199Y510.266Z8066.169A7988.755
N14200G00X-5554.368Y510.192Z8066.175A7994.484
N14210G00X-5522.538Y510.241Z8066.172A8000.214
N14220G00X-5490.707Y510.167Z8066.177A8005.943
N14230G00X-5463.725Y503.152Z8059.469A8010.8
N14240G00X-5458.876Y489.717Z8143.872A8011.673
N14250G00X-5427.045Y368.748Z8602.578A8017.403
N14260G00X-5395.214Y262.434Z9005.241A8023.132
N14270G00X-5363.384Y172.07Z9347.962A8028.862
N14280G00X-5331.553Y98.308Z9627.209A8034.591
N14290G00X-5299.722Y42.152Z9840.279A8040.321
N14300G00X-5267.891Y4.033Z9984.995A8046.051
N14310G00X-5236.06Y-0.017Z10000.003A8051.78
N14320G00X-5204.23Y0.043A8057.51
N14330G00X-5172.399Y0.46Z9998.083A8063.239
N14340G01X-5140.568Y36.437Z9861.948A8068.969
N14350G01X-5108.737Y90.503Z9657.242A8074.699
N14360G01X-5076.906Y161.962Z9386.056A8080.428
N14370G01X-5045.076Y250.412Z9051.02A8086.158
N14380G01X-5013.245Y354.661Z8655.582A8091.887
N14390G01X-4981.414Y473.967Z8203.572A8097.616
N14400G01X-4972.737Y519.689Z8061.04A8099.178
N14410G00X-4949.584Y510.266Z8066.172A8103.346
N14420G00X-4917.753Y510.192Z8066.177A8109.075
N14430G00X-4885.922Y510.241Z8066.174A8114.805
N14440G00X-4854.091Y510.167Z8066.179A8120.534
N14450G00X-4822.26Y510.217Z8066.176A8126.264
N14460G00X-4790.43Y510.266Z8066.172A8131.994
N14470G00X-4758.599Y510.192Z8066.177A8137.723
N14480G00X-4726.768Y510.241Z8066.174A8143.453
N14490G00X-4694.937Y510.167Z8066.179A8149.182
N14500G00X-4663.106Y510.216Z8066.176A8154.912
N14510G00X-4631.276Y510.265Z8066.173A8160.642
N14520G00X-4599.445Y510.191Z8066.178A8166.371
N14530G00X-4567.614Y510.241Z8066.175A8172.101
N14540G00X-4535.783Y510.167Z8066.18A8177.83
N14550G00X-4503.952Y510.216Z8066.177A8183.56
N14560G00X-4472.122Y510.265Z8066.172A8189.29
N14570G00X-4440.291Y510.191Z8066.177A8195.019
N14580G00X-4408.46Y510.24Z8066.174A8200.749
N14590G00X-4376.629Y510.167Z8066.179A8206.478
N14600G00X-4344.799Y510.216Z8066.176A8212.208
N14610G00X-4312.968Y510.265Z8066.174A8217.938
N14620G00X-4281.137Y510.192Z8066.178A8223.667
N14630G00X-4249.306Y510.241Z8066.175A8229.397
N14640G00X-4217.475Y510.168Z8066.181A8235.126
N14650G00X-4185.645Y510.217Z8066.178A8240.856
N14660G00X-4153.814Y510.266Z8066.175A8246.586
N14670G00X-4121.983Y510.192Z8066.18A8252.315
N14680G00X-4090.152Y510.241Z8066.177A8258.045
N14690G00X-4058.321Y510.168Z8066.181A8263.774
N14700G00X-4026.491Y510.217Z8066.178A8269.504
N14710G00X-3994.66Y510.266Z8066.173A8275.234
N14720G00X-3968.168Y531.738Z8071.988A8279.999
N14730G00X-3936.337Y531.788Z8071.985A8285.729
N14740G00X-3904.506Y531.714Z8071.99A8291.458
N14750G00X-3872.675Y531.763Z8071.986A8297.188
N14760G00X-3840.844Y531.812Z8071.984A8302.918
N14770G00X-3809.013Y531.738Z8071.988A8308.647
N14780G00X-3777.182Y531.787Z8071.985A8314.377
N14790G00X-3745.351Y531.714Z8071.989A8320.106
N14800G00X-3713.52Y531.763Z8071.986A8325.836
N14810G00X-3681.689Y531.812Z8071.983A8331.566
N14820G00X-3649.858Y531.738Z8071.989A8337.295
N14830G00X-3618.027Y531.787Z8071.986A8343.025
N14840G00X-3586.196Y531.713Z8071.99A8348.754
N14850G00X-3554.365Y531.763Z8071.989A8354.484
N14860G00X-3522.534Y531.812Z8071.986A8360.214
N14870G00X-3490.703Y531.738Z8071.99A8365.943
N14880G00X-3458.948Y524.476Z8070.276A8371.659
N14890G00X-3458.872Y511.958Z8143.883A8371.673
N14900G00X-3427.041Y385.387Z8602.522A8377.402
N14910G00X-3395.21Y274.365Z9005.251A8383.132
N14920G00X-3363.379Y179.898Z9347.969A8388.862
N14930G00X-3331.548Y102.795Z9627.216A8394.591
N14940G00X-3299.717Y44.089Z9840.284A8400.321
N14950G00X-3267.886Y4.088Z9984.98A8406.05
N14960G00X-3236.055Y0.007Z10000.003A8411.78
N14970G00X-3204.224Y0.069A8417.51
N14980G00X-3172.393Y0.508Z9998.081A8423.239
N14990G01X-3140.562Y38.116Z9861.944A8428.969
N15000G01X-3108.731Y94.476Z9657.272A8434.698
N15010G01X-3076.9Y169.339Z9386.05A8440.428
N15020G01X-3045.068Y261.8Z9051.011A8446.158
N15030G01X-3013.238Y370.783Z8655.571A8451.887
N15040G01X-2981.407Y495.5Z8203.559A8457.617
N15050G01X-2973.096Y541.043Z8067.109A8459.113
N15060G00X-2949.576Y531.714Z8071.993A8463.346
N15070G00X-2917.745Y531.763Z8071.99A8469.076
N15080G00X-2885.914Y531.812Z8071.987A8474.806
N15090G00X-2854.083Y531.738Z8071.992A8480.535
N15100G00X-2822.252Y531.788Z8071.99A8486.265
N15110G00X-2790.421Y531.714Z8071.993A8491.994
N15120G00X-2758.589Y531.763Z8071.99A8497.724
N15130G00X-2726.758Y531.811Z8071.987A8503.453
N15140G00X-2694.927Y531.738Z8071.992A8509.182
N15150G00X-2663.096Y531.787Z8071.99A8514.912
N15160G00X-2631.265Y531.713Z8071.994A8520.641
N15170G00X-2599.434Y531.762Z8071.992A8526.371
N15180G00X-2567.603Y531.812Z8071.989A8532.101
N15190G00X-2535.772Y531.738Z8071.992A8537.83
N15200G00X-2503.941Y531.787Z8071.99A8543.56
N15210G00X-2472.11Y531.713Z8071.993A8549.289
N15220G00X-2440.279Y531.762Z8071.991A8555.019
N15230G00X-2408.448Y531.811Z8071.988A8560.749
N15240G00X-2376.617Y531.737Z8071.992A8566.478
N15250G00X-2344.786Y531.786Z8071.99A8572.208
N15260G00X-2312.955Y531.713Z8071.994A8577.937
N15270G00X-2281.124Y531.763Z8071.991A8583.667
N15280G00X-2249.293Y531.813Z8071.989A8589.397
N15290G00X-2217.462Y531.738Z8071.993A8595.126
N15300G00X-2185.631Y531.788Z8071.99A8600.856
N15310G00X-2153.8Y531.713Z8071.995A8606.585
N15320G00X-2121.969Y531.763Z8071.993A8612.315
N15330G00X-2090.138Y531.812Z8071.99A8618.045
N15340G00X-2058.307Y531.738Z8071.994A8623.774
N15350G00X-2026.476Y531.788Z8071.99A8629.504
N15360G00X-1994.645Y531.714Z8071.995A8635.233
N15370G00X-1968.168Y553.109Z8078.002A8640
N15380G00X-1936.337Y553.158Z8077.999A8645.729
N15390G00X-1904.506Y553.084Z8078.004A8651.459
N15400G00X-1872.675Y553.133Z8078.001A8657.188
N15410G00X-1840.844Y553.059Z8078.006A8662.917
N15420G00X-1809.013Y553.108Z8078.002A8668.647
N15430G00X-1777.182Y553.158Z8077.999A8674.377
N15440G00X-1745.351Y553.084Z8078.004A8680.106
N15450G00X-1713.52Y553.133Z8078.001A8685.836
N15460G00X-1681.689Y553.059Z8078.005A8691.565
N15470G00X-1649.858Y553.108Z8078.002A8697.295
N15480G00X-1618.027Y553.158Z8078A8703.025
N15490G00X-1586.196Y553.084Z8078.005A8708.754
N15500G00X-1554.365Y553.133Z8078.002A8714.484
N15510G00X-1522.534Y553.059Z8078.007A8720.213
N15520G00X-1490.703Y553.108Z8078.004A8725.943
N15530G00X-1458.872Y553.157Z8078.001A8731.673
N15540G00X-1427.591Y500.865Z8064.997A8737.303
N15550G00X-1427.041Y402.135Z8602.536A8737.402
N15560G00X-1395.21Y286.293Z9005.261A8743.132
N15570G00X-1363.379Y187.597Z9347.93A8748.861
N15580G00X-1331.548Y107.28Z9627.222A8754.591
N15590G00X-1299.717Y46.024Z9840.289A8760.321
N15600G00X-1267.886Y4.293Z9984.983A8766.05
N15610G00X-1236.055Y0.033Z10000.003A8771.78
N15620G00X-1204.224Y-0.058A8777.509
N15630G00X-1172.393Y0.557Z9998.078A8783.239
N15640G01X-1140.562Y39.795Z9861.939A8788.969
N15650G01X-1108.731Y98.605Z9657.266A8794.698
N15660G01X-1076.9Y176.715Z9386.041A8800.428
N15670G01X-1045.069Y273.032Z9051.058A8806.157
N15680G01X-1013.238Y386.902Z8655.56A8811.887
N15690G01X-981.407Y517.03Z8203.548A8817.617
N15700G01X-978.023Y563.991Z8077.834A8818.225
N15710G00X-949.576Y553.084Z8078.008A8823.346
N15720G00X-917.745Y553.133Z8078.004A8829.076
N15730G00X-885.914Y553.059Z8078.01A8834.805
N15740G00X-854.083Y553.108Z8078.006A8840.535
N15750G00X-822.252Y553.158Z8078.004A8846.265
N15760G00X-790.421Y553.083Z8078.008A8851.994
N15770G00X-758.59Y553.133Z8078.005A8857.724
N15780G00X-726.759Y553.059Z8078.01A8863.453
N15790G00X-694.928Y553.108Z8078.006A8869.183
N15800G00X-663.097Y553.157Z8078.002A8874.913
N15810G00X-631.266Y553.083Z8078.009A8880.642
N15820G00X-599.435Y553.132Z8078.006A8886.372
N15830G00X-567.604Y553.058Z8078.011A8892.101
N15840G00X-535.773Y553.108Z8078.007A8897.831
N15850G00X-503.942Y553.157Z8078.004A8903.56
N15860G00X-472.111Y553.083Z8078.007A8909.29
N15870G00X-440.28Y553.132Z8078.005A8915.019
N15880G00X-408.449Y553.058Z8078.01A8920.748
N15890G00X-376.618Y553.108Z8078.007A8926.478
N15900G00X-344.787Y553.157Z8078.003A8932.208
N15910G00X-312.956Y553.083Z8078.009A8937.937
N15920G00X-281.125Y553.133Z8078.005A8943.667
N15930G00X-249.294Y553.059Z8078.012A8949.396
N15940G00X-217.463Y553.108Z8078.008A8955.126
N15950G00X-185.632Y553.158Z8078.004A8960.856
N15960G00X-153.801Y553.084Z8078.01A8966.585
N15970G00X-121.97Y553.133Z8078.007A8972.315
N15980G00X-90.139Y553.059Z8078.012A8978.044
N15990G00X-58.308Y553.108Z8078.008A8983.774
N16000G00X-26.477Y553.158Z8078.004A8989.504
N16010G00X5.353Y553.084Z8078.009A8995.233
N16020G00X31.83Y574.273Z8084.212A9000
N16030G00X63.661Y574.199Z8084.218A9005.729
N16040G00X95.492Y574.249Z8084.213A9011.459
N16050G00X127.323Y574.298Z8084.21A9017.189
N16060G00X159.154Y574.224Z8084.216A9022.918
N16070G00X190.985Y574.273Z8084.212A9028.648
N16080G00X222.816Y574.199Z8084.217A9034.377
N16090G00X254.647Y574.248Z8084.214A9040.107
N16100G00X286.478Y574.298Z8084.21A9045.836
N16110G00X318.309Y574.223Z8084.215A9051.566
N16120G00X350.14Y574.272Z8084.213A9057.295
N16130G00X381.971Y574.198Z8084.218A9063.025
N16140G00X413.802Y574.248Z8084.215A9068.754
N16150G00X445.633Y574.297Z8084.212A9074.484
N16160G00X477.464Y574.223Z8084.218A9080.213
N16170G00X509.295Y574.273Z8084.215A9085.943
N16180G00X541.126Y574.199Z8084.22A9091.672
N16190G00X572.957Y574.248Z8084.217A9097.402
N16200G00X604.788Y574.297Z8084.213A9103.132
N16210G00X636.619Y574.223Z8084.219A9108.861
N16220G00X668.45Y574.273Z8084.216A9114.591
N16230G00X698.503Y406.224Z8039.823A9120
N16240G00X700.281Y47.818Z9840.265A9120.32
N16250G00X732.112Y4.499Z9984.987A9126.05
N16260G00X763.943Y0.058Z10000.003A9131.78
N16270G00X795.774Y-0.033A9137.509
N16280G00X827.605Y0.607Z9998.075A9143.239
N16290G01X859.436Y415.768Z8612.76A9148.968
N16300G01X865.508Y616.334Z8092.098A9150.062
N16310G00X891.267Y574.249Z8084.218A9154.698
N16320G00X923.098Y574.298Z8084.213A9160.428
N16330G00X954.929Y574.224Z8084.219A9166.157
N16340G00X986.76Y574.273Z8084.216A9171.887
N16350G00X1018.591Y574.199Z8084.221A9177.616
N16360G00X1050.422Y574.249Z8084.218A9183.346
N16370G00X1082.253Y574.298Z8084.215A9189.076
N16380G00X1114.084Y574.224Z8084.219A9194.805
N16390G00X1145.915Y574.273Z8084.216A9200.535
N16400G00X1177.746Y574.199Z8084.222A9206.264
N16410G00X1209.577Y574.249Z8084.218A9211.994
N16420G00X1241.408Y574.297Z8084.215A9217.724
N16430G00X1273.239Y574.223Z8084.22A9223.453
N16440G00X1305.07Y574.272Z8084.217A9229.183
N16450G00X1336.901Y574.198Z8084.222A9234.912
N16460G00X1368.732Y574.248Z8084.218A9240.642
N16470G00X1400.563Y574.297Z8084.216A9246.372
N16480G00X1432.394Y574.223Z8084.22A9252.101
N16490G00X1464.225Y574.272Z8084.217A9257.831
N16500G00X1496.056Y574.198Z8084.222A9263.56
N16510G00X1527.887Y574.248Z8084.218A9269.29
N16520G00X1559.718Y574.297Z8084.215A9275.02
N16530G00X1591.549Y574.223Z8084.22A9280.749
N16540G00X1623.38Y574.272Z8084.217A9286.479
N16550G00X1655.211Y574.198Z8084.222A9292.208
N16560G00X1687.042Y574.248Z8084.218A9297.938
N16570G00X1718.873Y574.298Z8084.216A9303.667
N16580G00X1750.704Y574.224Z8084.22A9309.397
N16590G00X1782.535Y574.273Z8084.218A9315.126
N16600G00X1814.366Y574.199Z8084.222A9320.856
N16610G00X1846.197Y574.248Z8084.22A9326.585
N16620G00X1878.028Y574.297Z8084.217A9332.315
N16630G00X1909.86Y574.223Z8084.222A9338.044
N16640G00X1941.691Y574.273Z8084.218A9343.774
N16650G00X1973.522Y574.199Z8084.223A9349.503
N16660G00X2005.352Y574.248Z8084.218A9355.233
N16670G00X2031.831Y595.227Z8090.61A9360
N16680G00X2063.662Y595.153Z8090.616A9365.729
N16690G00X2095.493Y595.202Z8090.612A9371.459
N16700G00X2127.324Y595.128Z8090.617A9377.188
N16710G00X2159.155Y595.178Z8090.614A9382.918
N16720G00X2190.986Y595.227Z8090.61A9388.648
N16730G00X2222.817Y595.152Z8090.616A9394.377
N16740G00X2254.648Y595.202Z8090.612A9400.107
N16750G00X2286.479Y595.128Z8090.618A9405.836
N16760G00X2318.31Y595.176Z8090.614A9411.566
N16770G00X2350.141Y595.226Z8090.61A9417.296
N16780G00X2381.972Y595.153Z8090.617A9423.025
N16790G00X2413.803Y595.202Z8090.613A9428.755
N16800G00X2445.634Y595.128Z8090.619A9434.484
N16810G00X2477.465Y595.177Z8090.616A9440.214
N16820G00X2509.296Y595.226Z8090.612A9445.943
N16830G00X2541.127Y595.152Z8090.618A9451.673
N16840G00X2572.958Y595.202Z8090.615A9457.402
N16850G00X2604.789Y595.128Z8090.621A9463.132
N16860G00X2636.62Y595.177Z8090.617A9468.861
N16870G00X2668.451Y595.227Z8090.613A9474.591
N16880G00X2700.282Y595.152Z8090.619A9480.32
N16890G00X2732.113Y595.202Z8090.616A9486.05
N16900G00X2763.944Y595.128Z8090.62A9491.779
N16910G00X2795.775Y595.177Z8090.618A9497.509
N16920G00X2827.606Y595.227Z8090.614A9503.239
N16930G00X2859.437Y595.154Z8090.618A9508.968
N16940G00X2891.268Y595.203Z8090.615A9514.698
N16950G00X2923.099Y595.128Z8090.62A9520.427
N16960G00X2954.93Y595.178Z8090.618A9526.157
N16970G00X2986.761Y595.227Z8090.614A9531.887
N16980G00X3018.592Y595.153Z8090.62A9537.616
N16990G00X3050.423Y595.202Z8090.616A9543.346
N17000G00X3082.254Y595.128Z8090.621A9549.075
N17010G00X3114.085Y595.178Z8090.618A9554.805
N17020G00X3145.916Y595.227Z8090.614A9560.535
N17030G00X3177.747Y595.153Z8090.62A9566.264
N17040G00X3209.578Y595.202Z8090.616A9571.994
N17050G00X3241.41Y595.128Z8090.621A9577.723
N17060G00X3273.241Y595.177Z8090.618A9583.453
N17070G00X3305.072Y595.227Z8090.615A9589.183
N17080G00X3336.903Y595.152Z8090.62A9594.912
N17090G00X3368.734Y595.201Z8090.618A9600.642
N17100G00X3400.565Y595.127Z8090.623A9606.371
N17110G00X3432.396Y595.177Z8090.619A9612.101
N17120G00X3464.227Y595.226Z8090.615A9617.831
N17130G00X3496.058Y595.152Z8090.621A9623.56
N17140G00X3527.889Y595.201Z8090.616A9629.29
N17150G00X3559.72Y595.127Z8090.621A9635.019
N17160G00X3591.551Y595.176Z8090.619A9640.749
N17170G00X3623.382Y595.226Z8090.615A9646.479
N17180G00X3655.213Y595.152Z8090.62A9652.208
N17190G00X3687.044Y595.202Z8090.617A9657.938
N17200G00X3718.875Y595.128Z8090.622A9663.667
N17210G00X3750.706Y595.178Z8090.62A9669.397
N17220G00X3782.537Y595.227Z8090.616A9675.127
N17230G00X3814.368Y595.154Z8090.621A9680.856
N17240G00X3846.199Y595.202Z8090.619A9686.586
N17250G00X3878.03Y595.128Z8090.624A9692.315
N17260G00X3909.861Y595.177Z8090.62A9698.045
N17270G00X3941.692Y595.227Z8090.617A9703.774
N17280G00X3973.523Y595.153Z8090.621A9709.504
N17290G00X4005.354Y595.202Z8090.617A9715.233
N17300G00X4031.83Y615.842Z8097.2A9719.999
N17310G00X4063.661Y615.892Z8097.196A9725.729
N17320G00X4095.492Y615.941Z8097.192A9731.459
N17330G00X4127.323Y615.867Z8097.197A9737.188
N17340G00X4159.153Y615.917Z8097.194A9742.918
N17350G00X4190.984Y615.842Z8097.199A9748.647
N17360G00X4222.815Y615.891Z8097.196A9754.377
N17370G00X4254.646Y615.941Z8097.192A9760.107
N17380G00X4286.477Y615.867Z8097.198A9765.836
N17390G00X4318.307Y615.916Z8097.194A9771.566
N17400G00X4350.138Y615.842Z8097.2A9777.295
N17410G00X4381.969Y615.891Z8097.197A9783.025
N17420G00X4413.8Y615.941Z8097.194A9788.755
N17430G00X4445.631Y615.867Z8097.2A9794.484
N17440G00X4477.461Y615.916Z8097.196A9800.214
N17450G00X4509.292Y615.842Z8097.201A9805.943
N17460G00X4541.123Y615.891Z8097.199A9811.673
N17470G00X4572.954Y615.94Z8097.195A9817.403
N17480G00X4604.784Y615.866Z8097.201A9823.132
N17490G00X4636.615Y615.916Z8097.197A9828.862
N17500G00X4668.446Y615.842Z8097.204A9834.591
N17510G00X4700.277Y615.891Z8097.199A9840.321
N17520G00X4732.108Y615.941Z8097.195A9846.051
N17530G00X4763.938Y615.867Z8097.202A9851.78
N17540G00X4795.769Y615.916Z8097.197A9857.509
N17550G00X4827.6Y615.843Z8097.203A9863.239
N17560G00X4859.431Y615.892Z8097.199A9868.968
N17570G00X4891.262Y615.942Z8097.195A9874.698
N17580G00X4923.092Y615.867Z8097.201A9880.427
N17590G00X4954.923Y615.917Z8097.198A9886.157
N17600G00X4986.754Y615.842Z8097.204A9891.886
N17610G00X5018.585Y615.892Z8097.2A9897.616
N17620G00X5050.415Y615.941Z8097.196A9903.346
N17630G00X5082.246Y615.867Z8097.202A9909.075
N17640G00X5114.077Y615.916Z8097.198A9914.805
N17650G00X5145.908Y615.842Z8097.203A9920.534
N17660G00X5177.739Y615.892Z8097.2A9926.264
N17670G00X5209.569Y615.941Z8097.196A9931.994
N17680G00X5241.4Y615.867Z8097.202A9937.723
N17690G00X5273.231Y615.916Z8097.198A9943.453
N17700G00X5305.062Y615.842Z8097.204A9949.182
N17710G00X5336.893Y615.891Z8097.2A9954.912
N17720G00X5368.723Y615.94Z8097.197A9960.642
N17730G00X5400.554Y615.866Z8097.203A9966.371
N17740G00X5432.385Y615.916Z8097.2A9972.101
N17750G00X5464.216Y615.841Z8097.205A9977.83
N17760G00X5496.047Y615.891Z8097.201A9983.56
N17770G00X5527.877Y615.94Z8097.197A9989.29
N17780G00X5559.708Y615.866Z8097.203A9995.019
N17790G00X5591.539Y615.915Z8097.198A10000.749
N17800G00X5623.37Y615.841Z8097.204A10006.478
N17810G00X5655.2Y615.891Z8097.201A10012.208
N17820G00X5687.031Y615.941Z8097.197A10017.938
N17830G00X5718.862Y615.867Z8097.203A10023.667
N17840G00X5750.693Y615.916Z8097.2A10029.397
N17850G00X5782.524Y615.843Z8097.206A10035.126
N17860G00X5814.354Y615.892Z8097.202A10040.856
N17870G00X5846.185Y615.941Z8097.198A10046.586
N17880G00X5878.016Y615.867Z8097.204A10052.315
N17890G00X5909.847Y615.916Z8097.2A10058.045
N17900G00X5941.678Y615.842Z8097.207A10063.774
N17910G00X5973.508Y615.892Z8097.202A10069.504
N17920G00X6005.339Y615.941Z8097.197A10075.234
N17930G00X6031.83Y636.361Z8103.955A10079.999
N17940G00X6063.661Y636.411Z8103.951A10085.729
N17950G00X6095.492Y636.46Z8103.947A10091.459
N17960G00X6127.323Y636.386Z8103.953A10097.188
N17970G00X6159.153Y636.435Z8103.95A10102.918
N17980G00X6190.984Y636.361Z8103.955A10108.647
N17990G00X6222.815Y636.41Z8103.952A10114.377
N18000G00X6254.646Y636.46Z8103.948A10120.107
N18010G00X6286.477Y636.386Z8103.954A10125.836
N18020G00X6318.307Y636.435Z8103.95A10131.566
N18030G00X6350.138Y636.36Z8103.956A10137.295
N18040G00X6381.969Y636.41Z8103.953A10143.025
N18050G00X6413.8Y636.46Z8103.949A10148.755
N18060G00X6445.631Y636.386Z8103.956A10154.484
N18070G00X6477.461Y636.435Z8103.952A10160.214
N18080G00X6509.292Y636.361Z8103.958A10165.943
N18090G00X6541.123Y636.41Z8103.955A10171.673
N18100G00X6572.954Y636.46Z8103.95A10177.403
N18110G00X6604.784Y636.386Z8103.957A10183.132
N18120G00X6636.615Y636.435Z8103.953A10188.862
N18130G00X6668.446Y636.361Z8103.96A10194.591
N18140G00X6700.277Y636.41Z8103.955A10200.321
N18150G00X6732.108Y636.46Z8103.95A10206.051
N18160G00X6763.938Y636.386Z8103.957A10211.78
N18170G00X6795.769Y636.435Z8103.954A10217.51
N18180G00X6827.6Y636.361Z8103.96A10223.239
N18190G00X6859.431Y636.41Z8103.955A10228.969
N18200G00X6891.262Y636.46Z8103.951A10234.699
N18210G00X6923.092Y636.386Z8103.957A10240.428
N18220G00X6954.923Y636.435Z8103.954A10246.158
N18230G00X6986.754Y636.361Z8103.96A10251.887
N18240G00X7018.585Y636.411Z8103.956A10257.617
N18250G00X7050.415Y636.46Z8103.951A10263.346
N18260G00X7082.246Y636.386Z8103.957A10269.075
N18270G00X7114.077Y636.435Z8103.954A10274.805
N18280G00X7145.908Y636.361Z8103.959A10280.534
N18290G00X7177.739Y636.411Z8103.956A10286.264
N18300G00X7209.569Y636.46Z8103.952A10291.994
N18310G00X7241.4Y636.385Z8103.958A10297.723
N18320G00X7273.231Y636.434Z8103.954A10303.453
N18330G00X7305.062Y636.36Z8103.96A10309.182
N18340G00X7336.893Y636.41Z8103.956A10314.912
N18350G00X7368.723Y636.46Z8103.952A10320.642
N18360G00X7400.554Y636.385Z8103.959A10326.371
N18370G00X7432.385Y636.435Z8103.955A10332.101
N18380G00X7464.216Y636.361Z8103.96A10337.83
N18390G00X7496.047Y636.41Z8103.956A10343.56
N18400G00X7527.877Y636.459Z8103.952A10349.29
N18410G00X7559.708Y636.385Z8103.958A10355.019
N18420G00X7591.539Y636.434Z8103.954A10360.749
N18430G00X7623.37Y636.36Z8103.96A10366.478
N18440G00X7655.2Y636.409Z8103.957A10372.208
N18450G00X7687.031Y636.459Z8103.953A10377.938
N18460G00X7718.862Y636.386Z8103.959A10383.667
N18470G00X7750.693Y636.435Z8103.956A10389.397
N18480G00X7782.524Y636.361Z8103.961A10395.126
N18490G00X7814.354Y636.41Z8103.958A10400.856
N18500G00X7846.185Y636.46Z8103.954A10406.586
N18510G00X7878.016Y636.385Z8103.96A10412.315
N18520G00X7909.847Y636.435Z8103.956A10418.045
N18530G00X7941.678Y636.361Z8103.962A10423.774
N18540G00X7973.508Y636.41Z8103.957A10429.504
N18550G00X8005.339Y636.46Z8103.953A10435.234
N18560G00X8031.83Y656.657Z8110.879A10439.999
N18570G00X8063.661Y656.706Z8110.875A10445.729
N18580G00X8095.492Y656.632Z8110.882A10451.458
N18590G00X8127.323Y656.681Z8110.877A10457.188
N18600G00X8159.153Y656.731Z8110.875A10462.918
N18610G00X8190.984Y656.656Z8110.879A10468.647
N18620G00X8222.815Y656.705Z8110.876A10474.377
N18630G00X8254.646Y656.631Z8110.881A10480.106
N18640G00X8286.477Y656.681Z8110.877A10485.836
N18650G00X8318.307Y656.73Z8110.874A10491.566
N18660G00X8350.138Y656.656Z8110.88A10497.295
N18670G00X8381.969Y656.706Z8110.877A10503.025
N18680G00X8413.8Y656.631Z8110.883A10508.754
N18690G00X8445.631Y656.681Z8110.879A10514.484
N18700G00X8477.461Y656.73Z8110.876A10520.214
N18710G00X8509.292Y656.656Z8110.882A10525.943
N18720G00X8541.123Y656.705Z8110.877A10531.673
N18730G00X8572.954Y656.631Z8110.884A10537.402
N18740G00X8604.784Y656.681Z8110.881A10543.132
N18750G00X8636.615Y656.73Z8110.877A10548.862
N18760G00X8668.446Y656.656Z8110.883A10554.591
N18770G00X8700.277Y656.705Z8110.879A10560.321
N18780G00X8732.108Y656.632Z8110.885A10566.05
N18790G00X8763.938Y656.681Z8110.881A10571.78
N18800G00X8795.769Y656.731Z8110.877A10577.51
N18810G00X8827.6Y656.657Z8110.883A10583.239
N18820G00X8859.431Y656.706Z8110.879A10588.969
N18830G00X8891.262Y656.632Z8110.885A10594.698
N18840G00X8923.092Y656.682Z8110.881A10600.428
N18850G00X8954.923Y656.731Z8110.878A10606.158
N18860G00X8986.754Y656.657Z8110.883A10611.887
N18870G00X9018.585Y656.706Z8110.88A10617.617
N18880G00X9050.415Y656.632Z8110.886A10623.346
N18890G00X9082.246Y656.681Z8110.882A10629.076
N18900G00X9114.077Y656.731Z8110.877A10634.806
N18910G00X9145.908Y656.657Z8110.884A10640.535
N18920G00X9177.739Y656.706Z8110.881A10646.265
N18930G00X9209.569Y656.632Z8110.886A10651.994
N18940G00X9241.4Y656.681Z8110.881A10657.724
N18950G00X9273.231Y656.73Z8110.878A10663.453
N18960G00X9305.062Y656.655Z8110.885A10669.182
N18970G00X9336.893Y656.706Z8110.88A10674.912
N18980G00X9368.723Y656.631Z8110.887A10680.641
N18990G00X9400.554Y656.681Z8110.883A10686.371
N19000G00X9432.385Y656.73Z8110.879A10692.101
N19010G00X9464.216Y656.656Z8110.885A10697.83
N19020G00X9496.047Y656.705Z8110.88A10703.56
N19030G00X9527.877Y656.631Z8110.885A10709.289
N19040G00X9559.708Y656.681Z8110.883A10715.019
N19050G00X9591.539Y656.73Z8110.879A10720.749
N19060G00X9623.37Y656.656Z8110.884A10726.478
N19070G00X9655.2Y656.705Z8110.881A10732.208
N19080G00X9687.031Y656.631Z8110.887A10737.937
N19090G00X9718.862Y656.681Z8110.883A10743.667
N19100G00X9750.693Y656.731Z8110.88A10749.397
N19110G00X9782.524Y656.657Z8110.885A10755.126
N19120G00X9814.354Y656.706Z8110.882A10760.856
N19130G00X9846.185Y656.632Z8110.888A10766.585
N19140G00X9878.016Y656.681Z8110.885A10772.315
N19150G00X9909.847Y656.731Z8110.88A10778.045
N19160G00X9941.678Y656.657Z8110.886A10783.774
N19170G00X9973.508Y656.706Z8110.881A10789.504
N19180G00X10005.339Y656.632Z8110.887A10795.233
N19190G00X10031.83Y676.725Z8117.967A10800
N19200G00X10063.661Y676.774Z8117.962A10805.729
N19210G00X10095.492Y676.7Z8117.969A10811.459
N19220G00X10127.323Y676.75Z8117.964A10817.188
N19230G00X10159.153Y676.675Z8117.971A10822.917
N19240G00X10190.984Y676.725Z8117.966A10828.647
N19250G00X10222.815Y676.774Z8117.962A10834.377
N19260G00X10254.646Y676.699Z8117.968A10840.106
N19270G00X10286.477Y676.749Z8117.963A10845.836
N19280G00X10318.307Y676.675Z8117.971A10851.565
N19290G00X10350.138Y676.724Z8117.967A10857.295
N19300G00X10381.969Y676.774Z8117.963A10863.025
N19310G00X10413.8Y676.7Z8117.969A10868.754
N19320G00X10445.631Y676.75Z8117.966A10874.484
N19330G00X10477.461Y676.675Z8117.973A10880.213
N19340G00X10509.292Y676.724Z8117.969A10885.943
N19350G00X10541.123Y676.774Z8117.965A10891.673
N19360G00X10572.954Y676.699Z8117.971A10897.402
N19370G00X10604.784Y676.749Z8117.968A10903.132
N19380G00X10636.615Y676.675Z8117.974A10908.861
N19390G00X10668.446Y676.724Z8117.97A10914.591
N19400G00X10700.277Y676.774Z8117.965A10920.321
N19410G00X10732.108Y676.7Z8117.971A10926.05
N19420G00X10763.938Y676.749Z8117.968A10931.78
N19430G00X10795.769Y676.675Z8117.975A10937.509
N19440G00X10827.6Y676.725Z8117.97A10943.239
N19450G00X10859.431Y676.775Z8117.965A10948.969
N19460G00X10891.262Y676.7Z8117.972A10954.698
N19470G00X10923.092Y676.749Z8117.968A10960.428
N19480G00X10954.923Y676.675Z8117.975A10966.157
N19490G00X10986.754Y676.725Z8117.97A10971.887
N19500G00X11018.585Y676.774Z8117.966A10977.617
N19510G00X11050.415Y676.7Z8117.973A10983.346
N19520G00X11082.246Y676.749Z8117.968A10989.076
N19530G00X11114.077Y676.675Z8117.975A10994.805
N19540G00X11145.908Y676.725Z8117.97A11000.535
N19550G00X11177.739Y676.774Z8117.967A11006.265
N19560G00X11209.569Y676.7Z8117.973A11011.994
N19570G00X11241.4Y676.749Z8117.969A11017.724
N19580G00X11273.231Y676.674Z8117.975A11023.453
N19590G00X11305.062Y676.724Z8117.971A11029.183
N19600G00X11336.893Y676.774Z8117.966A11034.913
N19610G00X11368.723Y676.699Z8117.974A11040.642
N19620G00X11400.554Y676.749Z8117.97A11046.372
N19630G00X11432.385Y676.674Z8117.977A11052.101
N19640G00X11464.216Y676.724Z8117.972A11057.831
N19650G00X11496.047Y676.773Z8117.967A11063.56
N19660G00X11527.877Y676.699Z8117.973A11069.29
N19670G00X11559.708Y676.748Z8117.969A11075.019
N19680G00X11591.539Y676.674Z8117.976A11080.748
N19690G00X11623.37Y676.724Z8117.971A11086.478
N19700G00X11655.2Y676.773Z8117.967A11092.208
N19710G00X11687.031Y676.699Z8117.974A11097.937
N19720G00X11718.862Y676.749Z8117.97A11103.667
N19730G00X11750.693Y676.675Z8117.977A11109.396
N19740G00X11782.524Y676.725Z8117.973A11115.126
N19750G00X11814.354Y676.774Z8117.969A11120.856
N19760G00X11846.185Y676.7Z8117.975A11126.585
N19770G00X11878.016Y676.749Z8117.971A11132.315
N19780G00X11909.847Y676.675Z8117.978A11138.044
N19790G00X11941.678Y676.724Z8117.973A11143.774
N19800G00X11973.508Y676.774Z8117.968A11149.504
N19810G00X12005.339Y676.7Z8117.974A11155.233
N19820G00X12031.83Y696.563Z8125.208A11160
N19830G00X12063.661Y696.488Z8125.215A11165.729
N19840G00X12095.492Y696.538Z8125.21A11171.459
N19850G00X12127.323Y696.587Z8125.205A11177.189
N19860G00X12159.153Y696.512Z8125.213A11182.918
N19870G00X12190.984Y696.562Z8125.208A11188.648
N19880G00X12222.815Y696.487Z8125.215A11194.377
N19890G00X12254.646Y696.537Z8125.211A11200.107
N19900G00X12286.477Y696.587Z8125.205A11205.836
N19910G00X12318.307Y696.512Z8125.212A11211.566
N19920G00X12350.138Y696.562Z8125.209A11217.295
N19930G00X12381.969Y696.487Z8125.216A11223.025
N19940G00X12413.8Y696.537Z8125.211A11228.754
N19950G00X12445.631Y696.587Z8125.207A11234.484
N19960G00X12477.461Y696.512Z8125.215A11240.213
N19970G00X12509.292Y696.562Z8125.211A11245.943
N19980G00X12541.123Y696.487Z8125.218A11251.672
N19990G00X12572.954Y696.537Z8125.214A11257.402
N20000G00X12604.784Y696.587Z8125.21A11263.132
N20010G00X12636.615Y696.512Z8125.216A11268.861
N20020G00X12668.446Y696.562Z8125.212A11274.591
N20030G00X12700.277Y696.488Z8125.218A11280.32
N20040G00X12732.108Y696.537Z8125.214A11286.05
N20050G00X12763.938Y696.588Z8125.21A11291.78
N20060G00X12795.769Y696.512Z8125.217A11297.509
N20070G00X12827.6Y696.562Z8125.213A11303.239
N20080G00X12859.431Y696.488Z8125.219A11308.968
N20090G00X12891.262Y696.538Z8125.214A11314.698
N20100G00X12923.092Y696.587Z8125.21A11320.428
N20110G00X12954.923Y696.513Z8125.218A11326.157
N20120G00X12986.754Y696.562Z8125.212A11331.887
N20130G00X13018.585Y696.488Z8125.219A11337.616
N20140G00X13050.415Y696.538Z8125.215A11343.346
N20150G00X13082.246Y696.587Z8125.211A11349.076
N20160G00X13114.077Y696.513Z8125.217A11354.805
N20170G00X13145.908Y696.562Z8125.212A11360.535
N20180G00X13177.739Y696.488Z8125.22A11366.264
N20190G00X13209.569Y696.537Z8125.215A11371.994
N20200G00X13241.4Y696.586Z8125.211A11377.724
N20210G00X13273.231Y696.512Z8125.217A11383.453
N20220G00X13305.062Y696.561Z8125.213A11389.183
N20230G00X13336.893Y696.487Z8125.22A11394.912
N20240G00X13368.723Y696.537Z8125.216A11400.642
N20250G00X13400.554Y696.587Z8125.211A11406.372
N20260G00X13432.385Y696.512Z8125.219A11412.101
N20270G00X13464.216Y696.562Z8125.213A11417.831
N20280G00X13496.047Y696.487Z8125.22A11423.56
N20290G00X13527.877Y696.537Z8125.215A11429.29
N20300G00X13559.708Y696.586Z8125.211A11435.02
N20310G00X13591.539Y696.512Z8125.218A11440.749
N20320G00X13623.37Y696.562Z8125.213A11446.479
N20330G00X13655.2Y696.487Z8125.22A11452.208
N20340G00X13687.031Y696.537Z8125.215A11457.938
N20350G00X13718.862Y696.587Z8125.212A11463.667
N20360G00X13750.693Y696.513Z8125.219A11469.397
N20370G00X13782.524Y696.563Z8125.214A11475.126
N20380G00X13814.354Y696.488Z8125.221A11480.856
N20390G00X13846.185Y696.537Z8125.218A11486.585
N20400G00X13878.016Y696.587Z8125.213A11492.315
N20410G00X13909.847Y696.512Z8125.22A11498.044
N20420G00X13941.678Y696.563Z8125.215A11503.774
N20430G00X13973.508Y696.488Z8125.221A11509.503
N20440G00X14005.339Y696.538Z8125.217A11515.233
N20450G00X14031.83Y716.167Z8132.599A11520
N20460G00X14063.661Y716.092Z8132.606A11525.729
N20470G00X14095.492Y716.142Z8132.601A11531.459
N20480G00X14127.323Y716.068Z8132.608A11537.188
N20490G00X14159.153Y716.117Z8132.604A11542.918
N20500G00X14190.984Y716.166Z8132.599A11548.648
N20510G00X14222.815Y716.091Z8132.606A11554.377
N20520G00X14254.646Y716.142Z8132.601A11560.107
N20530G00X14286.477Y716.067Z8132.608A11565.836
N20540G00X14318.307Y716.117Z8132.603A11571.566
N20550G00X14350.138Y716.166Z8132.599A11577.296
N20560G00X14381.969Y716.091Z8132.607A11583.025
N20570G00X14413.8Y716.142Z8132.603A11588.755
N20580G00X14445.631Y716.067Z8132.61A11594.484
N20590G00X14477.461Y716.117Z8132.606A11600.214
N20600G00X14509.292Y716.166Z8132.602A11605.943
N20610G00X14541.123Y716.092Z8132.609A11611.673
N20620G00X14572.954Y716.141Z8132.604A11617.402
N20630G00X14604.784Y716.067Z8132.612A11623.132
N20640G00X14636.615Y716.116Z8132.608A11628.861
N20650G00X14668.446Y716.166Z8132.602A11634.591
N20660G00X14700.277Y716.092Z8132.609A11640.32
N20670G00X14732.108Y716.141Z8132.605A11646.05
N20680G00X14763.938Y716.067Z8132.612A11651.779
N20690G00X14795.769Y716.116Z8132.608A11657.509
N20700G00X14827.6Y716.166Z8132.603A11663.239
N20710G00X14859.431Y716.093Z8132.61A11668.968
N20720G00X14891.262Y716.142Z8132.605A11674.698
N20730G00X14923.092Y716.067Z8132.612A11680.427
N20740G00X14954.923Y716.117Z8132.608A11686.157
N20750G00X14986.754Y716.167Z8132.603A11691.887
N20760G00X15018.585Y716.092Z8132.61A11697.616
N20770G00X15050.415Y716.142Z8132.606A11703.346
N20780G00X15082.246Y716.067Z8132.611A11709.075
N20790G00X15114.077Y716.117Z8132.608A11714.805
N20800G00X15145.908Y716.167Z8132.603A11720.535
N20810G00X15177.739Y716.092Z8132.61A11726.264
N20820G00X15209.569Y716.141Z8132.606A11731.994
N20830G00X15241.4Y716.067Z8132.612A11737.723
N20840G00X15273.231Y716.116Z8132.608A11743.453
N20850G00X15305.062Y716.165Z8132.604A11749.183
N20860G00X15336.893Y716.092Z8132.61A11754.912
N20870G00X15368.723Y716.141Z8132.607A11760.642
N20880G00X15400.554Y716.066Z8132.614A11766.371
N20890G00X15432.385Y716.116Z8132.609A11772.101
N20900G00X15464.216Y716.166Z8132.604A11777.831
N20910G00X15496.047Y716.091Z8132.611A11783.56
N20920G00X15527.877Y716.141Z8132.606A11789.29
N20930G00X15559.708Y716.066Z8132.614A11795.019
N20940G00X15591.539Y716.116Z8132.608A11800.749
N20950G00X15623.37Y716.166Z8132.604A11806.479
N20960G00X15655.2Y716.091Z8132.611A11812.208
N20970G00X15687.031Y716.14Z8132.607A11817.938
N20980G00X15718.862Y716.067Z8132.614A11823.667
N20990G00X15750.693Y716.116Z8132.61A11829.397
N21000G00X15782.524Y716.166Z8132.605A11835.127
N21010G00X15814.354Y716.092Z8132.612A11840.856
N21020G00X15846.185Y716.141Z8132.608A11846.586
N21030G00X15878.016Y716.067Z8132.615A11852.315
N21040G00X15909.847Y716.116Z8132.61A11858.045
N21050G00X15941.678Y716.166Z8132.606A11863.774
N21060G00X15973.508Y716.092Z8132.612A11869.504
N21070G00X16005.34Y716.142Z8132.607A11875.233
N21080G00X16031.831Y735.411Z8140.143A11879.999
N21090G00X16063.663Y735.46Z8140.139A11885.729
N21100G00X16095.495Y735.51Z8140.134A11891.459
N21110G00X16127.326Y735.435Z8140.141A11897.188
N21120G00X16159.158Y735.485Z8140.137A11902.918
N21130G00X16190.99Y735.411Z8140.143A11908.647
N21140G00X16222.822Y735.46Z8140.138A11914.377
N21150G00X16254.653Y735.51Z8140.134A11920.107
N21160G00X16286.485Y735.435Z8140.141A11925.836
N21170G00X16318.317Y735.485Z8140.137A11931.566
N21180G00X16350.149Y735.41Z8140.144A11937.295
N21190G00X16381.98Y735.46Z8140.14A11943.025
N21200G00X16413.812Y735.509Z8140.135A11948.755
N21210G00X16445.644Y735.435Z8140.143A11954.484
N21220G00X16477.476Y735.485Z8140.139A11960.214
N21230G00X16509.307Y735.41Z8140.146A11965.943
N21240G00X16541.139Y735.46Z8140.142A11971.673
N21250G00X16572.971Y735.509Z8140.137A11977.403
N21260G00X16604.803Y735.435Z8140.145A11983.132
N21270G00X16636.634Y735.485Z8140.14A11988.862
N21280G00X16668.466Y735.41Z8140.148A11994.591
N21290G00X16700.298Y735.46Z8140.142A12000.321
N21300G00X16732.13Y735.51Z8140.138A12006.051
N21310G00X16763.961Y735.435Z8140.145A12011.78
N21320G00X16795.793Y735.485Z8140.14A12017.509
N21330G00X16827.625Y735.411Z8140.147A12023.239
N21340G00X16859.457Y735.461Z8140.142A12028.968
N21350G00X16891.288Y735.51Z8140.138A12034.698
N21360G00X16923.12Y735.436Z8140.145A12040.427
N21370G00X16954.952Y735.485Z8140.141A12046.157
N21380G00X16986.783Y735.411Z8140.148A12051.886
N21390G00X17018.615Y735.46Z8140.144A12057.616
N21400G00X17050.447Y735.51Z8140.138A12063.346
N21410G00X17082.279Y735.435Z8140.145A12069.075
N21420G00X17114.11Y735.485Z8140.14A12074.805
N21430G00X17145.942Y735.411Z8140.148A12080.534
N21440G00X17177.774Y735.46Z8140.144A12086.264
N21450G00X17209.606Y735.51Z8140.138A12091.994
N21460G00X17241.437Y735.435Z8140.146A12097.723
N21470G00X17273.269Y735.484Z8140.141A12103.453
N21480G00X17305.101Y735.41Z8140.148A12109.182
N21490G00X17336.933Y735.46Z8140.144A12114.912
N21500G00X17368.764Y735.509Z8140.139A12120.642
N21510G00X17400.596Y735.435Z8140.147A12126.371
N21520G00X17432.428Y735.484Z8140.142A12132.101
N21530G00X17464.26Y735.41Z8140.149A12137.83
N21540G00X17496.091Y735.459Z8140.144A12143.56
N21550G00X17527.923Y735.509Z8140.14A12149.29
N21560G00X17559.755Y735.434Z8140.146A12155.019
N21570G00X17591.587Y735.484Z8140.142A12160.749
N21580G00X17623.418Y735.409Z8140.148A12166.478
N21590G00X17655.25Y735.459Z8140.144A12172.208
N21600G00X17687.082Y735.509Z8140.139A12177.938
N21610G00X17718.914Y735.435Z8140.146A12183.667
N21620G00X17750.745Y735.485Z8140.143A12189.397
N21630G00X17782.577Y735.41Z8140.15A12195.126
N21640G00X17814.409Y735.46Z8140.145A12200.856
N21650G00X17846.24Y735.509Z8140.141A12206.586
N21660G00X17878.072Y735.435Z8140.149A12212.315
N21670G00X17909.904Y735.485Z8140.143A12218.045
N21680G00X17941.736Y735.411Z8140.15A12223.774
N21690G00X17973.567Y735.46Z8140.145A12229.504
N21700G00X18005.399Y735.51Z8140.139A12235.234
N21710G00X18031.831Y754.54Z8147.812A12239.999
N21720G00X18063.663Y754.59Z8147.808A12245.729
N21730G00X18095.495Y754.516Z8147.813A12251.458
N21740G00X18127.326Y754.565Z8147.809A12257.188
N21750G00X18159.158Y754.615Z8147.806A12262.918
N21760G00X18190.99Y754.54Z8147.811A12268.647
N21770G00X18222.822Y754.59Z8147.807A12274.377
N21780G00X18254.653Y754.515Z8147.814A12280.106
N21790G00X18286.485Y754.565Z8147.809A12285.836
N21800G00X18318.317Y754.615Z8147.806A12291.566
N21810G00X18350.149Y754.539Z8147.812A12297.295
N21820G00X18381.98Y754.589Z8147.809A12303.025
N21830G00X18413.812Y754.515Z8147.816A12308.754
N21840G00X18445.644Y754.565Z8147.811A12314.484
N21850G00X18477.476Y754.615Z8147.808A12320.214
N21860G00X18509.307Y754.54Z8147.814A12325.943
N21870G00X18541.139Y754.59Z8147.809A12331.673
N21880G00X18572.971Y754.515Z8147.817A12337.402
N21890G00X18604.803Y754.565Z8147.813A12343.132
N21900G00X18636.634Y754.614Z8147.809A12348.862
N21910G00X18668.466Y754.54Z8147.815A12354.591
N21920G00X18700.298Y754.59Z8147.811A12360.321
N21930G00X18732.13Y754.515Z8147.817A12366.05
N21940G00X18763.961Y754.565Z8147.813A12371.78
N21950G00X18795.793Y754.615Z8147.809A12377.51
N21960G00X18827.625Y754.54Z8147.816A12383.239
N21970G00X18859.457Y754.59Z8147.81A12388.969
N21980G00X18891.288Y754.516Z8147.818A12394.698
N21990G00X18923.12Y754.565Z8147.813A12400.428
N22000G00X18954.952Y754.615Z8147.809A12406.158
N22010G00X18986.783Y754.541Z8147.816A12411.887
N22020G00X19018.615Y754.59Z8147.811A12417.617
N22030G00X19050.447Y754.516Z8147.818A12423.346
N22040G00X19082.279Y754.565Z8147.814A12429.075
N22050G00X19114.11Y754.615Z8147.809A12434.805
N22060G00X19145.942Y754.54Z8147.816A12440.534
N22070G00X19177.774Y754.59Z8147.812A12446.264
N22080G00X19209.606Y754.515Z8147.818A12451.993
N22090G00X19241.437Y754.565Z8147.813A12457.723
N22100G00X19273.269Y754.614Z8147.809A12463.453
N22110G00X19305.101Y754.539Z8147.817A12469.182
N22120G00X19336.933Y754.59Z8147.811A12474.912
N22130G00X19368.764Y754.515Z8147.819A12480.641
N22140G00X19400.596Y754.565Z8147.815A12486.371
N22150G00X19432.428Y754.614Z8147.81A12492.101
N22160G00X19464.26Y754.54Z8147.817A12497.83
N22170G00X19496.091Y754.589Z8147.812A12503.56
N22180G00X19527.923Y754.515Z8147.819A12509.289
N22190G00X19559.755Y754.564Z8147.814A12515.019
N22200G00X19591.587Y754.614Z8147.809A12520.749
N22210G00X19623.418Y754.539Z8147.816A12526.478
N22220G00X19655.25Y754.589Z8147.812A12532.208
N22230G00X19687.082Y754.515Z8147.82A12537.937
N22240G00X19718.914Y754.565Z8147.815A12543.667
N22250G00X19750.745Y754.614Z8147.811A12549.397
N22260G00X19782.577Y754.54Z8147.817A12555.126
N22270G00X19814.409Y754.59Z8147.813A12560.856
N22280G00X19846.24Y754.515Z8147.821A12566.585
N22290G00X19878.072Y754.565Z8147.817A12572.315
N22300G00X19909.904Y754.615Z8147.811A12578.045
N22310G00X19941.736Y754.54Z8147.819A12583.774
N22320G00X19973.567Y754.59Z8147.813A12589.504
N22330G00X20005.399Y754.516Z8147.82A12595.233
N22340G00X20031.831Y773.43Z8155.61A12599.999
N22350G00X20063.663Y773.479Z8155.605A12605.729
N22360G00X20095.495Y773.405Z8155.611A12611.458
N22370G00X20127.326Y773.454Z8155.606A12617.188
N22380G00X20159.158Y773.504Z8155.603A12622.918
N22390G00X20190.99Y773.429Z8155.61A12628.647
N22400G00X20222.822Y773.479Z8155.605A12634.377
N22410G00X20254.653Y773.404Z8155.611A12640.106
N22420G00X20286.485Y773.454Z8155.607A12645.836
N22430G00X20318.317Y773.504Z8155.602A12651.566
N22440G00X20350.149Y773.428Z8155.61A12657.295
N22450G00X20381.98Y773.479Z8155.606A12663.025
N22460G00X20413.812Y773.404Z8155.613A12668.754
N22470G00X20445.644Y773.454Z8155.61A12674.484
N22480G00X20477.476Y773.504Z8155.605A12680.214
N22490G00X20509.307Y773.429Z8155.612A12685.943
N22500G00X20541.139Y773.479Z8155.608A12691.673
N22510G00X20572.971Y773.404Z8155.614A12697.402
N22520G00X20604.803Y773.454Z8155.611A12703.132
N22530G00X20636.634Y773.504Z8155.606A12708.862
N22540G00X20668.466Y773.429Z8155.613A12714.591
N22550G00X20700.298Y773.479Z8155.609A12720.321
N22560G00X20732.13Y773.404Z8155.616A12726.05
N22570G00X20763.961Y773.454Z8155.611A12731.78
N22580G00X20795.793Y773.504Z8155.607A12737.51
N22590G00X20827.625Y773.43Z8155.613A12743.239
N22600G00X20859.457Y773.479Z8155.609A12748.969
N22610G00X20891.288Y773.405Z8155.615A12754.698
N22620G00X20923.12Y773.455Z8155.611A12760.428
N22630G00X20954.952Y773.504Z8155.607A12766.158
N22640G00X20986.783Y773.43Z8155.613A12771.887
N22650G00X21018.615Y773.479Z8155.609A12777.617
N22660G00X21050.447Y773.405Z8155.616A12783.346
N22670G00X21082.279Y773.454Z8155.611A12789.076
N22680G00X21114.11Y773.504Z8155.606A12794.806
N22690G00X21145.942Y773.429Z8155.614A12800.535
N22700G00X21177.774Y773.479Z8155.61A12806.265
N22710G00X21209.606Y773.405Z8155.616A12811.994
N22720G00X21241.437Y773.454Z8155.611A12817.724
N22730G00X21273.269Y773.504Z8155.607A12823.453
N22740G00X21305.101Y773.429Z8155.614A12829.183
N22750G00X21336.933Y773.479Z8155.61A12834.912
N22760G00X21368.764Y773.404Z8155.617A12840.641
N22770G00X21400.596Y773.453Z8155.612A12846.371
N22780G00X21432.428Y773.504Z8155.609A12852.101
N22790G00X21464.26Y773.429Z8155.615A12857.83
N22800G00X21496.091Y773.478Z8155.61A12863.56
N22810G00X21527.923Y773.404Z8155.616A12869.289
N22820G00X21559.755Y773.453Z8155.611A12875.019
N22830G00X21591.587Y773.503Z8155.607A12880.749
N22840G00X21623.418Y773.428Z8155.613A12886.478
N22850G00X21655.25Y773.478Z8155.61A12892.208
N22860G00X21687.082Y773.404Z8155.617A12897.937
N22870G00X21718.914Y773.454Z8155.612A12903.667
N22880G00X21750.745Y773.504Z8155.609A12909.397
N22890G00X21782.577Y773.429Z8155.615A12915.126
N22900G00X21814.409Y773.479Z8155.611A12920.856
N22910G00X21846.24Y773.404Z8155.618A12926.585
N22920G00X21878.072Y773.454Z8155.614A12932.315
N22930G00X21909.904Y773.504Z8155.61A12938.045
N22940G00X21941.736Y773.43Z8155.616A12943.774
N22950G00X21973.567Y773.479Z8155.611A12949.504
N22960G00X22005.399Y773.405Z8155.618A12955.233
N22970G00X22031.831Y792.077Z8163.53A12960
N22980G00X22063.663Y792.126Z8163.525A12965.729
N22990G00X22095.495Y792.052Z8163.532A12971.459
N23000G00X22127.326Y792.101Z8163.527A12977.188
N23010G00X22159.158Y792.026Z8163.535A12982.917
N23020G00X22190.99Y792.076Z8163.53A12988.647
N23030G00X22222.822Y792.126Z8163.524A12994.377
N23040G00X22254.653Y792.052Z8163.532A13000.106
N23050G00X22286.485Y792.101Z8163.526A13005.836
N23060G00X22318.317Y792.027Z8163.534A13011.565
N23070G00X22350.149Y792.076Z8163.531A13017.295
N23080G00X22381.98Y792.126Z8163.526A13023.025
N23090G00X22413.812Y792.052Z8163.534A13028.754
N23100G00X22445.644Y792.101Z8163.529A13034.484
N23110G00X22477.476Y792.026Z8163.537A13040.213
N23120G00X22509.307Y792.076Z8163.532A13045.943
N23130G00X22541.139Y792.126Z8163.528A13051.673
N23140G00X22572.971Y792.051Z8163.535A13057.402
N23150G00X22604.803Y792.101Z8163.53A13063.132
N23160G00X22636.634Y792.026Z8163.538A13068.861
N23170G00X22668.466Y792.076Z8163.533A13074.591
N23180G00X22700.298Y792.126Z8163.528A13080.321
N23190G00X22732.13Y792.052Z8163.536A13086.05
N23200G00X22763.961Y792.101Z8163.531A13091.78
N23210G00X22795.793Y792.027Z8163.537A13097.509
N23220G00X22827.625Y792.077Z8163.534A13103.239
N23230G00X22859.457Y792.127Z8163.528A13108.969
