(Created with grbl post processor 2025/11/12 23:51)
G21
(G-code Generated with BlenderCAM and NC library)
G17G90
(Tool: D = 6000.0 mm  type END flutes 4)
S12000M03
G00 Z5000.0

G0X-49968.17Y0Z10000
G1Z8000F50000
G0X-49936.34A5.729
X-49904.51A11.459
X-49872.68A17.188
X-49840.85A22.918
X-49809.02A28.647
X-49777.191A34.377
X-49745.361Y-0A40.107
X-49713.531Y0Z7999.999A45.836
X-49681.701Y-0Z8000A51.566
X-49649.871Y0A57.295
X-49618.041A63.025
X-49586.212A68.754
X-49554.382Y-0Z8000.001A74.484
X-49522.552Z8000.002A80.214
X-49518.413Y-25.853Z7994.52A80.958
X-49490.718Y-0Z10000.001A85.943
X-49458.892Z10000.002A91.673
X-49427.062Y0A97.402
X-49395.233Y-0.001Z10000.003A103.132
X-49363.403Y-0Z10000.002A108.861
X-49331.573Y0Z10000.003A114.591
G1X-49299.743Y-0.002Z8437.893A120.321
X-49293.235Y34.933Z7994.529A121.492
G0X-49267.913Y0Z8000.003A126.05
X-49236.083Y-0.001A131.78
X-49204.254Y0A137.509
X-49172.424A143.239
X-49140.594A148.969
X-49108.764A154.698
X-49076.934A160.428
X-49045.104A166.157
X-49013.275A171.887
X-48981.445Y-0Z8000.004A177.616
X-48949.615Y0A183.346
X-48917.785Y-0A189.076
X-48885.955Y0Z8000.003A194.805
X-48854.125A200.535
X-48822.296Z8000.004A206.264
X-48790.466A211.994
X-48758.636Y-0.001A217.723
X-48726.806Y0A223.453
X-48694.976Y-0.001A229.183
X-48663.146A234.912
X-48631.317Y-0.002Z8000.005A240.642
X-48599.487Y0A246.371
X-48567.657A252.101
X-48535.827Y-0.001A257.831
X-48520.092Y-98.809Z7989.953A260.662
X-48503.993Y-0.002Z10000.004A263.56
X-48472.167Y-0.003Z10000.003A269.29
X-48440.338Y0A275.019
X-48408.508Y-0Z10000.002A280.749
X-48376.678Y-0.001Z10000.005A286.478
X-48344.848Y-0.002Z10000.004A292.208
G1X-48313.018Z8275.022A297.938
X-48309.238Y24.312Z7996.743A298.618
G0X-48281.188Y0.001Z8000.005A303.667
X-48249.359Y0A309.397
X-48217.529A315.126
X-48185.699Y-0.001A320.856
X-48153.869Z8000.006A326.585
X-48122.039Y0.001A332.315
X-48090.209Y0A338.045
X-48058.38A343.774
X-48026.55Y-0Z8000.005A349.504
X-47994.72Y-0.001A355.233
X-47968.17Y24.019Z8000.144A360
X-47936.34A365.729
X-47904.51Y24.018A371.459
X-47872.68Y24.017A377.188
X-47840.85Y24.016A382.918
X-47809.02Y24.019A388.647
X-47777.191Y24.018A394.377
X-47745.361Y24.017A400.107
X-47713.531A405.836
X-47681.701Y24.016A411.566
X-47649.871Y24.019A417.295
X-47618.041Y24.018A423.025
X-47586.212Z8000.145A428.754
X-47554.382Y24.017A434.484
X-47522.552Y24.016Z8000.146A440.214
X-47490.722Y24.019A445.943
X-47471.401Y-61.565Z7990.494A449.421
X-47458.892Y7.095Z9409.17A451.673
X-47427.062Y-0Z10000.002A457.402
X-47395.233Y-0.002A463.132
X-47363.403Y0.001Z10000.003A468.861
G1X-47347.553Y124.344Z7991.374A471.715
G0X-47331.573Y24.015Z8000.147A474.591
X-47299.743Y24.018Z8000.146A480.321
X-47267.913Y24.022Z8000.147A486.05
X-47236.083Y24.016A491.78
X-47204.254Y24.02Z8000.148A497.509
X-47172.424Y24.016Z8000.147A503.239
X-47140.594Y24.018Z8000.146A508.969
X-47108.764Y24.022Z8000.147A514.698
X-47076.934Y24.017A520.428
X-47045.104Y24.02Z8000.148A526.157
X-47013.275Y24.016Z8000.147A531.887
X-46981.445Y24.019Z8000.148A537.616
X-46949.615Y24.021A543.346
X-46917.785Y24.017A549.076
X-46885.955Y24.02A554.805
X-46854.125Y24.015Z8000.147A560.535
X-46822.296Y24.019Z8000.148A566.264
X-46790.466Y24.022A571.994
X-46758.636Y24.017A577.723
X-46726.806Y24.019A583.453
X-46694.976Y24.015A589.183
X-46663.146Y24.018A594.912
X-46631.317Y24.021Z8000.149A600.642
X-46599.487Y24.016A606.371
X-46567.657Y24.019A612.101
X-46535.827Y24.014A617.83
X-46503.997Y24.018A623.56
X-46472.167Y24.021Z8000.148A629.29
X-46440.338Y24.016Z8000.149A635.019
X-46408.508Y24.019A640.749
X-46376.678Y24.014Z8000.148A646.478
X-46344.848Y24.018A652.208
X-46313.018Y24.021Z8000.149A657.938
X-46281.188Y24.017A663.667
X-46249.359Y24.02Z8000.15A669.397
X-46217.529Y24.015A675.126
X-46185.699Y24.018A680.856
X-46153.869Y24.021A686.585
X-46122.039Y24.016A692.315
X-46090.209Y24.02Z8000.151A698.045
X-46058.38Y24.015Z8000.15A703.774
X-46026.55Y24.019Z8000.149A709.504
X-45994.72Y24.021A715.233
X-45968.17Y48.025Z8000.576A720
X-45936.34Y48.021A725.729
X-45904.51Y48.024A731.459
X-45872.68Y48.019A737.188
X-45840.85Y48.022A742.918
X-45809.02Y48.025A748.647
X-45777.191Y48.021A754.377
X-45745.361Y48.024A760.107
X-45713.531Y48.019A765.836
X-45681.701Y48.022A771.566
X-45649.871Y48.025Z8000.577A777.295
X-45618.041Y48.021A783.025
X-45586.212Y48.023A788.754
X-45554.382Y48.019Z8000.578A794.484
X-45522.552Y48.022A800.214
X-45490.722Y48.025A805.943
X-45458.892Y48.02A811.673
X-45427.062Y48.023A817.402
X-45395.233Y48.019Z8000.58A823.132
X-45363.403Y48.022A828.861
X-45331.573Y48.025A834.591
X-45299.743Y48.021Z8000.579A840.321
X-45267.913Y48.024A846.05
X-45236.083Y48.019Z8000.58A851.78
X-45204.254Y48.022A857.509
X-45172.424Y48.025A863.239
X-45140.594Y48.021Z8000.579A868.969
X-45108.764Y48.024Z8000.58A874.698
X-45076.934Y48.019Z8000.579A880.428
X-45045.104Y48.022Z8000.581A886.157
X-45013.275Y48.026Z8000.58A891.887
X-44981.445Y48.021A897.616
X-44949.615Y48.024A903.346
X-44917.785Y48.019A909.076
X-44885.955Y48.022A914.805
X-44854.125Y48.018Z8000.581A920.535
X-44822.296Y48.021Z8000.58A926.264
X-44790.466Y48.024Z8000.581A931.994
X-44758.636Y48.026Z8000.58A937.723
X-44726.806Y48.03Z8000.581A943.453
X-44694.976Y48.017A949.183
X-44663.146Y48.02A954.912
X-44631.317Y48.023A960.642
X-44599.487Y48.026A966.371
X-44567.657Y48.029A972.101
X-44535.827Y48.017Z8000.582A977.83
X-44503.997Y48.02Z8000.581A983.56
X-44472.167Y48.023Z8000.58A989.29
X-44440.338Y48.026Z8000.581A995.019
X-44408.508Y48.029A1000.749
X-44376.678Y48.017A1006.478
X-44344.848Y48.02A1012.208
X-44313.018Y48.024A1017.938
X-44281.188Y48.027A1023.667
X-44249.359Y48.03A1029.397
X-44217.529Y48.018Z8000.582A1035.126
X-44185.699Y48.021A1040.856
X-44153.869Y48.024A1046.585
X-44122.039Y48.027Z8000.583A1052.315
X-44090.209Y48.03A1058.045
X-44058.38Y48.018Z8000.582A1063.774
X-44026.55Y48.021A1069.504
X-43994.72Y48.024Z8000.581A1075.233
X-43968.17Y72.004Z8001.296A1080
X-43936.34Y72.007A1085.729
X-43904.51Y72.01A1091.459
X-43872.68Y71.997A1097.188
X-43840.85Y72.001A1102.918
X-43809.02Y72.003A1108.647
X-43777.191Y72.006A1114.377
X-43745.361Y72.01A1120.107
X-43713.531Y71.997A1125.836
X-43681.701Y72A1131.566
X-43649.871Y72.003A1137.295
X-43618.041Y72.006Z8001.297A1143.025
X-43586.212Y72.01A1148.754
X-43554.382Y71.997Z8001.298A1154.484
X-43522.552Y72A1160.214
X-43490.722Y72.003Z8001.299A1165.943
X-43458.892Y72.006A1171.673
X-43427.062Y72.009Z8001.298A1177.402
X-43395.233Y71.997Z8001.299A1183.132
X-43363.403Y72A1188.861
X-43331.573Y72.003A1194.591
X-43299.743Y72.006A1200.321
X-43267.913Y72.009A1206.05
X-43236.083Y71.998A1211.78
X-43204.254Y72Z8001.3A1217.509
X-43172.424Y72.004A1223.239
X-43140.594Y72.006A1228.969
X-43108.764Y72.01Z8001.299A1234.698
X-43076.934Y71.998A1240.428
X-43045.104Y72.001Z8001.301A1246.157
X-43013.275Y72.004Z8001.299A1251.887
X-42981.445Y72.007Z8001.301A1257.616
X-42949.615Y72.01Z8001.3A1263.346
X-42917.785Y71.998A1269.076
X-42885.955Y72.001A1274.805
X-42854.125Y72.004A1280.535
X-42822.296Y72.007A1286.264
X-42790.466Y72.01A1291.994
X-42758.636Y71.997A1297.723
X-42726.806Y72A1303.453
X-42694.976Y72.003A1309.183
X-42663.146Y72.006Z8001.301A1314.912
X-42631.317Y72.009Z8001.302A1320.642
X-42599.487Y71.996Z8001.301A1326.371
X-42567.657Y72Z8001.302A1332.101
X-42535.827Y72.003Z8001.301A1337.831
X-42503.997Y72.006A1343.56
X-42472.167Y72.009Z8001.3A1349.29
X-42440.338Y71.997Z8001.301A1355.019
X-42408.508Y71.999A1360.749
X-42376.678Y72.002Z8001.3A1366.478
X-42344.848Y72.006Z8001.301A1372.208
X-42313.018Y72.009A1377.938
X-42281.188Y71.997A1383.667
X-42249.359Y72Z8001.302A1389.397
X-42217.529Y72.003A1395.126
X-42185.699Y72.007A1400.856
X-42153.869Y72.009A1406.585
X-42122.039Y71.997Z8001.303A1412.315
X-42090.209Y72Z8001.302A1418.045
X-42058.38Y72.004A1423.774
X-42026.55Y72.007A1429.504
X-41994.72Y72.01Z8001.301A1435.233
X-41968.17Y95.955Z8002.303A1440
X-41936.34Y95.943A1445.729
X-41904.51Y95.946A1451.459
X-41872.68Y95.949A1457.188
X-41840.85Y95.952A1462.918
X-41809.02Y95.955A1468.647
X-41777.191Y95.942A1474.377
X-41745.361Y95.946A1480.107
X-41713.531Y95.948A1485.836
X-41681.701Y95.952A1491.566
X-41649.871Y95.954Z8002.304A1497.295
X-41618.041Y95.942A1503.025
X-41586.212Y95.945Z8002.305A1508.754
X-41554.382Y95.949A1514.484
X-41522.552Y95.952A1520.214
X-41490.722Y95.955A1525.943
X-41458.892Y95.942A1531.673
X-41427.062Y95.945A1537.402
X-41395.233Y95.948A1543.132
X-41363.403Y95.952A1548.861
X-41331.573Y95.955Z8002.306A1554.591
X-41299.743Y95.942A1560.321
X-41267.913Y95.946Z8002.305A1566.05
X-41236.083Y95.949Z8002.306A1571.78
X-41204.254Y95.951A1577.509
X-41172.424Y95.955Z8002.305A1583.239
X-41140.594Y95.943A1588.968
X-41108.764Y95.946Z8002.306A1594.698
X-41076.934Y95.949Z8002.305A1600.428
X-41045.104Y95.952Z8002.306A1606.157
X-41013.275Y95.955A1611.887
X-40981.445Y95.943Z8002.307A1617.616
X-40949.615Y95.946A1623.346
X-40917.785Y95.949A1629.076
X-40885.955Y95.952Z8002.306A1634.805
X-40854.125Y95.955A1640.535
X-40822.296Y95.943Z8002.307A1646.264
X-40790.466Y95.946Z8002.306A1651.994
X-40758.636Y95.948A1657.723
X-40726.806Y95.952Z8002.307A1663.453
X-40694.976Y95.955A1669.183
X-40663.146Y95.942A1674.912
X-40631.317Y95.945Z8002.308A1680.642
X-40599.487Y95.948Z8002.307A1686.371
X-40567.657Y95.951A1692.101
X-40535.827Y95.954A1697.831
X-40503.997Y95.942Z8002.308A1703.56
X-40472.167Y95.945Z8002.306A1709.29
X-40440.338Y95.948Z8002.307A1715.019
X-40408.508Y95.951A1720.749
X-40376.678Y95.954A1726.478
X-40344.848Y95.942A1732.208
X-40313.018Y95.946Z8002.308A1737.938
X-40281.188Y95.949A1743.667
X-40249.359Y95.953A1749.397
X-40217.529Y95.955A1755.126
X-40185.699Y95.943A1760.856
X-40153.869Y95.946Z8002.309A1766.585
X-40122.039Y95.949A1772.315
X-40090.209Y95.952A1778.045
X-40058.38Y95.955A1783.774
X-40026.55Y95.943Z8002.308A1789.504
X-39994.72Y95.946A1795.233
X-39968.17Y119.847Z8003.594A1799.999
X-39936.34Y119.85A1805.729
X-39904.51Y119.853A1811.459
X-39872.68Y119.856A1817.188
X-39840.85Y119.844A1822.918
X-39809.02Y119.847Z8003.595A1828.647
X-39777.191Y119.849Z8003.594A1834.377
X-39745.361Y119.837A1840.106
X-39713.531Y119.856A1845.836
X-39681.701Y119.843A1851.566
X-39649.871Y119.862Z8003.595A1857.295
X-39618.041Y119.849A1863.025
X-39586.212Y119.837Z8003.596A1868.754
X-39554.382Y119.855Z8003.595A1874.484
X-39522.552Y119.843Z8003.596A1880.214
X-39490.722Y119.861A1885.943
X-39458.892Y119.849A1891.673
X-39427.062Y119.837Z8003.597A1897.402
X-39395.233Y119.855Z8003.598A1903.132
X-39363.403Y119.843A1908.861
X-39331.573Y119.862A1914.591
X-39299.743Y119.849Z8003.597A1920.321
X-39267.913Y119.837Z8003.598A1926.05
X-39236.083Y119.856A1931.78
X-39204.254Y119.843A1937.509
X-39172.424Y119.863Z8003.597A1943.239
X-39140.594Y119.85A1948.969
X-39108.764Y119.838Z8003.598A1954.698
X-39076.934Y119.856A1960.428
X-39045.104Y119.844Z8003.599A1966.157
X-39013.275Y119.862Z8003.598A1971.887
X-38981.445Y119.85Z8003.599A1977.616
X-38949.615Y119.838A1983.346
X-38917.785Y119.856Z8003.598A1989.076
X-38885.955Y119.844Z8003.599A1994.805
X-38854.125Y119.862Z8003.598A2000.535
X-38822.296Y119.85Z8003.599A2006.264
X-38790.466Y119.837A2011.994
X-38758.636Y119.855A2017.723
X-38726.806Y119.843A2023.453
X-38694.976Y119.862A2029.183
X-38663.146Y119.849A2034.912
X-38631.317Y119.837Z8003.6A2040.642
X-38599.487Y119.855A2046.371
X-38567.657Y119.843A2052.101
X-38535.827Y119.861Z8003.599A2057.831
X-38503.997Y119.849A2063.56
X-38472.167Y119.837A2069.29
X-38440.338Y119.855A2075.019
X-38408.508Y119.843A2080.749
X-38376.678Y119.861Z8003.598A2086.478
X-38344.848Y119.849Z8003.599A2092.208
X-38313.018Y119.837Z8003.6A2097.937
X-38281.188Y119.856Z8003.599A2103.667
X-38249.359Y119.843Z8003.601A2109.397
X-38217.529Y119.863Z8003.6A2115.126
X-38185.699Y119.85A2120.856
X-38153.869Y119.838Z8003.601A2126.585
X-38122.039Y119.856A2132.315
X-38090.209Y119.844A2138.045
X-38058.38Y119.862A2143.774
X-38026.55Y119.85Z8003.6A2149.504
X-37994.72Y119.838A2155.233
X-37968.17Y143.699Z8005.168A2160
X-37936.34Y143.687Z8005.169A2165.729
X-37904.51Y143.705Z8005.168A2171.459
X-37872.68Y143.692A2177.188
X-37840.85Y143.711Z8005.169A2182.918
X-37809.02Y143.699Z8005.168A2188.647
X-37777.191Y143.687A2194.377
X-37745.361Y143.705A2200.107
X-37713.531Y143.693A2205.836
X-37681.701Y143.711A2211.566
X-37649.871Y143.699Z8005.169A2217.295
X-37618.041Y143.686Z8005.17A2223.025
X-37586.212Y143.705Z8005.169A2228.754
X-37554.382Y143.693Z8005.17A2234.484
X-37522.552Y143.711Z8005.171A2240.214
X-37490.722Y143.699A2245.943
X-37458.892Y143.686Z8005.172A2251.673
X-37427.062Y143.705Z8005.171A2257.402
X-37395.233Y143.692Z8005.172A2263.132
X-37363.403Y143.711A2268.862
X-37331.573Y143.699A2274.591
X-37299.743Y143.686A2280.321
X-37267.913Y143.706A2286.05
X-37236.083Y143.693A2291.78
X-37204.254Y143.711A2297.509
X-37172.424Y143.699A2303.239
X-37140.594Y143.687A2308.968
X-37108.764Y143.706A2314.698
X-37076.934Y143.693A2320.428
X-37045.104Y143.711Z8005.173A2326.157
X-37013.275Y143.699Z8005.172A2331.887
X-36981.445Y143.687Z8005.173A2337.616
X-36949.615Y143.705A2343.346
X-36917.785Y143.693Z8005.172A2349.076
X-36885.955Y143.711A2354.805
X-36854.125Y143.699A2360.535
X-36822.296Y143.687Z8005.173A2366.264
X-36790.466Y143.705Z8005.172A2371.994
X-36758.636Y143.693Z8005.173A2377.723
X-36726.806Y143.711Z8005.172A2383.453
X-36694.976Y143.699Z8005.173A2389.183
X-36663.146Y143.686A2394.912
X-36631.317Y143.704Z8005.174A2400.642
X-36599.487Y143.692A2406.371
X-36567.657Y143.711A2412.101
X-36535.827Y143.698A2417.831
X-36503.997Y143.686A2423.56
X-36472.167Y143.704Z8005.173A2429.29
X-36440.338Y143.692A2435.019
X-36408.508Y143.71A2440.749
X-36376.678Y143.698A2446.478
X-36344.848Y143.686Z8005.174A2452.208
X-36313.018Y143.705A2457.938
X-36281.188Y143.693A2463.667
X-36249.359Y143.712A2469.397
X-36217.529Y143.699A2475.126
X-36185.699Y143.687A2480.856
X-36153.869Y143.705A2486.585
X-36122.039Y143.693Z8005.175A2492.315
X-36090.209Y143.711A2498.045
X-36058.38Y143.699A2503.774
X-36026.55Y143.687A2509.504
X-35994.72Y143.705Z8005.174A2515.233
X-35968.17Y167.471Z8007.024A2519.999
X-35936.34Y167.49A2525.729
X-35904.51Y167.477A2531.459
X-35872.68Y167.495A2537.188
X-35840.85Y167.483Z8007.025A2542.918
X-35809.02Y167.47Z8007.024A2548.647
X-35777.191Y167.489A2554.377
X-35745.361Y167.477Z8007.025A2560.107
X-35713.531Y167.495Z8007.024A2565.836
X-35681.701Y167.483A2571.566
X-35649.871Y167.47Z8007.025A2577.295
X-35618.041Y167.489A2583.025
X-35586.212Y167.477Z8007.026A2588.754
X-35554.382Y167.495Z8007.025A2594.484
X-35522.552Y167.483Z8007.026A2600.214
X-35490.722Y167.47Z8007.027A2605.943
X-35458.892Y167.489A2611.673
X-35427.062Y167.476A2617.402
X-35395.233Y167.495A2623.132
X-35363.403Y167.483Z8007.028A2628.862
X-35331.573Y167.47A2634.591
X-35299.743Y167.489Z8007.027A2640.321
X-35267.913Y167.477Z8007.028A2646.05
X-35236.083Y167.495A2651.78
X-35204.254Y167.483A2657.509
X-35172.424Y167.471A2663.239
X-35140.594Y167.49Z8007.027A2668.969
X-35108.764Y167.477Z8007.028A2674.698
X-35076.934Y167.495A2680.428
X-35045.104Y167.483A2686.157
X-35013.275Y167.471A2691.887
X-34981.445Y167.489A2697.616
X-34949.615Y167.477Z8007.029A2703.346
X-34917.785Y167.495Z8007.028A2709.076
X-34885.955Y167.483A2714.805
X-34854.125Y167.471Z8007.029A2720.535
X-34822.296Y167.49A2726.264
X-34790.466Y167.477A2731.994
X-34758.636Y167.495Z8007.028A2737.724
X-34726.806Y167.483Z8007.029A2743.453
X-34694.976Y167.47A2749.183
X-34663.146Y167.489Z8007.028A2754.912
X-34631.317Y167.476Z8007.03A2760.642
X-34599.487Y167.495A2766.371
X-34567.657Y167.482Z8007.029A2772.101
X-34535.827Y167.47Z8007.03A2777.83
X-34503.997Y167.489Z8007.029A2783.56
X-34472.167Y167.476A2789.29
X-34440.338Y167.495A2795.019
X-34408.508Y167.482A2800.749
X-34376.678Y167.47A2806.478
X-34344.848Y167.489Z8007.03A2812.208
X-34313.018Y167.477A2817.938
X-34281.188Y167.495Z8007.029A2823.667
X-34249.359Y167.483Z8007.03A2829.397
X-34217.529Y167.471A2835.126
X-34185.699Y167.489A2840.856
X-34153.869Y167.476Z8007.031A2846.585
X-34122.039Y167.495A2852.315
X-34090.209Y167.483A2858.045
X-34058.38Y167.471A2863.774
X-34026.55Y167.49Z8007.03A2869.504
X-33994.72Y167.477A2875.233
X-33968.17Y191.199Z8009.159A2880
X-33936.34Y191.187A2885.729
X-33904.51Y191.174A2891.459
X-33872.68Y191.193A2897.188
X-33840.85Y191.18Z8009.16A2902.918
X-33809.02Y191.199Z8009.159A2908.647
X-33777.191Y191.187A2914.377
X-33745.361Y191.175Z8009.16A2920.106
X-33713.531Y191.193Z8009.159A2925.836
X-33681.701Y191.18A2931.566
X-33649.871Y191.198Z8009.16A2937.295
X-33618.041Y191.186A2943.025
X-33586.212Y191.174A2948.754
X-33554.382Y191.192A2954.484
X-33522.552Y191.18A2960.214
X-33490.722Y191.198A2965.943
X-33458.892Y191.186Z8009.161A2971.673
X-33427.062Y191.174A2977.402
X-33395.233Y191.192Z8009.162A2983.132
X-33363.403Y191.18A2988.861
X-33331.573Y191.199A2994.591
X-33299.743Y191.186A3000.321
X-33267.913Y191.174A3006.05
X-33236.083Y191.192A3011.78
X-33204.254Y191.18Z8009.163A3017.509
X-33172.424Y191.199Z8009.162A3023.239
X-33140.594Y191.187A3028.969
X-33108.764Y191.175A3034.698
X-33076.934Y191.193A3040.428
X-33045.104Y191.181Z8009.163A3046.157
X-33013.275Y191.199Z8009.162A3051.887
X-32981.445Y191.187A3057.616
X-32949.615Y191.174Z8009.163A3063.346
X-32917.785Y191.193Z8009.162A3069.076
X-32885.955Y191.18Z8009.163A3074.805
X-32854.125Y191.199Z8009.162A3080.535
X-32822.296Y191.187Z8009.164A3086.264
X-32790.466Y191.174A3091.994
X-32758.636Y191.192Z8009.162A3097.723
X-32726.806Y191.18Z8009.163A3103.453
X-32694.976Y191.198Z8009.162A3109.183
X-32663.146Y191.186Z8009.163A3114.912
X-32631.317Y191.174Z8009.164A3120.642
X-32599.487Y191.192A3126.371
X-32567.657Y191.18A3132.101
X-32535.827Y191.198A3137.831
X-32503.997Y191.186Z8009.163A3143.56
X-32472.167Y191.173Z8009.164A3149.29
X-32440.338Y191.192Z8009.163A3155.019
X-32408.508Y191.179A3160.749
X-32376.678Y191.198A3166.478
X-32344.848Y191.185Z8009.164A3172.208
X-32313.018Y191.174A3177.937
X-32281.188Y191.193A3183.667
X-32249.359Y191.18A3189.397
X-32217.529Y191.199A3195.126
X-32185.699Y191.187A3200.856
X-32153.869Y191.174Z8009.165A3206.585
X-32122.039Y191.192A3212.315
X-32090.209Y191.18A3218.045
X-32058.38Y191.199A3223.774
X-32026.55Y191.186A3229.504
X-31994.718Y191.174Z8009.164A3235.233
X-31968.168Y214.812Z8011.569A3240
X-31936.336Y214.799A3245.729
X-31904.504Y214.818A3251.459
X-31872.673Y214.805A3257.188
X-31840.841Y214.824A3262.918
X-31809.009Y214.812A3268.647
X-31777.177Y214.799A3274.377
X-31745.346Y214.818A3280.107
X-31713.514Y214.805A3285.836
X-31681.682Y214.823A3291.566
X-31649.85Y214.811A3297.295
X-31618.019Y214.799Z8011.571A3303.025
X-31586.187Y214.817Z8011.57A3308.754
X-31554.355Y214.805A3314.484
X-31522.523Y214.823Z8011.571A3320.214
X-31490.692Y214.811A3325.943
X-31458.86Y214.799Z8011.572A3331.673
X-31427.028Y214.817Z8011.571A3337.402
X-31395.196Y214.805Z8011.572A3343.132
X-31363.365Y214.823A3348.862
X-31331.533Y214.811A3354.591
X-31299.701Y214.799Z8011.573A3360.321
X-31267.869Y214.818Z8011.572A3366.05
X-31236.038Y214.805A3371.78
X-31204.206Y214.823A3377.509
X-31172.374Y214.811Z8011.573A3383.239
X-31140.542Y214.799A3388.968
X-31108.711Y214.818Z8011.572A3394.698
X-31076.879Y214.805Z8011.573A3400.428
X-31045.047Y214.824A3406.157
X-31013.216Y214.812Z8011.572A3411.887
X-30981.384Y214.799Z8011.574A3417.616
X-30949.552Y214.818Z8011.573A3423.346
X-30917.72Y214.805A3429.076
X-30885.889Y214.824Z8011.572A3434.805
X-30854.057Y214.811Z8011.573A3440.535
X-30822.225Y214.8Z8011.574A3446.264
X-30790.393Y214.817Z8011.572A3451.994
X-30758.562Y214.805Z8011.573A3457.723
X-30726.73Y214.823A3463.453
X-30694.898Y214.811A3469.183
X-30663.066Y214.799Z8011.574A3474.912
X-30631.235Y214.816Z8011.573A3480.642
X-30599.403Y214.804Z8011.574A3486.371
X-30567.571Y214.822A3492.101
X-30535.739Y214.81A3497.831
X-30503.908Y214.798A3503.56
X-30472.076Y214.816Z8011.573A3509.29
X-30440.244Y214.804Z8011.574A3515.019
X-30408.412Y214.822Z8011.573A3520.749
X-30376.581Y214.81A3526.478
X-30344.749Y214.798Z8011.574A3532.208
X-30312.917Y214.817A3537.938
X-30281.085Y214.805A3543.667
X-30249.254Y214.823A3549.397
X-30217.422Y214.811Z8011.575A3555.126
X-30185.59Y214.799A3560.856
X-30153.759Y214.817A3566.585
X-30121.927Y214.804Z8011.576A3572.315
X-30090.095Y214.823Z8011.575A3578.045
X-30058.263Y214.811Z8011.576A3583.774
X-30026.432Y214.799Z8011.575A3589.504
X-29994.6Y214.817Z8011.573A3595.233
X-29968.168Y238.33Z8014.252A3599.999
X-29936.336Y238.349A3605.729
X-29904.504Y238.336A3611.459
X-29872.673Y238.324A3617.188
X-29840.841Y238.342Z8014.253A3622.918
X-29809.009Y238.33Z8014.252A3628.647
X-29777.177Y238.348Z8014.251A3634.377
X-29745.346Y238.336Z8014.252A3640.107
X-29713.514Y238.324Z8014.253A3645.836
X-29681.682Y238.342Z8014.251A3651.566
X-29649.85Y238.329Z8014.253A3657.295
X-29618.019Y238.348A3663.025
X-29586.187Y238.336A3668.754
X-29554.355Y238.323Z8014.254A3674.484
X-29522.523Y238.311Z8014.255A3680.213
X-29490.692Y238.36Z8014.254A3685.943
X-29458.86Y238.348Z8014.255A3691.673
X-29427.028Y238.336A3697.402
X-29395.196Y238.324Z8014.256A3703.132
X-29363.365Y238.312A3708.861
X-29331.533Y238.361Z8014.255A3714.591
X-29299.701Y238.348A3720.321
X-29267.869Y238.336Z8014.256A3726.05
X-29236.038Y238.323A3731.78
X-29204.206Y238.312A3737.509
X-29172.374Y238.361Z8014.255A3743.239
X-29140.542Y238.349A3748.969
X-29108.711Y238.336A3754.698
X-29076.879Y238.324A3760.428
X-29045.047Y238.312Z8014.257A3766.157
X-29013.216Y238.361Z8014.255A3771.887
X-28981.384Y238.348Z8014.256A3777.616
X-28949.552Y238.336Z8014.257A3783.346
X-28917.72Y238.324Z8014.256A3789.075
X-28885.889Y238.312Z8014.257A3794.805
X-28854.057Y238.361Z8014.256A3800.535
X-28822.225Y238.348A3806.264
X-28790.393Y238.335Z8014.257A3811.994
X-28758.562Y238.323A3817.723
X-28726.73Y238.311A3823.453
X-28694.898Y238.36Z8014.256A3829.183
X-28663.066Y238.348A3834.912
X-28631.235Y238.335Z8014.258A3840.642
X-28599.403Y238.323Z8014.257A3846.371
X-28567.571Y238.311Z8014.258A3852.101
X-28535.739Y238.36Z8014.256A3857.831
X-28503.908Y238.347Z8014.257A3863.56
X-28472.076Y238.335Z8014.256A3869.29
X-28440.244Y238.323Z8014.257A3875.019
X-28408.412Y238.31A3880.749
X-28376.581Y238.359Z8014.256A3886.479
X-28344.749Y238.347A3892.208
X-28312.917Y238.335Z8014.257A3897.938
X-28281.085Y238.324A3903.667
X-28249.254Y238.311Z8014.258A3909.397
X-28217.422Y238.36Z8014.257A3915.126
X-28185.59Y238.348Z8014.258A3920.856
X-28153.759Y238.336A3926.585
X-28121.927Y238.323Z8014.259A3932.315
X-28090.095Y238.312Z8014.26A3938.044
X-28058.263Y238.36Z8014.258A3943.774
X-28026.432Y238.348A3949.504
X-27994.6Y238.336Z8014.257A3955.233
X-27968.168Y261.746Z8017.205A3959.999
X-27936.336Y261.795Z8017.203A3965.729
X-27904.504Y261.782A3971.459
X-27872.673Y261.77Z8017.204A3977.188
X-27840.841Y261.758Z8017.205A3982.918
X-27809.009Y261.745Z8017.204A3988.647
X-27777.177Y261.795Z8017.203A3994.377
X-27745.346Y261.782Z8017.204A4000.107
X-27713.514Y261.77A4005.836
X-27681.682Y261.757A4011.566
X-27649.85Y261.745Z8017.206A4017.295
X-27618.019Y261.794Z8017.204A4023.025
X-27586.187Y261.782Z8017.205A4028.755
X-27554.355Y261.77Z8017.206A4034.484
X-27522.523Y261.757Z8017.207A4040.214
X-27490.692Y261.745A4045.943
X-27458.86Y261.794Z8017.205A4051.673
X-27427.028Y261.782Z8017.206A4057.402
X-27395.196Y261.77Z8017.208A4063.132
X-27363.365Y261.757Z8017.209A4068.861
X-27331.533Y261.745A4074.591
X-27299.701Y261.794Z8017.206A4080.321
X-27267.869Y261.782Z8017.207A4086.05
X-27236.038Y261.77Z8017.208A4091.78
X-27204.206Y261.757A4097.509
X-27172.374Y261.746Z8017.209A4103.239
X-27140.542Y261.795Z8017.206A4108.969
X-27108.711Y261.783Z8017.207A4114.698
X-27076.879Y261.77Z8017.208A4120.428
X-27045.047Y261.758Z8017.209A4126.157
X-27013.216Y261.746A4131.887
X-26981.384Y261.795Z8017.208A4137.617
X-26949.552Y261.782A4143.346
X-26917.72Y261.77A4149.076
X-26885.889Y261.758Z8017.209A4154.805
X-26854.057Y261.745A4160.535
X-26822.225Y261.795Z8017.208A4166.265
X-26790.393Y261.782A4171.994
X-26758.562Y261.769A4177.724
X-26726.73Y261.757Z8017.209A4183.453
X-26694.898Y261.745A4189.182
X-26663.066Y261.794Z8017.208A4194.912
X-26631.235Y261.781Z8017.209A4200.642
X-26599.403Y261.769Z8017.21A4206.371
X-26567.571Y261.756A4212.101
X-26535.739Y261.745A4217.83
X-26503.908Y261.794Z8017.209A4223.56
X-26472.076Y261.781Z8017.208A4229.29
X-26440.244Y261.769Z8017.209A4235.019
X-26408.412Y261.757A4240.749
X-26376.581Y261.744Z8017.21A4246.478
X-26344.749Y261.794Z8017.208A4252.208
X-26312.917Y261.782Z8017.209A4257.938
X-26281.085Y261.77A4263.667
X-26249.254Y261.758Z8017.21A4269.397
X-26217.422Y261.745A4275.126
X-26185.59Y261.794Z8017.209A4280.856
X-26153.759Y261.782Z8017.21A4286.586
X-26121.927Y261.77Z8017.211A4292.315
X-26090.095Y261.758A4298.045
X-26058.263Y261.745Z8017.21A4303.774
X-26026.432Y261.795Z8017.209A4309.504
X-25994.6Y261.782A4315.233
X-25968.168Y285.08Z8020.421A4320
X-25936.336Y285.067Z8020.422A4325.729
X-25904.504Y285.055A4331.458
X-25872.673Y285.104Z8020.421A4337.188
X-25840.841Y285.092A4342.918
X-25809.009Y285.079A4348.647
X-25777.177Y285.067A4354.377
X-25745.346Y285.055Z8020.422A4360.106
X-25713.514Y285.104Z8020.421A4365.836
X-25681.682Y285.091A4371.566
X-25649.85Y285.079A4377.295
X-25618.019Y285.067Z8020.423A4383.025
X-25586.187Y285.055Z8020.424A4388.754
X-25554.355Y285.104Z8020.422A4394.484
X-25522.523Y285.091Z8020.423A4400.214
X-25490.692Y285.079A4405.943
X-25458.86Y285.067Z8020.424A4411.673
X-25427.028Y285.054A4417.402
X-25395.196Y285.103A4423.132
X-25363.365Y285.091A4428.862
X-25331.533Y285.079Z8020.425A4434.591
X-25299.701Y285.067Z8020.424A4440.321
X-25267.869Y285.055Z8020.425A4446.05
X-25236.038Y285.103Z8020.423A4451.78
X-25204.206Y285.092Z8020.424A4457.509
X-25172.374Y285.079Z8020.425A4463.239
X-25140.542Y285.068A4468.968
X-25108.711Y285.055Z8020.426A4474.698
X-25076.879Y285.104Z8020.424A4480.428
X-25045.047Y285.092Z8020.425A4486.157
X-25013.216Y285.079A4491.887
X-24981.384Y285.067A4497.616
X-24949.552Y285.055Z8020.426A4503.346
X-24917.72Y285.104Z8020.424A4509.076
X-24885.889Y285.091Z8020.425A4514.805
X-24854.057Y285.079A4520.535
X-24822.225Y285.067Z8020.427A4526.264
X-24790.393Y285.055A4531.994
X-24758.562Y285.103Z8020.424A4537.724
X-24726.73Y285.091Z8020.425A4543.453
X-24694.898Y285.079Z8020.426A4549.183
X-24663.066Y285.066A4554.912
X-24631.235Y285.054Z8020.427A4560.642
X-24599.403Y285.103Z8020.426A4566.372
X-24567.571Y285.091A4572.101
X-24535.739Y285.078Z8020.427A4577.831
X-24503.908Y285.066Z8020.426A4583.56
X-24472.076Y285.054Z8020.427A4589.29
X-24440.244Y285.103Z8020.425A4595.019
X-24408.412Y285.09A4600.749
X-24376.581Y285.078Z8020.426A4606.478
X-24344.749Y285.066Z8020.427A4612.208
X-24312.917Y285.054A4617.937
X-24281.085Y285.104Z8020.425A4623.667
X-24249.254Y285.092Z8020.427A4629.397
X-24217.422Y285.08A4635.126
X-24185.59Y285.067Z8020.428A4640.856
X-24153.759Y285.055A4646.585
X-24121.927Y285.103Z8020.427A4652.315
X-24090.095Y285.091A4658.045
X-24058.263Y285.079Z8020.428A4663.774
X-24026.432Y285.067Z8020.427A4669.504
X-23994.6Y285.055Z8020.428A4675.233
X-23968.168Y308.292Z8023.9A4680
X-23936.336Y308.28A4685.729
X-23904.504Y308.267A4691.459
X-23872.673Y308.255A4697.188
X-23840.841Y308.243Z8023.902A4702.918
X-23809.009Y308.292Z8023.9A4708.648
X-23777.177Y308.279A4714.377
X-23745.346Y308.267A4720.107
X-23713.514Y308.255A4725.836
X-23681.682Y308.243Z8023.901A4731.566
X-23649.85Y308.291Z8023.9A4737.295
X-23618.019Y308.279A4743.025
X-23586.187Y308.267Z8023.901A4748.754
X-23554.355Y308.255Z8023.902A4754.484
X-23522.523Y308.242Z8023.903A4760.213
X-23490.692Y308.291Z8023.902A4765.943
X-23458.86Y308.279Z8023.903A4771.673
X-23427.028Y308.267Z8023.902A4777.402
X-23395.196Y308.255Z8023.904A4783.132
X-23363.365Y308.242A4788.861
X-23331.533Y308.292Z8023.903A4794.591
X-23299.701Y308.279A4800.321
X-23267.869Y308.267Z8023.904A4806.05
X-23236.038Y308.255Z8023.905A4811.78
X-23204.206Y308.243Z8023.904A4817.509
X-23172.374Y308.292Z8023.903A4823.239
X-23140.542Y308.28Z8023.902A4828.969
X-23108.711Y308.268Z8023.904A4834.698
X-23076.879Y308.255Z8023.903A4840.428
X-23045.047Y308.243Z8023.905A4846.157
X-23013.216Y308.292Z8023.903A4851.887
X-22981.384Y308.28Z8023.904A4857.616
X-22949.552Y308.267A4863.346
X-22917.72Y308.255A4869.075
X-22885.889Y308.243Z8023.905A4874.805
X-22854.057Y308.292Z8023.903A4880.535
X-22822.225Y308.28Z8023.904A4886.264
X-22790.393Y308.267A4891.994
X-22758.562Y308.255A4897.723
X-22726.73Y308.242Z8023.906A4903.453
X-22694.898Y308.291Z8023.903A4909.183
X-22663.066Y308.279Z8023.904A4914.912
X-22631.235Y308.267Z8023.905A4920.642
X-22599.403Y308.254Z8023.906A4926.371
X-22567.571Y308.242A4932.101
X-22535.739Y308.291Z8023.904A4937.831
X-22503.908Y308.279Z8023.905A4943.56
X-22472.076Y308.267Z8023.904A4949.29
X-22440.244Y308.254A4955.019
X-22408.412Y308.242Z8023.906A4960.749
X-22376.581Y308.291Z8023.904A4966.479
X-22344.749Y308.279A4972.208
X-22312.917Y308.267Z8023.905A4977.938
X-22281.085Y308.255Z8023.906A4983.667
X-22249.254Y308.243A4989.397
X-22217.422Y308.292Z8023.904A4995.126
X-22185.59Y308.28Z8023.905A5000.856
X-22153.759Y308.267Z8023.907A5006.585
X-22121.927Y308.255Z8023.908A5012.315
X-22090.095Y308.243A5018.044
X-22058.263Y308.292Z8023.905A5023.774
X-22026.432Y308.28A5029.504
X-21994.6Y308.268Z8023.906A5035.233
X-21968.168Y331.314Z8027.637A5039.999
X-21936.336Y331.363Z8027.634A5045.729
X-21904.504Y331.351Z8027.635A5051.459
X-21872.673Y331.338A5057.188
X-21840.841Y331.326Z8027.637A5062.918
X-21809.009Y331.313A5068.647
X-21777.177Y331.362Z8027.635A5074.377
X-21745.346Y331.351A5080.107
X-21713.514Y331.338A5085.836
X-21681.682Y331.326Z8027.636A5091.566
X-21649.85Y331.313Z8027.637A5097.295
X-21618.019Y331.362Z8027.636A5103.025
X-21586.187Y331.35Z8027.637A5108.755
X-21554.355Y331.338A5114.484
X-21522.523Y331.325Z8027.639A5120.214
X-21490.692Y331.313Z8027.64A5125.943
X-21458.86Y331.362Z8027.637A5131.673
X-21427.028Y331.35Z8027.638A5137.402
X-21395.196Y331.338Z8027.64A5143.132
X-21363.365Y331.325Z8027.639A5148.861
X-21331.533Y331.313Z8027.641A5154.591
X-21299.701Y331.362Z8027.638A5160.321
X-21267.869Y331.35Z8027.639A5166.05
X-21236.038Y331.338A5171.78
X-21204.206Y331.325Z8027.641A5177.509
X-21172.374Y331.313A5183.239
X-21140.542Y331.362Z8027.637A5188.969
X-21108.711Y331.35Z8027.639A5194.698
X-21076.879Y331.338Z8027.64A5200.428
X-21045.047Y331.326Z8027.641A5206.157
X-21013.216Y331.313Z8027.64A5211.887
X-20981.384Y331.362Z8027.639A5217.617
X-20949.552Y331.35A5223.346
X-20917.72Y331.338Z8027.64A5229.076
X-20885.889Y331.326Z8027.641A5234.805
X-20854.057Y331.313A5240.535
X-20822.225Y331.362Z8027.639A5246.265
X-20790.393Y331.35A5251.994
X-20758.562Y331.337Z8027.64A5257.724
X-20726.73Y331.325Z8027.641A5263.453
X-20694.898Y331.312Z8027.642A5269.182
X-20663.066Y331.362Z8027.64A5274.912
X-20631.235Y331.35Z8027.641A5280.642
X-20599.403Y331.337A5286.371
X-20567.571Y331.325Z8027.642A5292.101
X-20535.739Y331.313A5297.83
X-20503.908Y331.362Z8027.64A5303.56
X-20472.076Y331.349A5309.29
X-20440.244Y331.337A5315.019
X-20408.412Y331.325Z8027.641A5320.749
X-20376.581Y331.312A5326.478
X-20344.749Y331.362Z8027.64A5332.208
X-20312.917Y331.35Z8027.641A5337.938
X-20281.085Y331.338A5343.667
X-20249.254Y331.326Z8027.642A5349.397
X-20217.422Y331.313A5355.126
X-20185.59Y331.362Z8027.641A5360.856
X-20153.759Y331.35Z8027.642A5366.586
X-20121.927Y331.338Z8027.643A5372.315
X-20090.095Y331.326A5378.045
X-20058.263Y331.313A5383.774
X-20026.432Y331.363Z8027.641A5389.504
X-19994.6Y331.35A5395.233
X-19968.168Y354.258Z8031.624A5400
X-19936.336Y354.246Z8031.625A5405.729
X-19904.504Y354.234A5411.458
X-19872.673Y354.282Z8031.622A5417.188
X-19840.841Y354.27Z8031.624A5422.918
X-19809.009Y354.258A5428.647
X-19777.177Y354.245A5434.377
X-19745.346Y354.233A5440.106
X-19713.514Y354.282Z8031.622A5445.836
X-19681.682Y354.27Z8031.623A5451.566
X-19649.85Y354.258Z8031.625A5457.295
X-19618.019Y354.245Z8031.626A5463.025
X-19586.187Y354.233A5468.754
X-19554.355Y354.282Z8031.625A5474.484
X-19522.523Y354.27Z8031.626A5480.214
X-19490.692Y354.257A5485.943
X-19458.86Y354.245Z8031.627A5491.673
X-19427.028Y354.233Z8031.628A5497.402
X-19395.196Y354.282Z8031.626A5503.132
X-19363.365Y354.27Z8031.627A5508.862
X-19331.533Y354.258Z8031.628A5514.591
X-19299.701Y354.245Z8031.627A5520.321
X-19267.869Y354.233Z8031.629A5526.05
X-19236.038Y354.282Z8031.627A5531.78
X-19204.206Y354.27A5537.509
X-19172.374Y354.258A5543.239
X-19140.542Y354.246Z8031.628A5548.968
X-19108.711Y354.234A5554.698
X-19076.879Y354.283Z8031.627A5560.428
X-19045.047Y354.27Z8031.628A5566.157
X-19013.216Y354.258A5571.887
X-18981.384Y354.246A5577.616
X-18949.552Y354.233Z8031.629A5583.346
X-18917.72Y354.282Z8031.627A5589.076
X-18885.889Y354.27Z8031.628A5594.805
X-18854.057Y354.258A5600.535
X-18822.225Y354.246Z8031.629A5606.264
X-18790.393Y354.234A5611.994
X-18758.562Y354.282Z8031.627A5617.724
X-18726.73Y354.269Z8031.628A5623.453
X-18694.898Y354.257Z8031.629A5629.183
X-18663.066Y354.245A5634.912
X-18631.235Y354.233Z8031.63A5640.642
X-18599.403Y354.282Z8031.628A5646.372
X-18567.571Y354.269Z8031.629A5652.101
X-18535.739Y354.257A5657.831
X-18503.908Y354.245Z8031.63A5663.56
X-18472.076Y354.232Z8031.629A5669.29
X-18440.244Y354.281Z8031.628A5675.019
X-18408.412Y354.269A5680.749
X-18376.581Y354.257Z8031.629A5686.478
X-18344.749Y354.244Z8031.63A5692.208
X-18312.917Y354.233Z8031.631A5697.937
X-18281.085Y354.282Z8031.629A5703.667
X-18249.254Y354.27A5709.397
X-18217.422Y354.258Z8031.63A5715.126
X-18185.59Y354.246A5720.856
X-18153.759Y354.233Z8031.631A5726.585
X-18121.927Y354.282Z8031.63A5732.315
X-18090.095Y354.27A5738.045
X-18058.263Y354.258Z8031.631A5743.774
X-18026.432Y354.246Z8031.63A5749.504
X-17994.6Y354.233A5755.233
X-17968.168Y377.056Z8035.859A5760
X-17936.336Y377.044Z8035.86A5765.729
X-17904.504Y377.031A5771.459
X-17872.673Y377.019Z8035.861A5777.188
X-17840.841Y377.007A5782.918
X-17809.009Y377.055Z8035.859A5788.648
X-17777.177Y377.043Z8035.86A5794.377
X-17745.346Y377.031A5800.107
X-17713.514Y377.019A5805.836
X-17681.682Y377.006Z8035.861A5811.566
X-17649.85Y377.055Z8035.86A5817.295
X-17618.019Y377.043Z8035.861A5823.025
X-17586.187Y377.031A5828.754
X-17554.355Y377.019Z8035.862A5834.484
X-17522.523Y377.006Z8035.863A5840.213
X-17490.692Y377.055Z8035.861A5845.943
X-17458.86Y377.043Z8035.862A5851.673
X-17427.028Y377.031A5857.402
X-17395.196Y377.018Z8035.863A5863.132
X-17363.365Y377.007Z8035.865A5868.861
X-17331.533Y377.056Z8035.862A5874.591
X-17299.701Y377.043A5880.321
X-17267.869Y377.031Z8035.863A5886.05
X-17236.038Y377.019Z8035.864A5891.78
X-17204.206Y377.006A5897.509
X-17172.374Y377.056Z8035.862A5903.239
X-17140.542Y377.043A5908.969
X-17108.711Y377.032Z8035.863A5914.698
X-17076.879Y377.019Z8035.864A5920.428
X-17045.047Y377.007Z8035.866A5926.157
X-17013.216Y377.056Z8035.863A5931.887
X-16981.384Y377.043Z8035.862A5937.616
X-16949.552Y377.031Z8035.864A5943.346
X-16917.72Y377.019A5949.075
X-16885.889Y377.007Z8035.865A5954.805
X-16854.057Y377.056Z8035.863A5960.535
X-16822.225Y377.043A5966.264
X-16790.393Y377.031Z8035.864A5971.994
X-16758.562Y377.018A5977.723
X-16726.73Y377.006Z8035.865A5983.453
X-16694.898Y377.055Z8035.863A5989.183
X-16663.066Y377.043A5994.912
X-16631.235Y377.03Z8035.865A6000.642
X-16599.403Y377.018Z8035.866A6006.371
X-16567.571Y377.006A6012.101
X-16535.739Y377.055Z8035.864A6017.831
X-16503.908Y377.043A6023.56
X-16472.076Y377.03A6029.29
X-16440.244Y377.018Z8035.865A6035.019
X-16408.412Y377.006A6040.749
X-16376.581Y377.055Z8035.863A6046.479
X-16344.749Y377.043Z8035.865A6052.208
X-16312.917Y377.031A6057.938
X-16281.085Y377.019A6063.667
X-16249.254Y377.007Z8035.867A6069.397
X-16217.422Y377.056Z8035.864A6075.126
X-16185.59Y377.044Z8035.865A6080.856
X-16153.759Y377.031A6086.585
X-16121.927Y377.019Z8035.867A6092.315
X-16090.095Y377.007A6098.044
X-16058.263Y377.056Z8035.865A6103.774
X-16026.432Y377.044A6109.504
X-15994.601Y377.031A6115.233
X-15968.169Y399.639Z8040.339A6119.999
X-15936.338Y399.626Z8040.34A6125.729
X-15904.507Y399.675Z8040.337A6131.459
X-15872.676Y399.663Z8040.338A6137.188
X-15840.846Y399.651Z8040.339A6142.918
X-15809.015Y399.638Z8040.338A6148.647
X-15777.184Y399.626Z8040.339A6154.377
X-15745.353Y399.675Z8040.337A6160.107
X-15713.522Y399.663Z8040.338A6165.836
X-15681.692Y399.65Z8040.339A6171.566
X-15649.861Y399.638Z8040.34A6177.295
X-15618.03Y399.626A6183.025
X-15586.199Y399.675Z8040.339A6188.755
X-15554.368Y399.663Z8040.34A6194.484
X-15522.538Y399.65Z8040.341A6200.214
X-15490.707Y399.638A6205.943
X-15458.876Y399.626Z8040.343A6211.673
X-15427.045Y399.675Z8040.339A6217.402
X-15395.215Y399.662Z8040.341A6223.132
X-15363.384Y399.651Z8040.342A6228.861
X-15331.553Y399.638Z8040.343A6234.591
X-15299.722Y399.626A6240.32
X-15267.891Y399.675Z8040.341A6246.05
X-15236.061Y399.662Z8040.342A6251.78
X-15204.23Y399.65A6257.509
X-15172.399Y399.639A6263.239
X-15140.568Y399.627Z8040.343A6268.968
X-15108.737Y399.675Z8040.34A6274.698
X-15076.907Y399.663Z8040.341A6280.428
X-15045.076Y399.651Z8040.343A6286.157
X-15013.245Y399.639A6291.887
X-14981.414Y399.626Z8040.345A6297.616
X-14949.584Y399.675Z8040.342A6303.346
X-14917.753Y399.663A6309.076
X-14885.922Y399.651A6314.805
X-14854.091Y399.638Z8040.343A6320.535
X-14822.26Y399.626Z8040.344A6326.264
X-14790.43Y399.675Z8040.342A6331.994
X-14758.599Y399.662A6337.724
X-14726.768Y399.649Z8040.343A6343.453
X-14694.937Y399.638Z8040.344A6349.182
X-14663.106Y399.626A6354.912
X-14631.276Y399.674Z8040.342A6360.642
X-14599.445Y399.662Z8040.343A6366.371
X-14567.614Y399.65Z8040.344A6372.101
X-14535.783Y399.637A6377.83
X-14503.952Y399.625A6383.56
X-14472.122Y399.674Z8040.342A6389.29
X-14440.291Y399.662A6395.019
X-14408.46Y399.649Z8040.343A6400.749
X-14376.629Y399.637Z8040.344A6406.478
X-14344.799Y399.625Z8040.345A6412.208
X-14312.968Y399.675Z8040.342A6417.938
X-14281.137Y399.663Z8040.343A6423.667
X-14249.306Y399.651Z8040.344A6429.397
X-14217.475Y399.639Z8040.345A6435.126
X-14185.645Y399.626Z8040.346A6440.856
X-14153.814Y399.675Z8040.344A6446.586
X-14121.983Y399.662A6452.315
X-14090.152Y399.651Z8040.345A6458.045
X-14058.321Y399.638Z8040.346A6463.774
X-14026.491Y399.626A6469.504
X-13994.66Y399.675Z8040.343A6475.233
X-13968.169Y422.121Z8045.053A6480
X-13936.338Y422.108Z8045.054A6485.729
X-13904.507Y422.096Z8045.055A6491.458
X-13872.676Y422.145Z8045.051A6497.188
X-13840.846Y422.132Z8045.053A6502.918
X-13809.015Y422.12A6508.647
X-13777.184Y422.108Z8045.055A6514.377
X-13745.353Y422.096Z8045.054A6520.106
X-13713.522Y422.144Z8045.051A6525.836
X-13681.692Y422.132Z8045.053A6531.566
X-13649.861Y422.12Z8045.054A6537.295
X-13618.03Y422.107Z8045.055A6543.025
X-13586.199Y422.095A6548.754
X-13554.368Y422.145Z8045.053A6554.484
X-13522.538Y422.132Z8045.054A6560.214
X-13490.707Y422.12Z8045.056A6565.943
X-13458.876Y422.107A6571.673
X-13427.045Y422.095Z8045.057A6577.402
X-13395.215Y422.144Z8045.055A6583.132
X-13363.384Y422.132Z8045.056A6588.862
X-13331.553Y422.12Z8045.057A6594.591
X-13299.722Y422.108A6600.321
X-13267.891Y422.096Z8045.058A6606.05
X-13236.061Y422.144Z8045.055A6611.78
X-13204.23Y422.132A6617.509
X-13172.399Y422.12Z8045.057A6623.239
X-13140.568Y422.108A6628.968
X-13108.737Y422.096Z8045.058A6634.698
X-13076.907Y422.145Z8045.055A6640.428
X-13045.076Y422.133Z8045.057A6646.157
X-13013.245Y422.121A6651.887
X-12981.414Y422.108Z8045.058A6657.616
X-12949.584Y422.096Z8045.059A6663.346
X-12917.753Y422.145Z8045.056A6669.076
X-12885.922Y422.132Z8045.057A6674.805
X-12854.091Y422.12A6680.535
X-12822.26Y422.108Z8045.059A6686.264
X-12790.43Y422.096A6691.994
X-12758.599Y422.144Z8045.056A6697.724
X-12726.768Y422.132Z8045.057A6703.453
X-12694.937Y422.12Z8045.059A6709.183
X-12663.106Y422.107A6714.912
X-12631.276Y422.095Z8045.06A6720.642
X-12599.445Y422.144Z8045.057A6726.372
X-12567.614Y422.132Z8045.058A6732.101
X-12535.783Y422.119A6737.831
X-12503.952Y422.107Z8045.06A6743.56
X-12472.122Y422.095Z8045.059A6749.29
X-12440.291Y422.144Z8045.057A6755.019
X-12408.46Y422.132Z8045.058A6760.749
X-12376.629Y422.119A6766.478
X-12344.799Y422.107Z8045.059A6772.208
X-12312.968Y422.095A6777.937
X-12281.137Y422.145Z8045.057A6783.667
X-12249.306Y422.132Z8045.059A6789.397
X-12217.475Y422.12A6795.126
X-12185.645Y422.108A6800.856
X-12153.814Y422.096Z8045.061A6806.585
X-12121.983Y422.144Z8045.059A6812.315
X-12090.152Y422.132A6818.045
X-12058.321Y422.121Z8045.06A6823.774
X-12026.491Y422.108A6829.504
X-11994.66Y422.096A6835.233
X-11968.169Y444.433Z8049.999A6840
X-11936.338Y444.421Z8050A6845.729
X-11904.507Y444.409A6851.459
X-11872.676Y444.396Z8050.001A6857.188
X-11840.846Y444.384Z8050.003A6862.918
X-11809.015Y444.433Z8049.999A6868.648
X-11777.184Y444.421A6874.377
X-11745.353Y444.409Z8050A6880.107
X-11713.522Y444.396Z8050.001A6885.836
X-11681.692Y444.383Z8050.002A6891.566
X-11649.861Y444.432Z8050A6897.295
X-11618.03Y444.42Z8050.001A6903.025
X-11586.199Y444.408Z8050.002A6908.754
X-11554.368Y444.396Z8050.003A6914.484
X-11522.538Y444.384Z8050.004A6920.213
X-11490.707Y444.433Z8050.002A6925.943
X-11458.876Y444.42Z8050.003A6931.673
X-11427.045Y444.408A6937.402
X-11395.215Y444.396Z8050.004A6943.132
X-11363.384Y444.383Z8050.005A6948.861
X-11331.553Y444.433Z8050.002A6954.591
X-11299.722Y444.421Z8050.003A6960.321
X-11267.891Y444.408Z8050.004A6966.05
X-11236.061Y444.396A6971.78
X-11204.23Y444.383Z8050.005A6977.509
X-11172.399Y444.433Z8050.003A6983.239
X-11140.568Y444.421A6988.969
X-11108.737Y444.409Z8050.004A6994.698
X-11076.907Y444.396A7000.428
X-11045.076Y444.384Z8050.006A7006.157
X-11013.245Y444.433Z8050.003A7011.887
X-10981.414Y444.421Z8050.004A7017.616
X-10949.584Y444.409A7023.346
X-10917.753Y444.396A7029.075
X-10885.922Y444.384Z8050.005A7034.805
X-10854.091Y444.433Z8050.003A7040.535
X-10822.26Y444.421Z8050.004A7046.264
X-10790.43Y444.408A7051.994
X-10758.599Y444.396A7057.723
X-10726.768Y444.384Z8050.006A7063.453
X-10694.937Y444.432Z8050.004A7069.183
X-10663.106Y444.421A7074.912
X-10631.276Y444.408Z8050.005A7080.642
X-10599.445Y444.395Z8050.006A7086.371
X-10567.614Y444.383Z8050.007A7092.101
X-10535.783Y444.432Z8050.004A7097.831
X-10503.952Y444.42A7103.56
X-10472.122Y444.408A7109.29
X-10440.291Y444.395Z8050.005A7115.019
X-10408.46Y444.383Z8050.006A7120.749
X-10376.629Y444.432Z8050.004A7126.479
X-10344.799Y444.42A7132.208
X-10312.968Y444.408Z8050.005A7137.938
X-10281.137Y444.396Z8050.006A7143.667
X-10249.306Y444.384A7149.397
X-10217.475Y444.433Z8050.005A7155.126
X-10185.645Y444.42A7160.856
X-10153.814Y444.409Z8050.006A7166.585
X-10121.983Y444.396Z8050.008A7172.315
X-10090.152Y444.384A7178.044
X-10058.321Y444.433Z8050.005A7183.774
X-10026.491Y444.421A7189.504
X-9994.66Y444.409A7195.233
X-9968.169Y466.509Z8055.173A7199.999
X-9936.338Y466.497Z8055.175A7205.729
X-9904.507Y466.546Z8055.171A7211.459
X-9872.676Y466.533Z8055.172A7217.188
X-9840.846Y466.521Z8055.173A7222.918
X-9809.015Y466.509A7228.647
X-9777.184Y466.496A7234.377
X-9745.353Y466.545Z8055.171A7240.107
X-9713.522Y466.533Z8055.172A7245.836
X-9681.692Y466.52Z8055.173A7251.566
X-9649.861Y466.508Z8055.174A7257.295
X-9618.03Y466.496Z8055.175A7263.025
X-9586.199Y466.545Z8055.173A7268.755
X-9554.368Y466.533Z8055.174A7274.484
X-9522.538Y466.521Z8055.175A7280.214
X-9490.707Y466.508Z8055.177A7285.943
X-9458.876Y466.496A7291.673
X-9427.045Y466.545Z8055.173A7297.402
X-9396.174Y373.391Z8036.258A7302.959
X-9395.215Y238.628Z9005.251A7303.132
X-9363.384Y156.409Z9347.946A7308.861
X-9331.552Y89.403Z9627.215A7314.591
X-9299.722Y38.279Z9840.27A7320.32
X-9267.891Y3.623Z9984.99A7326.05
X-9236.061Y0.008Z10000.002A7331.78
X-9204.23Y-0.007Z10000.003A7337.509
X-9172.398Y0.515Z9998.073A7343.239
G1X-9140.568Y33.078Z9861.955A7348.968
X-9108.737Y82.241Z9657.255A7354.698
X-9076.907Y147.206Z9386.072A7360.427
X-9045.076Y227.632Z9051.039A7366.157
X-9013.244Y322.558Z8655.54A7371.887
X-8981.414Y430.893Z8203.597A7377.616
X-8978.038Y479.495Z8055.059A7378.224
G0X-8949.584Y466.546Z8055.175A7383.346
X-8917.753Y466.472Z8055.179A7389.075
X-8885.922Y466.521Z8055.177A7394.805
X-8854.091Y466.57Z8055.174A7400.535
X-8822.26Y466.497Z8055.179A7406.264
X-8790.43Y466.546Z8055.176A7411.994
X-8758.599Y466.472Z8055.18A7417.723
X-8726.768Y466.521Z8055.177A7423.453
X-8694.937Y466.569Z8055.175A7429.183
X-8663.106Y466.496Z8055.179A7434.912
X-8631.276Y466.545Z8055.177A7440.642
X-8599.445Y466.471Z8055.181A7446.371
X-8567.614Y466.52Z8055.179A7452.101
X-8535.783Y466.569Z8055.175A7457.831
X-8503.952Y466.496Z8055.18A7463.56
X-8472.122Y466.545Z8055.176A7469.29
X-8440.291Y466.471Z8055.181A7475.019
X-8408.46Y466.52Z8055.177A7480.749
X-8376.629Y466.569Z8055.175A7486.479
X-8344.799Y466.496Z8055.179A7492.208
X-8312.968Y466.545Z8055.177A7497.938
X-8281.137Y466.471Z8055.181A7503.667
X-8249.306Y466.521Z8055.179A7509.397
X-8217.475Y466.57Z8055.176A7515.127
X-8185.645Y466.496Z8055.181A7520.856
X-8153.814Y466.545Z8055.177A7526.586
X-8121.983Y466.472Z8055.183A7532.315
X-8090.152Y466.521Z8055.179A7538.045
X-8058.321Y466.57Z8055.177A7543.774
X-8026.491Y466.497Z8055.18A7549.504
X-7994.66Y466.546Z8055.176A7555.233
X-7968.169Y488.402Z8060.569A7559.999
X-7936.338Y488.451Z8060.565A7565.729
X-7904.507Y488.5Z8060.563A7571.459
X-7872.676Y488.426Z8060.567A7577.188
X-7840.846Y488.476Z8060.564A7582.918
X-7809.015Y488.402Z8060.569A7588.647
X-7777.184Y488.451Z8060.565A7594.377
X-7745.353Y488.5Z8060.563A7600.107
X-7713.522Y488.426Z8060.567A7605.836
X-7681.692Y488.475Z8060.564A7611.566
X-7649.861Y488.401Z8060.569A7617.295
X-7618.03Y488.451Z8060.566A7623.025
X-7586.199Y488.5Z8060.564A7628.755
X-7554.368Y488.426Z8060.569A7634.484
X-7522.538Y488.475Z8060.566A7640.214
X-7490.707Y488.401Z8060.571A7645.943
X-7458.963Y480.03Z8058.785A7651.657
X-7458.876Y467.473Z8143.86A7651.673
X-7427.045Y351.995Z8602.566A7657.403
X-7395.214Y250.501Z9005.231A7663.132
X-7363.384Y164.24Z9347.953A7668.862
X-7331.552Y93.822Z9627.202A7674.591
X-7299.722Y40.215Z9840.273A7680.321
X-7267.891Y3.829Z9984.992A7686.05
X-7236.06Y-0.043Z10000.003A7691.78
X-7204.23Y0.017A7697.509
X-7172.399Y0.409Z9998.085A7703.239
G1X-7140.568Y34.757Z9861.951A7708.968
X-7108.737Y86.373Z9657.247A7714.698
X-7076.906Y154.585Z9386.064A7720.427
X-7045.076Y239.022Z9051.031A7726.157
X-7013.245Y338.537Z8655.592A7731.886
X-6981.414Y452.432Z8203.584A7737.616
X-6972.382Y498.3Z8055.171A7739.242
G0X-6949.584Y488.5Z8060.566A7743.346
X-6917.753Y488.426Z8060.571A7749.075
X-6885.922Y488.476Z8060.568A7754.805
X-6854.091Y488.402Z8060.573A7760.534
X-6822.26Y488.451Z8060.571A7766.264
X-6790.43Y488.5Z8060.567A7771.994
X-6758.599Y488.426Z8060.571A7777.723
X-6726.768Y488.475Z8060.569A7783.453
X-6694.937Y488.401Z8060.574A7789.182
X-6663.106Y488.45Z8060.57A7794.912
X-6631.276Y488.499Z8060.568A7800.642
X-6599.445Y488.425Z8060.573A7806.371
X-6567.614Y488.475Z8060.57A7812.101
X-6535.783Y488.401Z8060.574A7817.83
X-6503.952Y488.45Z8060.571A7823.56
X-6472.122Y488.499Z8060.566A7829.29
X-6440.291Y488.426Z8060.572A7835.019
X-6408.46Y488.475Z8060.569A7840.749
X-6376.629Y488.401Z8060.573A7846.478
X-6344.799Y488.451Z8060.57A7852.208
X-6312.968Y488.5Z8060.568A7857.938
X-6281.137Y488.426Z8060.573A7863.667
X-6249.306Y488.476Z8060.57A7869.397
X-6217.475Y488.402Z8060.575A7875.126
X-6185.645Y488.451Z8060.571A7880.856
X-6153.814Y488.5Z8060.569A7886.586
X-6121.983Y488.426Z8060.574A7892.315
X-6090.152Y488.476Z8060.571A7898.045
X-6058.321Y488.402Z8060.575A7903.774
X-6026.491Y488.451Z8060.571A7909.504
X-5994.66Y488.5Z8060.568A7915.234
X-5968.169Y510.168Z8066.175A7919.999
X-5936.338Y510.217Z8066.172A7925.729
X-5904.507Y510.266Z8066.168A7931.459
X-5872.676Y510.192Z8066.173A7937.188
X-5840.846Y510.241Z8066.17A7942.918
X-5809.015Y510.167Z8066.174A7948.647
X-5777.184Y510.216Z8066.171A7954.377
X-5745.353Y510.266Z8066.168A7960.107
X-5713.522Y510.192Z8066.172A7965.836
X-5681.692Y510.241Z8066.169A7971.566
X-5649.861Y510.167Z8066.175A7977.295
X-5618.03Y510.217Z8066.172A7983.025
X-5586.199Y510.266Z8066.169A7988.755
X-5554.368Y510.192Z8066.175A7994.484
X-5522.538Y510.241Z8066.172A8000.214
X-5490.707Y510.167Z8066.177A8005.943
X-5463.725Y503.152Z8059.469A8010.8
X-5458.876Y489.717Z8143.872A8011.673
X-5427.045Y368.748Z8602.578A8017.403
X-5395.214Y262.434Z9005.241A8023.132
X-5363.384Y172.07Z9347.962A8028.862
X-5331.553Y98.308Z9627.209A8034.591
X-5299.722Y42.152Z9840.279A8040.321
X-5267.891Y4.033Z9984.995A8046.051
X-5236.06Y-0.017Z10000.003A8051.78
X-5204.23Y0.043A8057.51
X-5172.399Y0.46Z9998.083A8063.239
G1X-5140.568Y36.437Z9861.948A8068.969
X-5108.737Y90.503Z9657.242A8074.699
X-5076.906Y161.962Z9386.056A8080.428
X-5045.076Y250.412Z9051.02A8086.158
X-5013.245Y354.661Z8655.582A8091.887
X-4981.414Y473.967Z8203.572A8097.616
X-4972.737Y519.689Z8061.04A8099.178
G0X-4949.584Y510.266Z8066.172A8103.346
X-4917.753Y510.192Z8066.177A8109.075
X-4885.922Y510.241Z8066.174A8114.805
X-4854.091Y510.167Z8066.179A8120.534
X-4822.26Y510.217Z8066.176A8126.264
X-4790.43Y510.266Z8066.172A8131.994
X-4758.599Y510.192Z8066.177A8137.723
X-4726.768Y510.241Z8066.174A8143.453
X-4694.937Y510.167Z8066.179A8149.182
X-4663.106Y510.216Z8066.176A8154.912
X-4631.276Y510.265Z8066.173A8160.642
X-4599.445Y510.191Z8066.178A8166.371
X-4567.614Y510.241Z8066.175A8172.101
X-4535.783Y510.167Z8066.18A8177.83
X-4503.952Y510.216Z8066.177A8183.56
X-4472.122Y510.265Z8066.172A8189.29
X-4440.291Y510.191Z8066.177A8195.019
X-4408.46Y510.24Z8066.174A8200.749
X-4376.629Y510.167Z8066.179A8206.478
X-4344.799Y510.216Z8066.176A8212.208
X-4312.968Y510.265Z8066.174A8217.938
X-4281.137Y510.192Z8066.178A8223.667
X-4249.306Y510.241Z8066.175A8229.397
X-4217.475Y510.168Z8066.181A8235.126
X-4185.645Y510.217Z8066.178A8240.856
X-4153.814Y510.266Z8066.175A8246.586
X-4121.983Y510.192Z8066.18A8252.315
X-4090.152Y510.241Z8066.177A8258.045
X-4058.321Y510.168Z8066.181A8263.774
X-4026.491Y510.217Z8066.178A8269.504
X-3994.66Y510.266Z8066.173A8275.234
X-3968.168Y531.738Z8071.988A8279.999
X-3936.337Y531.788Z8071.985A8285.729
X-3904.506Y531.714Z8071.99A8291.458
X-3872.675Y531.763Z8071.986A8297.188
X-3840.844Y531.812Z8071.984A8302.918
X-3809.013Y531.738Z8071.988A8308.647
X-3777.182Y531.787Z8071.985A8314.377
X-3745.351Y531.714Z8071.989A8320.106
X-3713.52Y531.763Z8071.986A8325.836
X-3681.689Y531.812Z8071.983A8331.566
X-3649.858Y531.738Z8071.989A8337.295
X-3618.027Y531.787Z8071.986A8343.025
X-3586.196Y531.713Z8071.99A8348.754
X-3554.365Y531.763Z8071.989A8354.484
X-3522.534Y531.812Z8071.986A8360.214
X-3490.703Y531.738Z8071.99A8365.943
X-3458.948Y524.476Z8070.276A8371.659
X-3458.872Y511.958Z8143.883A8371.673
X-3427.041Y385.387Z8602.522A8377.402
X-3395.21Y274.365Z9005.251A8383.132
X-3363.379Y179.898Z9347.969A8388.862
X-3331.548Y102.795Z9627.216A8394.591
X-3299.717Y44.089Z9840.284A8400.321
X-3267.886Y4.088Z9984.98A8406.05
X-3236.055Y0.007Z10000.003A8411.78
X-3204.224Y0.069A8417.51
X-3172.393Y0.508Z9998.081A8423.239
G1X-3140.562Y38.116Z9861.944A8428.969
X-3108.731Y94.476Z9657.272A8434.698
X-3076.9Y169.339Z9386.05A8440.428
X-3045.068Y261.8Z9051.011A8446.158
X-3013.238Y370.783Z8655.571A8451.887
X-2981.407Y495.5Z8203.559A8457.617
X-2973.096Y541.043Z8067.109A8459.113
G0X-2949.576Y531.714Z8071.993A8463.346
X-2917.745Y531.763Z8071.99A8469.076
X-2885.914Y531.812Z8071.987A8474.806
X-2854.083Y531.738Z8071.992A8480.535
X-2822.252Y531.788Z8071.99A8486.265
X-2790.421Y531.714Z8071.993A8491.994
X-2758.589Y531.763Z8071.99A8497.724
X-2726.758Y531.811Z8071.987A8503.453
X-2694.927Y531.738Z8071.992A8509.182
X-2663.096Y531.787Z8071.99A8514.912
X-2631.265Y531.713Z8071.994A8520.641
X-2599.434Y531.762Z8071.992A8526.371
X-2567.603Y531.812Z8071.989A8532.101
X-2535.772Y531.738Z8071.992A8537.83
X-2503.941Y531.787Z8071.99A8543.56
X-2472.11Y531.713Z8071.993A8549.289
X-2440.279Y531.762Z8071.991A8555.019
X-2408.448Y531.811Z8071.988A8560.749
X-2376.617Y531.737Z8071.992A8566.478
X-2344.786Y531.786Z8071.99A8572.208
X-2312.955Y531.713Z8071.994A8577.937
X-2281.124Y531.763Z8071.991A8583.667
X-2249.293Y531.813Z8071.989A8589.397
X-2217.462Y531.738Z8071.993A8595.126
X-2185.631Y531.788Z8071.99A8600.856
X-2153.8Y531.713Z8071.995A8606.585
X-2121.969Y531.763Z8071.993A8612.315
X-2090.138Y531.812Z8071.99A8618.045
X-2058.307Y531.738Z8071.994A8623.774
X-2026.476Y531.788Z8071.99A8629.504
X-1994.645Y531.714Z8071.995A8635.233
X-1968.168Y553.109Z8078.002A8640
X-1936.337Y553.158Z8077.999A8645.729
X-1904.506Y553.084Z8078.004A8651.459
X-1872.675Y553.133Z8078.001A8657.188
X-1840.844Y553.059Z8078.006A8662.917
X-1809.013Y553.108Z8078.002A8668.647
X-1777.182Y553.158Z8077.999A8674.377
X-1745.351Y553.084Z8078.004A8680.106
X-1713.52Y553.133Z8078.001A8685.836
X-1681.689Y553.059Z8078.005A8691.565
X-1649.858Y553.108Z8078.002A8697.295
X-1618.027Y553.158Z8078A8703.025
X-1586.196Y553.084Z8078.005A8708.754
X-1554.365Y553.133Z8078.002A8714.484
X-1522.534Y553.059Z8078.007A8720.213
X-1490.703Y553.108Z8078.004A8725.943
X-1458.872Y553.157Z8078.001A8731.673
X-1427.591Y500.865Z8064.997A8737.303
X-1427.041Y402.135Z8602.536A8737.402
X-1395.21Y286.293Z9005.261A8743.132
X-1363.379Y187.597Z9347.93A8748.861
X-1331.548Y107.28Z9627.222A8754.591
X-1299.717Y46.024Z9840.289A8760.321
X-1267.886Y4.293Z9984.983A8766.05
X-1236.055Y0.033Z10000.003A8771.78
X-1204.224Y-0.058A8777.509
X-1172.393Y0.557Z9998.078A8783.239
G1X-1140.562Y39.795Z9861.939A8788.969
X-1108.731Y98.605Z9657.266A8794.698
X-1076.9Y176.715Z9386.041A8800.428
X-1045.069Y273.032Z9051.058A8806.157
X-1013.238Y386.902Z8655.56A8811.887
X-981.407Y517.03Z8203.548A8817.617
X-978.023Y563.991Z8077.834A8818.225
G0X-949.576Y553.084Z8078.008A8823.346
X-917.745Y553.133Z8078.004A8829.076
X-885.914Y553.059Z8078.01A8834.805
X-854.083Y553.108Z8078.006A8840.535
X-822.252Y553.158Z8078.004A8846.265
X-790.421Y553.083Z8078.008A8851.994
X-758.59Y553.133Z8078.005A8857.724
X-726.759Y553.059Z8078.01A8863.453
X-694.928Y553.108Z8078.006A8869.183
X-663.097Y553.157Z8078.002A8874.913
X-631.266Y553.083Z8078.009A8880.642
X-599.435Y553.132Z8078.006A8886.372
X-567.604Y553.058Z8078.011A8892.101
X-535.773Y553.108Z8078.007A8897.831
X-503.942Y553.157Z8078.004A8903.56
X-472.111Y553.083Z8078.007A8909.29
X-440.28Y553.132Z8078.005A8915.019
X-408.449Y553.058Z8078.01A8920.748
X-376.618Y553.108Z8078.007A8926.478
X-344.787Y553.157Z8078.003A8932.208
X-312.956Y553.083Z8078.009A8937.937
X-281.125Y553.133Z8078.005A8943.667
X-249.294Y553.059Z8078.012A8949.396
X-217.463Y553.108Z8078.008A8955.126
X-185.632Y553.158Z8078.004A8960.856
X-153.801Y553.084Z8078.01A8966.585
X-121.97Y553.133Z8078.007A8972.315
X-90.139Y553.059Z8078.012A8978.044
X-58.308Y553.108Z8078.008A8983.774
X-26.477Y553.158Z8078.004A8989.504
X5.353Y553.084Z8078.009A8995.233
X31.83Y574.273Z8084.212A9000
X63.661Y574.199Z8084.218A9005.729
X95.492Y574.249Z8084.213A9011.459
X127.323Y574.298Z8084.21A9017.189
X159.154Y574.224Z8084.216A9022.918
X190.985Y574.273Z8084.212A9028.648
X222.816Y574.199Z8084.217A9034.377
X254.647Y574.248Z8084.214A9040.107
X286.478Y574.298Z8084.21A9045.836
X318.309Y574.223Z8084.215A9051.566
X350.14Y574.272Z8084.213A9057.295
X381.971Y574.198Z8084.218A9063.025
X413.802Y574.248Z8084.215A9068.754
X445.633Y574.297Z8084.212A9074.484
X477.464Y574.223Z8084.218A9080.213
X509.295Y574.273Z8084.215A9085.943
X541.126Y574.199Z8084.22A9091.672
X572.957Y574.248Z8084.217A9097.402
X604.788Y574.297Z8084.213A9103.132
X636.619Y574.223Z8084.219A9108.861
X668.45Y574.273Z8084.216A9114.591
X698.503Y406.224Z8039.823A9120
X700.281Y47.818Z9840.265A9120.32
X732.112Y4.499Z9984.987A9126.05
X763.943Y0.058Z10000.003A9131.78
X795.774Y-0.033A9137.509
X827.605Y0.607Z9998.075A9143.239
G1X859.436Y415.768Z8612.76A9148.968
X865.508Y616.334Z8092.098A9150.062
G0X891.267Y574.249Z8084.218A9154.698
X923.098Y574.298Z8084.213A9160.428
X954.929Y574.224Z8084.219A9166.157
X986.76Y574.273Z8084.216A9171.887
X1018.591Y574.199Z8084.221A9177.616
X1050.422Y574.249Z8084.218A9183.346
X1082.253Y574.298Z8084.215A9189.076
X1114.084Y574.224Z8084.219A9194.805
X1145.915Y574.273Z8084.216A9200.535
X1177.746Y574.199Z8084.222A9206.264
X1209.577Y574.249Z8084.218A9211.994
X1241.408Y574.297Z8084.215A9217.724
X1273.239Y574.223Z8084.22A9223.453
X1305.07Y574.272Z8084.217A9229.183
X1336.901Y574.198Z8084.222A9234.912
X1368.732Y574.248Z8084.218A9240.642
X1400.563Y574.297Z8084.216A9246.372
X1432.394Y574.223Z8084.22A9252.101
X1464.225Y574.272Z8084.217A9257.831
X1496.056Y574.198Z8084.222A9263.56
X1527.887Y574.248Z8084.218A9269.29
X1559.718Y574.297Z8084.215A9275.02
X1591.549Y574.223Z8084.22A9280.749
X1623.38Y574.272Z8084.217A9286.479
X1655.211Y574.198Z8084.222A9292.208
X1687.042Y574.248Z8084.218A9297.938
X1718.873Y574.298Z8084.216A9303.667
X1750.704Y574.224Z8084.22A9309.397
X1782.535Y574.273Z8084.218A9315.126
X1814.366Y574.199Z8084.222A9320.856
X1846.197Y574.248Z8084.22A9326.585
X1878.028Y574.297Z8084.217A9332.315
X1909.86Y574.223Z8084.222A9338.044
X1941.691Y574.273Z8084.218A9343.774
X1973.522Y574.199Z8084.223A9349.503
X2005.352Y574.248Z8084.218A9355.233
X2031.831Y595.227Z8090.61A9360
X2063.662Y595.153Z8090.616A9365.729
X2095.493Y595.202Z8090.612A9371.459
X2127.324Y595.128Z8090.617A9377.188
X2159.155Y595.178Z8090.614A9382.918
X2190.986Y595.227Z8090.61A9388.648
X2222.817Y595.152Z8090.616A9394.377
X2254.648Y595.202Z8090.612A9400.107
X2286.479Y595.128Z8090.618A9405.836
X2318.31Y595.176Z8090.614A9411.566
X2350.141Y595.226Z8090.61A9417.296
X2381.972Y595.153Z8090.617A9423.025
X2413.803Y595.202Z8090.613A9428.755
X2445.634Y595.128Z8090.619A9434.484
X2477.465Y595.177Z8090.616A9440.214
X2509.296Y595.226Z8090.612A9445.943
X2541.127Y595.152Z8090.618A9451.673
X2572.958Y595.202Z8090.615A9457.402
X2604.789Y595.128Z8090.621A9463.132
X2636.62Y595.177Z8090.617A9468.861
X2668.451Y595.227Z8090.613A9474.591
X2700.282Y595.152Z8090.619A9480.32
X2732.113Y595.202Z8090.616A9486.05
X2763.944Y595.128Z8090.62A9491.779
X2795.775Y595.177Z8090.618A9497.509
X2827.606Y595.227Z8090.614A9503.239
X2859.437Y595.154Z8090.618A9508.968
X2891.268Y595.203Z8090.615A9514.698
X2923.099Y595.128Z8090.62A9520.427
X2954.93Y595.178Z8090.618A9526.157
X2986.761Y595.227Z8090.614A9531.887
X3018.592Y595.153Z8090.62A9537.616
X3050.423Y595.202Z8090.616A9543.346
X3082.254Y595.128Z8090.621A9549.075
X3114.085Y595.178Z8090.618A9554.805
X3145.916Y595.227Z8090.614A9560.535
X3177.747Y595.153Z8090.62A9566.264
X3209.578Y595.202Z8090.616A9571.994
X3241.41Y595.128Z8090.621A9577.723
X3273.241Y595.177Z8090.618A9583.453
X3305.072Y595.227Z8090.615A9589.183
X3336.903Y595.152Z8090.62A9594.912
X3368.734Y595.201Z8090.618A9600.642
X3400.565Y595.127Z8090.623A9606.371
X3432.396Y595.177Z8090.619A9612.101
X3464.227Y595.226Z8090.615A9617.831
X3496.058Y595.152Z8090.621A9623.56
X3527.889Y595.201Z8090.616A9629.29
X3559.72Y595.127Z8090.621A9635.019
X3591.551Y595.176Z8090.619A9640.749
X3623.382Y595.226Z8090.615A9646.479
X3655.213Y595.152Z8090.62A9652.208
X3687.044Y595.202Z8090.617A9657.938
X3718.875Y595.128Z8090.622A9663.667
X3750.706Y595.178Z8090.62A9669.397
X3782.537Y595.227Z8090.616A9675.127
X3814.368Y595.154Z8090.621A9680.856
X3846.199Y595.202Z8090.619A9686.586
X3878.03Y595.128Z8090.624A9692.315
X3909.861Y595.177Z8090.62A9698.045
X3941.692Y595.227Z8090.617A9703.774
X3973.523Y595.153Z8090.621A9709.504
X4005.354Y595.202Z8090.617A9715.233
X4031.83Y615.842Z8097.2A9719.999
X4063.661Y615.892Z8097.196A9725.729
X4095.492Y615.941Z8097.192A9731.459
X4127.323Y615.867Z8097.197A9737.188
X4159.153Y615.917Z8097.194A9742.918
X4190.984Y615.842Z8097.199A9748.647
X4222.815Y615.891Z8097.196A9754.377
X4254.646Y615.941Z8097.192A9760.107
X4286.477Y615.867Z8097.198A9765.836
X4318.307Y615.916Z8097.194A9771.566
X4350.138Y615.842Z8097.2A9777.295
X4381.969Y615.891Z8097.197A9783.025
X4413.8Y615.941Z8097.194A9788.755
X4445.631Y615.867Z8097.2A9794.484
X4477.461Y615.916Z8097.196A9800.214
X4509.292Y615.842Z8097.201A9805.943
X4541.123Y615.891Z8097.199A9811.673
X4572.954Y615.94Z8097.195A9817.403
X4604.784Y615.866Z8097.201A9823.132
X4636.615Y615.916Z8097.197A9828.862
X4668.446Y615.842Z8097.204A9834.591
X4700.277Y615.891Z8097.199A9840.321
X4732.108Y615.941Z8097.195A9846.051
X4763.938Y615.867Z8097.202A9851.78
X4795.769Y615.916Z8097.197A9857.509
X4827.6Y615.843Z8097.203A9863.239
X4859.431Y615.892Z8097.199A9868.968
X4891.262Y615.942Z8097.195A9874.698
X4923.092Y615.867Z8097.201A9880.427
X4954.923Y615.917Z8097.198A9886.157
X4986.754Y615.842Z8097.204A9891.886
X5018.585Y615.892Z8097.2A9897.616
X5050.415Y615.941Z8097.196A9903.346
X5082.246Y615.867Z8097.202A9909.075
X5114.077Y615.916Z8097.198A9914.805
X5145.908Y615.842Z8097.203A9920.534
X5177.739Y615.892Z8097.2A9926.264
X5209.569Y615.941Z8097.196A9931.994
X5241.4Y615.867Z8097.202A9937.723
X5273.231Y615.916Z8097.198A9943.453
X5305.062Y615.842Z8097.204A9949.182
X5336.893Y615.891Z8097.2A9954.912
X5368.723Y615.94Z8097.197A9960.642
X5400.554Y615.866Z8097.203A9966.371
X5432.385Y615.916Z8097.2A9972.101
X5464.216Y615.841Z8097.205A9977.83
X5496.047Y615.891Z8097.201A9983.56
X5527.877Y615.94Z8097.197A9989.29
X5559.708Y615.866Z8097.203A9995.019
X5591.539Y615.915Z8097.198A10000.749
X5623.37Y615.841Z8097.204A10006.478
X5655.2Y615.891Z8097.201A10012.208
X5687.031Y615.941Z8097.197A10017.938
X5718.862Y615.867Z8097.203A10023.667
X5750.693Y615.916Z8097.2A10029.397
X5782.524Y615.843Z8097.206A10035.126
X5814.354Y615.892Z8097.202A10040.856
X5846.185Y615.941Z8097.198A10046.586
X5878.016Y615.867Z8097.204A10052.315
X5909.847Y615.916Z8097.2A10058.045
X5941.678Y615.842Z8097.207A10063.774
X5973.508Y615.892Z8097.202A10069.504
X6005.339Y615.941Z8097.197A10075.234
X6031.83Y636.361Z8103.955A10079.999
X6063.661Y636.411Z8103.951A10085.729
X6095.492Y636.46Z8103.947A10091.459
X6127.323Y636.386Z8103.953A10097.188
X6159.153Y636.435Z8103.95A10102.918
X6190.984Y636.361Z8103.955A10108.647
X6222.815Y636.41Z8103.952A10114.377
X6254.646Y636.46Z8103.948A10120.107
X6286.477Y636.386Z8103.954A10125.836
X6318.307Y636.435Z8103.95A10131.566
X6350.138Y636.36Z8103.956A10137.295
X6381.969Y636.41Z8103.953A10143.025
X6413.8Y636.46Z8103.949A10148.755
X6445.631Y636.386Z8103.956A10154.484
X6477.461Y636.435Z8103.952A10160.214
X6509.292Y636.361Z8103.958A10165.943
X6541.123Y636.41Z8103.955A10171.673
X6572.954Y636.46Z8103.95A10177.403
X6604.784Y636.386Z8103.957A10183.132
X6636.615Y636.435Z8103.953A10188.862
X6668.446Y636.361Z8103.96A10194.591
X6700.277Y636.41Z8103.955A10200.321
X6732.108Y636.46Z8103.95A10206.051
X6763.938Y636.386Z8103.957A10211.78
X6795.769Y636.435Z8103.954A10217.51
X6827.6Y636.361Z8103.96A10223.239
X6859.431Y636.41Z8103.955A10228.969
X6891.262Y636.46Z8103.951A10234.699
X6923.092Y636.386Z8103.957A10240.428
X6954.923Y636.435Z8103.954A10246.158
X6986.754Y636.361Z8103.96A10251.887
X7018.585Y636.411Z8103.956A10257.617
X7050.415Y636.46Z8103.951A10263.346
X7082.246Y636.386Z8103.957A10269.075
X7114.077Y636.435Z8103.954A10274.805
X7145.908Y636.361Z8103.959A10280.534
X7177.739Y636.411Z8103.956A10286.264
X7209.569Y636.46Z8103.952A10291.994
X7241.4Y636.385Z8103.958A10297.723
X7273.231Y636.434Z8103.954A10303.453
X7305.062Y636.36Z8103.96A10309.182
X7336.893Y636.41Z8103.956A10314.912
X7368.723Y636.46Z8103.952A10320.642
X7400.554Y636.385Z8103.959A10326.371
X7432.385Y636.435Z8103.955A10332.101
X7464.216Y636.361Z8103.96A10337.83
X7496.047Y636.41Z8103.956A10343.56
X7527.877Y636.459Z8103.952A10349.29
X7559.708Y636.385Z8103.958A10355.019
X7591.539Y636.434Z8103.954A10360.749
X7623.37Y636.36Z8103.96A10366.478
X7655.2Y636.409Z8103.957A10372.208
X7687.031Y636.459Z8103.953A10377.938
X7718.862Y636.386Z8103.959A10383.667
X7750.693Y636.435Z8103.956A10389.397
X7782.524Y636.361Z8103.961A10395.126
X7814.354Y636.41Z8103.958A10400.856
X7846.185Y636.46Z8103.954A10406.586
X7878.016Y636.385Z8103.96A10412.315
X7909.847Y636.435Z8103.956A10418.045
X7941.678Y636.361Z8103.962A10423.774
X7973.508Y636.41Z8103.957A10429.504
X8005.339Y636.46Z8103.953A10435.234
X8031.83Y656.657Z8110.879A10439.999
X8063.661Y656.706Z8110.875A10445.729
X8095.492Y656.632Z8110.882A10451.458
X8127.323Y656.681Z8110.877A10457.188
X8159.153Y656.731Z8110.875A10462.918
X8190.984Y656.656Z8110.879A10468.647
X8222.815Y656.705Z8110.876A10474.377
X8254.646Y656.631Z8110.881A10480.106
X8286.477Y656.681Z8110.877A10485.836
X8318.307Y656.73Z8110.874A10491.566
X8350.138Y656.656Z8110.88A10497.295
X8381.969Y656.706Z8110.877A10503.025
X8413.8Y656.631Z8110.883A10508.754
X8445.631Y656.681Z8110.879A10514.484
X8477.461Y656.73Z8110.876A10520.214
X8509.292Y656.656Z8110.882A10525.943
X8541.123Y656.705Z8110.877A10531.673
X8572.954Y656.631Z8110.884A10537.402
X8604.784Y656.681Z8110.881A10543.132
X8636.615Y656.73Z8110.877A10548.862
X8668.446Y656.656Z8110.883A10554.591
X8700.277Y656.705Z8110.879A10560.321
X8732.108Y656.632Z8110.885A10566.05
X8763.938Y656.681Z8110.881A10571.78
X8795.769Y656.731Z8110.877A10577.51
X8827.6Y656.657Z8110.883A10583.239
X8859.431Y656.706Z8110.879A10588.969
X8891.262Y656.632Z8110.885A10594.698
X8923.092Y656.682Z8110.881A10600.428
X8954.923Y656.731Z8110.878A10606.158
X8986.754Y656.657Z8110.883A10611.887
X9018.585Y656.706Z8110.88A10617.617
X9050.415Y656.632Z8110.886A10623.346
X9082.246Y656.681Z8110.882A10629.076
X9114.077Y656.731Z8110.877A10634.806
X9145.908Y656.657Z8110.884A10640.535
X9177.739Y656.706Z8110.881A10646.265
X9209.569Y656.632Z8110.886A10651.994
X9241.4Y656.681Z8110.881A10657.724
X9273.231Y656.73Z8110.878A10663.453
X9305.062Y656.655Z8110.885A10669.182
X9336.893Y656.706Z8110.88A10674.912
X9368.723Y656.631Z8110.887A10680.641
X9400.554Y656.681Z8110.883A10686.371
X9432.385Y656.73Z8110.879A10692.101
X9464.216Y656.656Z8110.885A10697.83
X9496.047Y656.705Z8110.88A10703.56
X9527.877Y656.631Z8110.885A10709.289
X9559.708Y656.681Z8110.883A10715.019
X9591.539Y656.73Z8110.879A10720.749
X9623.37Y656.656Z8110.884A10726.478
X9655.2Y656.705Z8110.881A10732.208
X9687.031Y656.631Z8110.887A10737.937
X9718.862Y656.681Z8110.883A10743.667
X9750.693Y656.731Z8110.88A10749.397
X9782.524Y656.657Z8110.885A10755.126
X9814.354Y656.706Z8110.882A10760.856
X9846.185Y656.632Z8110.888A10766.585
X9878.016Y656.681Z8110.885A10772.315
X9909.847Y656.731Z8110.88A10778.045
X9941.678Y656.657Z8110.886A10783.774
X9973.508Y656.706Z8110.881A10789.504
X10005.339Y656.632Z8110.887A10795.233
X10031.83Y676.725Z8117.967A10800
X10063.661Y676.774Z8117.962A10805.729
X10095.492Y676.7Z8117.969A10811.459
X10127.323Y676.75Z8117.964A10817.188
X10159.153Y676.675Z8117.971A10822.917
X10190.984Y676.725Z8117.966A10828.647
X10222.815Y676.774Z8117.962A10834.377
X10254.646Y676.699Z8117.968A10840.106
X10286.477Y676.749Z8117.963A10845.836
X10318.307Y676.675Z8117.971A10851.565
X10350.138Y676.724Z8117.967A10857.295
X10381.969Y676.774Z8117.963A10863.025
X10413.8Y676.7Z8117.969A10868.754
X10445.631Y676.75Z8117.966A10874.484
X10477.461Y676.675Z8117.973A10880.213
X10509.292Y676.724Z8117.969A10885.943
X10541.123Y676.774Z8117.965A10891.673
X10572.954Y676.699Z8117.971A10897.402
X10604.784Y676.749Z8117.968A10903.132
X10636.615Y676.675Z8117.974A10908.861
X10668.446Y676.724Z8117.97A10914.591
X10700.277Y676.774Z8117.965A10920.321
X10732.108Y676.7Z8117.971A10926.05
X10763.938Y676.749Z8117.968A10931.78
X10795.769Y676.675Z8117.975A10937.509
X10827.6Y676.725Z8117.97A10943.239
X10859.431Y676.775Z8117.965A10948.969
X10891.262Y676.7Z8117.972A10954.698
X10923.092Y676.749Z8117.968A10960.428
X10954.923Y676.675Z8117.975A10966.157
X10986.754Y676.725Z8117.97A10971.887
X11018.585Y676.774Z8117.966A10977.617
X11050.415Y676.7Z8117.973A10983.346
X11082.246Y676.749Z8117.968A10989.076
X11114.077Y676.675Z8117.975A10994.805
X11145.908Y676.725Z8117.97A11000.535
X11177.739Y676.774Z8117.967A11006.265
X11209.569Y676.7Z8117.973A11011.994
X11241.4Y676.749Z8117.969A11017.724
X11273.231Y676.674Z8117.975A11023.453
X11305.062Y676.724Z8117.971A11029.183
X11336.893Y676.774Z8117.966A11034.913
X11368.723Y676.699Z8117.974A11040.642
X11400.554Y676.749Z8117.97A11046.372
X11432.385Y676.674Z8117.977A11052.101
X11464.216Y676.724Z8117.972A11057.831
X11496.047Y676.773Z8117.967A11063.56
X11527.877Y676.699Z8117.973A11069.29
X11559.708Y676.748Z8117.969A11075.019
X11591.539Y676.674Z8117.976A11080.748
X11623.37Y676.724Z8117.971A11086.478
X11655.2Y676.773Z8117.967A11092.208
X11687.031Y676.699Z8117.974A11097.937
X11718.862Y676.749Z8117.97A11103.667
X11750.693Y676.675Z8117.977A11109.396
X11782.524Y676.725Z8117.973A11115.126
X11814.354Y676.774Z8117.969A11120.856
X11846.185Y676.7Z8117.975A11126.585
X11878.016Y676.749Z8117.971A11132.315
X11909.847Y676.675Z8117.978A11138.044
X11941.678Y676.724Z8117.973A11143.774
X11973.508Y676.774Z8117.968A11149.504
X12005.339Y676.7Z8117.974A11155.233
X12031.83Y696.563Z8125.208A11160
X12063.661Y696.488Z8125.215A11165.729
X12095.492Y696.538Z8125.21A11171.459
X12127.323Y696.587Z8125.205A11177.189
X12159.153Y696.512Z8125.213A11182.918
X12190.984Y696.562Z8125.208A11188.648
X12222.815Y696.487Z8125.215A11194.377
X12254.646Y696.537Z8125.211A11200.107
X12286.477Y696.587Z8125.205A11205.836
X12318.307Y696.512Z8125.212A11211.566
X12350.138Y696.562Z8125.209A11217.295
X12381.969Y696.487Z8125.216A11223.025
X12413.8Y696.537Z8125.211A11228.754
X12445.631Y696.587Z8125.207A11234.484
X12477.461Y696.512Z8125.215A11240.213
X12509.292Y696.562Z8125.211A11245.943
X12541.123Y696.487Z8125.218A11251.672
X12572.954Y696.537Z8125.214A11257.402
X12604.784Y696.587Z8125.21A11263.132
X12636.615Y696.512Z8125.216A11268.861
X12668.446Y696.562Z8125.212A11274.591
X12700.277Y696.488Z8125.218A11280.32
X12732.108Y696.537Z8125.214A11286.05
X12763.938Y696.588Z8125.21A11291.78
X12795.769Y696.512Z8125.217A11297.509
X12827.6Y696.562Z8125.213A11303.239
X12859.431Y696.488Z8125.219A11308.968
X12891.262Y696.538Z8125.214A11314.698
X12923.092Y696.587Z8125.21A11320.428
X12954.923Y696.513Z8125.218A11326.157
X12986.754Y696.562Z8125.212A11331.887
X13018.585Y696.488Z8125.219A11337.616
X13050.415Y696.538Z8125.215A11343.346
X13082.246Y696.587Z8125.211A11349.076
X13114.077Y696.513Z8125.217A11354.805
X13145.908Y696.562Z8125.212A11360.535
X13177.739Y696.488Z8125.22A11366.264
X13209.569Y696.537Z8125.215A11371.994
X13241.4Y696.586Z8125.211A11377.724
X13273.231Y696.512Z8125.217A11383.453
X13305.062Y696.561Z8125.213A11389.183
X13336.893Y696.487Z8125.22A11394.912
X13368.723Y696.537Z8125.216A11400.642
X13400.554Y696.587Z8125.211A11406.372
X13432.385Y696.512Z8125.219A11412.101
X13464.216Y696.562Z8125.213A11417.831
X13496.047Y696.487Z8125.22A11423.56
X13527.877Y696.537Z8125.215A11429.29
X13559.708Y696.586Z8125.211A11435.02
X13591.539Y696.512Z8125.218A11440.749
X13623.37Y696.562Z8125.213A11446.479
X13655.2Y696.487Z8125.22A11452.208
X13687.031Y696.537Z8125.215A11457.938
X13718.862Y696.587Z8125.212A11463.667
X13750.693Y696.513Z8125.219A11469.397
X13782.524Y696.563Z8125.214A11475.126
X13814.354Y696.488Z8125.221A11480.856
X13846.185Y696.537Z8125.218A11486.585
X13878.016Y696.587Z8125.213A11492.315
X13909.847Y696.512Z8125.22A11498.044
X13941.678Y696.563Z8125.215A11503.774
X13973.508Y696.488Z8125.221A11509.503
X14005.339Y696.538Z8125.217A11515.233
X14031.83Y716.167Z8132.599A11520
X14063.661Y716.092Z8132.606A11525.729
X14095.492Y716.142Z8132.601A11531.459
X14127.323Y716.068Z8132.608A11537.188
X14159.153Y716.117Z8132.604A11542.918
X14190.984Y716.166Z8132.599A11548.648
X14222.815Y716.091Z8132.606A11554.377
X14254.646Y716.142Z8132.601A11560.107
X14286.477Y716.067Z8132.608A11565.836
X14318.307Y716.117Z8132.603A11571.566
X14350.138Y716.166Z8132.599A11577.296
X14381.969Y716.091Z8132.607A11583.025
X14413.8Y716.142Z8132.603A11588.755
X14445.631Y716.067Z8132.61A11594.484
X14477.461Y716.117Z8132.606A11600.214
X14509.292Y716.166Z8132.602A11605.943
X14541.123Y716.092Z8132.609A11611.673
X14572.954Y716.141Z8132.604A11617.402
X14604.784Y716.067Z8132.612A11623.132
X14636.615Y716.116Z8132.608A11628.861
X14668.446Y716.166Z8132.602A11634.591
X14700.277Y716.092Z8132.609A11640.32
X14732.108Y716.141Z8132.605A11646.05
X14763.938Y716.067Z8132.612A11651.779
X14795.769Y716.116Z8132.608A11657.509
X14827.6Y716.166Z8132.603A11663.239
X14859.431Y716.093Z8132.61A11668.968
X14891.262Y716.142Z8132.605A11674.698
X14923.092Y716.067Z8132.612A11680.427
X14954.923Y716.117Z8132.608A11686.157
X14986.754Y716.167Z8132.603A11691.887
X15018.585Y716.092Z8132.61A11697.616
X15050.415Y716.142Z8132.606A11703.346
X15082.246Y716.067Z8132.611A11709.075
X15114.077Y716.117Z8132.608A11714.805
X15145.908Y716.167Z8132.603A11720.535
X15177.739Y716.092Z8132.61A11726.264
X15209.569Y716.141Z8132.606A11731.994
X15241.4Y716.067Z8132.612A11737.723
X15273.231Y716.116Z8132.608A11743.453
X15305.062Y716.165Z8132.604A11749.183
X15336.893Y716.092Z8132.61A11754.912
X15368.723Y716.141Z8132.607A11760.642
X15400.554Y716.066Z8132.614A11766.371
X15432.385Y716.116Z8132.609A11772.101
X15464.216Y716.166Z8132.604A11777.831
X15496.047Y716.091Z8132.611A11783.56
X15527.877Y716.141Z8132.606A11789.29
X15559.708Y716.066Z8132.614A11795.019
X15591.539Y716.116Z8132.608A11800.749
X15623.37Y716.166Z8132.604A11806.479
X15655.2Y716.091Z8132.611A11812.208
X15687.031Y716.14Z8132.607A11817.938
X15718.862Y716.067Z8132.614A11823.667
X15750.693Y716.116Z8132.61A11829.397
X15782.524Y716.166Z8132.605A11835.127
X15814.354Y716.092Z8132.612A11840.856
X15846.185Y716.141Z8132.608A11846.586
X15878.016Y716.067Z8132.615A11852.315
X15909.847Y716.116Z8132.61A11858.045
X15941.678Y716.166Z8132.606A11863.774
X15973.508Y716.092Z8132.612A11869.504
X16005.34Y716.142Z8132.607A11875.233
X16031.831Y735.411Z8140.143A11879.999
X16063.663Y735.46Z8140.139A11885.729
X16095.495Y735.51Z8140.134A11891.459
X16127.326Y735.435Z8140.141A11897.188
X16159.158Y735.485Z8140.137A11902.918
X16190.99Y735.411Z8140.143A11908.647
X16222.822Y735.46Z8140.138A11914.377
X16254.653Y735.51Z8140.134A11920.107
X16286.485Y735.435Z8140.141A11925.836
X16318.317Y735.485Z8140.137A11931.566
X16350.149Y735.41Z8140.144A11937.295
X16381.98Y735.46Z8140.14A11943.025
X16413.812Y735.509Z8140.135A11948.755
X16445.644Y735.435Z8140.143A11954.484
X16477.476Y735.485Z8140.139A11960.214
X16509.307Y735.41Z8140.146A11965.943
X16541.139Y735.46Z8140.142A11971.673
X16572.971Y735.509Z8140.137A11977.403
X16604.803Y735.435Z8140.145A11983.132
X16636.634Y735.485Z8140.14A11988.862
X16668.466Y735.41Z8140.148A11994.591
X16700.298Y735.46Z8140.142A12000.321
X16732.13Y735.51Z8140.138A12006.051
X16763.961Y735.435Z8140.145A12011.78
X16795.793Y735.485Z8140.14A12017.509
X16827.625Y735.411Z8140.147A12023.239
X16859.457Y735.461Z8140.142A12028.968
X16891.288Y735.51Z8140.138A12034.698
X16923.12Y735.436Z8140.145A12040.427
X16954.952Y735.485Z8140.141A12046.157
X16986.783Y735.411Z8140.148A12051.886
X17018.615Y735.46Z8140.144A12057.616
X17050.447Y735.51Z8140.138A12063.346
X17082.279Y735.435Z8140.145A12069.075
X17114.11Y735.485Z8140.14A12074.805
X17145.942Y735.411Z8140.148A12080.534
X17177.774Y735.46Z8140.144A12086.264
X17209.606Y735.51Z8140.138A12091.994
X17241.437Y735.435Z8140.146A12097.723
X17273.269Y735.484Z8140.141A12103.453
X17305.101Y735.41Z8140.148A12109.182
X17336.933Y735.46Z8140.144A12114.912
X17368.764Y735.509Z8140.139A12120.642
X17400.596Y735.435Z8140.147A12126.371
X17432.428Y735.484Z8140.142A12132.101
X17464.26Y735.41Z8140.149A12137.83
X17496.091Y735.459Z8140.144A12143.56
X17527.923Y735.509Z8140.14A12149.29
X17559.755Y735.434Z8140.146A12155.019
X17591.587Y735.484Z8140.142A12160.749
X17623.418Y735.409Z8140.148A12166.478
X17655.25Y735.459Z8140.144A12172.208
X17687.082Y735.509Z8140.139A12177.938
X17718.914Y735.435Z8140.146A12183.667
X17750.745Y735.485Z8140.143A12189.397
X17782.577Y735.41Z8140.15A12195.126
X17814.409Y735.46Z8140.145A12200.856
X17846.24Y735.509Z8140.141A12206.586
X17878.072Y735.435Z8140.149A12212.315
X17909.904Y735.485Z8140.143A12218.045
X17941.736Y735.411Z8140.15A12223.774
X17973.567Y735.46Z8140.145A12229.504
X18005.399Y735.51Z8140.139A12235.234
X18031.831Y754.54Z8147.812A12239.999
X18063.663Y754.59Z8147.808A12245.729
X18095.495Y754.516Z8147.813A12251.458
X18127.326Y754.565Z8147.809A12257.188
X18159.158Y754.615Z8147.806A12262.918
X18190.99Y754.54Z8147.811A12268.647
X18222.822Y754.59Z8147.807A12274.377
X18254.653Y754.515Z8147.814A12280.106
X18286.485Y754.565Z8147.809A12285.836
X18318.317Y754.615Z8147.806A12291.566
X18350.149Y754.539Z8147.812A12297.295
X18381.98Y754.589Z8147.809A12303.025
X18413.812Y754.515Z8147.816A12308.754
X18445.644Y754.565Z8147.811A12314.484
X18477.476Y754.615Z8147.808A12320.214
X18509.307Y754.54Z8147.814A12325.943
X18541.139Y754.59Z8147.809A12331.673
X18572.971Y754.515Z8147.817A12337.402
X18604.803Y754.565Z8147.813A12343.132
X18636.634Y754.614Z8147.809A12348.862
X18668.466Y754.54Z8147.815A12354.591
X18700.298Y754.59Z8147.811A12360.321
X18732.13Y754.515Z8147.817A12366.05
X18763.961Y754.565Z8147.813A12371.78
X18795.793Y754.615Z8147.809A12377.51
X18827.625Y754.54Z8147.816A12383.239
X18859.457Y754.59Z8147.81A12388.969
X18891.288Y754.516Z8147.818A12394.698
X18923.12Y754.565Z8147.813A12400.428
X18954.952Y754.615Z8147.809A12406.158
X18986.783Y754.541Z8147.816A12411.887
X19018.615Y754.59Z8147.811A12417.617
X19050.447Y754.516Z8147.818A12423.346
X19082.279Y754.565Z8147.814A12429.075
X19114.11Y754.615Z8147.809A12434.805
X19145.942Y754.54Z8147.816A12440.534
X19177.774Y754.59Z8147.812A12446.264
X19209.606Y754.515Z8147.818A12451.993
X19241.437Y754.565Z8147.813A12457.723
X19273.269Y754.614Z8147.809A12463.453
X19305.101Y754.539Z8147.817A12469.182
X19336.933Y754.59Z8147.811A12474.912
X19368.764Y754.515Z8147.819A12480.641
X19400.596Y754.565Z8147.815A12486.371
X19432.428Y754.614Z8147.81A12492.101
X19464.26Y754.54Z8147.817A12497.83
X19496.091Y754.589Z8147.812A12503.56
X19527.923Y754.515Z8147.819A12509.289
X19559.755Y754.564Z8147.814A12515.019
X19591.587Y754.614Z8147.809A12520.749
X19623.418Y754.539Z8147.816A12526.478
X19655.25Y754.589Z8147.812A12532.208
X19687.082Y754.515Z8147.82A12537.937
X19718.914Y754.565Z8147.815A12543.667
X19750.745Y754.614Z8147.811A12549.397
X19782.577Y754.54Z8147.817A12555.126
X19814.409Y754.59Z8147.813A12560.856
X19846.24Y754.515Z8147.821A12566.585
X19878.072Y754.565Z8147.817A12572.315
X19909.904Y754.615Z8147.811A12578.045
X19941.736Y754.54Z8147.819A12583.774
X19973.567Y754.59Z8147.813A12589.504
X20005.399Y754.516Z8147.82A12595.233
X20031.831Y773.43Z8155.61A12599.999
X20063.663Y773.479Z8155.605A12605.729
X20095.495Y773.405Z8155.611A12611.458
X20127.326Y773.454Z8155.606A12617.188
X20159.158Y773.504Z8155.603A12622.918
X20190.99Y773.429Z8155.61A12628.647
X20222.822Y773.479Z8155.605A12634.377
X20254.653Y773.404Z8155.611A12640.106
X20286.485Y773.454Z8155.607A12645.836
X20318.317Y773.504Z8155.602A12651.566
X20350.149Y773.428Z8155.61A12657.295
X20381.98Y773.479Z8155.606A12663.025
X20413.812Y773.404Z8155.613A12668.754
X20445.644Y773.454Z8155.61A12674.484
X20477.476Y773.504Z8155.605A12680.214
X20509.307Y773.429Z8155.612A12685.943
X20541.139Y773.479Z8155.608A12691.673
X20572.971Y773.404Z8155.614A12697.402
X20604.803Y773.454Z8155.611A12703.132
X20636.634Y773.504Z8155.606A12708.862
X20668.466Y773.429Z8155.613A12714.591
X20700.298Y773.479Z8155.609A12720.321
X20732.13Y773.404Z8155.616A12726.05
X20763.961Y773.454Z8155.611A12731.78
X20795.793Y773.504Z8155.607A12737.51
X20827.625Y773.43Z8155.613A12743.239
X20859.457Y773.479Z8155.609A12748.969
X20891.288Y773.405Z8155.615A12754.698
X20923.12Y773.455Z8155.611A12760.428
X20954.952Y773.504Z8155.607A12766.158
X20986.783Y773.43Z8155.613A12771.887
X21018.615Y773.479Z8155.609A12777.617
X21050.447Y773.405Z8155.616A12783.346
X21082.279Y773.454Z8155.611A12789.076
X21114.11Y773.504Z8155.606A12794.806
X21145.942Y773.429Z8155.614A12800.535
X21177.774Y773.479Z8155.61A12806.265
X21209.606Y773.405Z8155.616A12811.994
X21241.437Y773.454Z8155.611A12817.724
X21273.269Y773.504Z8155.607A12823.453
X21305.101Y773.429Z8155.614A12829.183
X21336.933Y773.479Z8155.61A12834.912
X21368.764Y773.404Z8155.617A12840.641
X21400.596Y773.453Z8155.612A12846.371
X21432.428Y773.504Z8155.609A12852.101
X21464.26Y773.429Z8155.615A12857.83
X21496.091Y773.478Z8155.61A12863.56
X21527.923Y773.404Z8155.616A12869.289
X21559.755Y773.453Z8155.611A12875.019
X21591.587Y773.503Z8155.607A12880.749
X21623.418Y773.428Z8155.613A12886.478
X21655.25Y773.478Z8155.61A12892.208
X21687.082Y773.404Z8155.617A12897.937
X21718.914Y773.454Z8155.612A12903.667
X21750.745Y773.504Z8155.609A12909.397
X21782.577Y773.429Z8155.615A12915.126
X21814.409Y773.479Z8155.611A12920.856
X21846.24Y773.404Z8155.618A12926.585
X21878.072Y773.454Z8155.614A12932.315
X21909.904Y773.504Z8155.61A12938.045
X21941.736Y773.43Z8155.616A12943.774
X21973.567Y773.479Z8155.611A12949.504
X22005.399Y773.405Z8155.618A12955.233
X22031.831Y792.077Z8163.53A12960
X22063.663Y792.126Z8163.525A12965.729
X22095.495Y792.052Z8163.532A12971.459
X22127.326Y792.101Z8163.527A12977.188
X22159.158Y792.026Z8163.535A12982.917
X22190.99Y792.076Z8163.53A12988.647
X22222.822Y792.126Z8163.524A12994.377
X22254.653Y792.052Z8163.532A13000.106
X22286.485Y792.101Z8163.526A13005.836
X22318.317Y792.027Z8163.534A13011.565
X22350.149Y792.076Z8163.531A13017.295
X22381.98Y792.126Z8163.526A13023.025
X22413.812Y792.052Z8163.534A13028.754
X22445.644Y792.101Z8163.529A13034.484
X22477.476Y792.026Z8163.537A13040.213
X22509.307Y792.076Z8163.532A13045.943
X22541.139Y792.126Z8163.528A13051.673
X22572.971Y792.051Z8163.535A13057.402
X22604.803Y792.101Z8163.53A13063.132
X22636.634Y792.026Z8163.538A13068.861
X22668.466Y792.076Z8163.533A13074.591
X22700.298Y792.126Z8163.528A13080.321
X22732.13Y792.052Z8163.536A13086.05
X22763.961Y792.101Z8163.531A13091.78
X22795.793Y792.027Z8163.537A13097.509
X22827.625Y792.077Z8163.534A13103.239
X22859.457Y792.127Z8163.528A13108.969
X22891.288Y792.052Z8163.536A13114.698
X22923.12Y792.102Z8163.53A13120.428
X22954.952Y792.027Z8163.539A13126.157
X22986.783Y792.077Z8163.533A13131.887
X23018.615Y792.127Z8163.53A13137.617
X23050.447Y792.052Z8163.537A13143.346
X23082.279Y792.102Z8163.532A13149.076
X23114.11Y792.027Z8163.538A13154.805
X23145.942Y792.076Z8163.534A13160.535
X23177.774Y792.127Z8163.53A13166.265
X23209.606Y792.052Z8163.537A13171.994
X23241.437Y792.101Z8163.531A13177.724
X23273.269Y792.026Z8163.538A13183.453
X23305.101Y792.076Z8163.535A13189.183
X23336.933Y792.126Z8163.53A13194.913
X23368.764Y792.052Z8163.537A13200.642
X23400.596Y792.101Z8163.533A13206.372
X23432.428Y792.026Z8163.539A13212.101
X23464.26Y792.076Z8163.535A13217.831
X23496.091Y792.126Z8163.53A13223.56
X23527.923Y792.051Z8163.537A13229.29
X23559.755Y792.101Z8163.532A13235.019
X23591.587Y792.026Z8163.538A13240.749
X23623.418Y792.076Z8163.535A13246.478
X23655.25Y792.126Z8163.53A13252.208
X23687.082Y792.051Z8163.537A13257.937
X23718.914Y792.102Z8163.533A13263.667
X23750.745Y792.027Z8163.54A13269.396
X23782.577Y792.077Z8163.536A13275.126
X23814.409Y792.127Z8163.531A13280.856
X23846.24Y792.052Z8163.538A13286.585
X23878.072Y792.101Z8163.534A13292.315
X23909.904Y792.027Z8163.541A13298.044
X23941.736Y792.077Z8163.537A13303.774
X23973.567Y792.127Z8163.531A13309.504
X24005.399Y792.052Z8163.538A13315.233
X24031.831Y810.48Z8171.565A13320
X24063.663Y810.405Z8171.572A13325.729
X24095.495Y810.455Z8171.567A13331.459
X24127.326Y810.504Z8171.563A13337.189
X24159.158Y810.43Z8171.571A13342.918
X24190.99Y810.479Z8171.566A13348.648
X24222.822Y810.404Z8171.572A13354.377
X24254.653Y810.454Z8171.567A13360.107
X24286.485Y810.504Z8171.563A13365.836
X24318.317Y810.429Z8171.57A13371.566
X24350.149Y810.479Z8171.566A13377.295
X24381.98Y810.405Z8171.574A13383.025
X24413.812Y810.455Z8171.569A13388.754
X24445.644Y810.504Z8171.565A13394.484
X24477.476Y810.43Z8171.573A13400.213
X24509.307Y810.479Z8171.568A13405.943
X24541.139Y810.404Z8171.575A13411.672
X24572.971Y810.454Z8171.571A13417.402
X24604.803Y810.504Z8171.566A13423.132
X24636.634Y810.429Z8171.574A13428.861
X24668.466Y810.479Z8171.568A13434.591
X24700.298Y810.405Z8171.576A13440.32
X24732.13Y810.455Z8171.571A13446.05
X24763.961Y810.505Z8171.566A13451.78
X24795.793Y810.43Z8171.573A13457.509
X24827.625Y810.48Z8171.569A13463.239
X24859.457Y810.405Z8171.576A13468.968
X24891.288Y810.455Z8171.571A13474.698
X24923.12Y810.505Z8171.566A13480.428
X24954.952Y810.43Z8171.575A13486.157
X24986.783Y810.48Z8171.569A13491.887
X25018.615Y810.405Z8171.576A13497.616
X25050.447Y810.455Z8171.571A13503.346
X25082.279Y810.505Z8171.567A13509.076
X25114.11Y810.43Z8171.575A13514.805
X25145.942Y810.48Z8171.569A13520.535
X25177.774Y810.405Z8171.577A13526.264
X25209.606Y810.455Z8171.572A13531.994
X25241.437Y810.504Z8171.566A13537.724
X25273.269Y810.429Z8171.574A13543.453
X25305.101Y810.479Z8171.569A13549.183
X25336.933Y810.405Z8171.578A13554.912
X25368.764Y810.454Z8171.573A13560.642
X25400.596Y810.504Z8171.568A13566.372
X25432.428Y810.429Z8171.576A13572.101
X25464.26Y810.479Z8171.571A13577.831
X25496.091Y810.404Z8171.579A13583.56
X25527.923Y810.454Z8171.571A13589.29
X25559.755Y810.504Z8171.568A13595.02
X25591.587Y810.429Z8171.576A13600.749
X25623.418Y810.479Z8171.57A13606.479
X25655.25Y810.404Z8171.578A13612.208
X25687.082Y810.454Z8171.573A13617.938
X25718.914Y810.504Z8171.568A13623.667
X25750.745Y810.43Z8171.576A13629.397
X25782.577Y810.48Z8171.571A13635.126
X25814.409Y810.405Z8171.578A13640.856
X25846.24Y810.455Z8171.574A13646.585
X25878.072Y810.504Z8171.569A13652.315
X25909.904Y810.43Z8171.577A13658.044
X25941.736Y810.48Z8171.572A13663.774
X25973.567Y810.405Z8171.579A13669.503
X26005.399Y810.455Z8171.574A13675.233
X26031.831Y828.638Z8179.711A13680
X26063.663Y828.563Z8179.718A13685.729
X26095.495Y828.613Z8179.714A13691.459
X26127.326Y828.538Z8179.72A13697.188
X26159.158Y828.588Z8179.716A13702.918
X26190.99Y828.638Z8179.71A13708.648
X26222.822Y828.563Z8179.718A13714.377
X26254.653Y828.613Z8179.713A13720.107
X26286.485Y828.538Z8179.719A13725.836
X26318.317Y828.587Z8179.716A13731.566
X26350.149Y828.637Z8179.712A13737.296
X26381.98Y828.562Z8179.719A13743.025
X26413.812Y828.613Z8179.715A13748.755
X26445.644Y828.538Z8179.722A13754.484
X26477.476Y828.587Z8179.718A13760.214
X26509.307Y828.637Z8179.714A13765.943
X26541.139Y828.562Z8179.72A13771.673
X26572.971Y828.612Z8179.715A13777.402
X26604.803Y828.537Z8179.724A13783.132
X26636.634Y828.587Z8179.718A13788.861
X26668.466Y828.637Z8179.715A13794.591
X26700.298Y828.562Z8179.721A13800.32
X26732.13Y828.612Z8179.717A13806.05
X26763.961Y828.538Z8179.723A13811.779
X26795.793Y828.588Z8179.719A13817.509
X26827.625Y828.638Z8179.714A13823.239
X26859.457Y828.563Z8179.721A13828.968
X26891.288Y828.613Z8179.717A13834.698
X26923.12Y828.538Z8179.724A13840.427
X26954.952Y828.588Z8179.719A13846.157
X26986.783Y828.638Z8179.715A13851.887
X27018.615Y828.563Z8179.722A13857.616
X27050.447Y828.613Z8179.718A13863.346
X27082.279Y828.538Z8179.725A13869.075
X27114.11Y828.588Z8179.72A13874.805
X27145.942Y828.638Z8179.715A13880.535
X27177.774Y828.563Z8179.722A13886.264
X27209.606Y828.613Z8179.718A13891.994
X27241.437Y828.537Z8179.725A13897.723
X27273.269Y828.587Z8179.719A13903.453
X27305.101Y828.636Z8179.716A13909.183
X27336.933Y828.562Z8179.722A13914.912
X27368.764Y828.612Z8179.719A13920.642
X27400.596Y828.537Z8179.726A13926.371
X27432.428Y828.587Z8179.72A13932.101
X27464.26Y828.637Z8179.716A13937.831
X27496.091Y828.562Z8179.723A13943.56
X27527.923Y828.612Z8179.718A13949.29
X27559.755Y828.537Z8179.725A13955.019
X27591.587Y828.587Z8179.72A13960.749
X27623.418Y828.637Z8179.715A13966.479
X27655.25Y828.562Z8179.723A13972.208
X27687.082Y828.612Z8179.718A13977.938
X27718.914Y828.537Z8179.725A13983.667
X27750.745Y828.588Z8179.721A13989.397
X27782.577Y828.637Z8179.717A13995.127
X27814.409Y828.562Z8179.724A14000.856
X27846.24Y828.612Z8179.719A14006.586
X27878.072Y828.537Z8179.727A14012.315
X27909.904Y828.588Z8179.721A14018.045
X27941.736Y828.637Z8179.718A14023.775
X27973.567Y828.562Z8179.723A14029.504
X28005.399Y828.613Z8179.718A14035.233
X28031.831Y846.425Z8187.972A14039.999
X28063.663Y846.475Z8187.966A14045.729
X28095.495Y846.525Z8187.962A14051.459
X28127.326Y846.45Z8187.969A14057.188
X28159.158Y846.5Z8187.964A14062.918
X28190.99Y846.424Z8187.972A14068.647
X28222.822Y846.475Z8187.967A14074.377
X28254.653Y846.525Z8187.961A14080.107
X28286.485Y846.449Z8187.969A14085.836
X28318.317Y846.499Z8187.964A14091.566
X28350.149Y846.425Z8187.973A14097.295
X28381.98Y846.474Z8187.967A14103.025
X28413.812Y846.524Z8187.963A14108.755
X28445.644Y846.45Z8187.971A14114.484
X28477.476Y846.499Z8187.967A14120.214
X28509.307Y846.424Z8187.974A14125.943
X28541.139Y846.474Z8187.969A14131.673
X28572.971Y846.524Z8187.964A14137.403
X28604.803Y846.449Z8187.973A14143.132
X28636.634Y846.499Z8187.968A14148.862
X28668.466Y846.425Z8187.974A14154.591
X28700.298Y846.474Z8187.971A14160.321
X28732.13Y846.525Z8187.965A14166.051
X28763.961Y846.449Z8187.973A14171.78
X28795.793Y846.499Z8187.968A14177.509
X28827.625Y846.425Z8187.975A14183.239
X28859.457Y846.475Z8187.971A14188.968
X28891.288Y846.525Z8187.965A14194.698
X28923.12Y846.45Z8187.973A14200.427
X28954.952Y846.5Z8187.969A14206.157
X28986.783Y846.425Z8187.975A14211.886
X29018.615Y846.475Z8187.972A14217.616
X29050.447Y846.525Z8187.966A14223.346
X29082.279Y846.45Z8187.973A14229.075
X29114.11Y846.5Z8187.969A14234.805
X29145.942Y846.425Z8187.975A14240.534
X29177.774Y846.475Z8187.971A14246.264
X29209.606Y846.525Z8187.966A14251.994
X29241.437Y846.449Z8187.973A14257.723
X29273.269Y846.499Z8187.969A14263.453
X29305.101Y846.424Z8187.976A14269.182
X29336.933Y846.474Z8187.972A14274.912
X29368.764Y846.524Z8187.967A14280.642
X29400.596Y846.449Z8187.974A14286.371
X29432.428Y846.499Z8187.97A14292.101
X29464.26Y846.424Z8187.977A14297.83
X29496.091Y846.474Z8187.972A14303.56
X29527.923Y846.524Z8187.966A14309.29
X29559.755Y846.449Z8187.974A14315.019
X29591.587Y846.499Z8187.969A14320.749
X29623.418Y846.424Z8187.976A14326.478
X29655.25Y846.474Z8187.973A14332.208
X29687.082Y846.524Z8187.967A14337.938
X29718.914Y846.45Z8187.974A14343.667
X29750.745Y846.5Z8187.971A14349.397
X29782.577Y846.425Z8187.977A14355.126
X29814.409Y846.475Z8187.973A14360.856
X29846.24Y846.525Z8187.968A14366.586
X29878.072Y846.45Z8187.976A14372.315
X29909.904Y846.5Z8187.971A14378.045
X29941.736Y846.425Z8187.978A14383.774
X29973.567Y846.475Z8187.973A14389.504
X30005.399Y846.525Z8187.967A14395.234
X30031.831Y864.09Z8196.317A14399.999
X30063.663Y864.14Z8196.312A14405.729
X30095.495Y864.065Z8196.32A14411.458
X30127.326Y864.115Z8196.315A14417.188
X30159.158Y864.165Z8196.31A14422.918
X30190.99Y864.09Z8196.317A14428.647
X30222.822Y864.14Z8196.311A14434.377
X30254.653Y864.065Z8196.32A14440.106
X30286.485Y864.115Z8196.315A14445.836
X30318.317Y864.165Z8196.31A14451.566
X30350.149Y864.089Z8196.318A14457.295
X30381.98Y864.14Z8196.313A14463.025
X30413.812Y864.065Z8196.321A14468.754
X30445.644Y864.115Z8196.317A14474.484
X30477.476Y864.165Z8196.311A14480.214
X30509.307Y864.09Z8196.32A14485.943
X30541.139Y864.14Z8196.314A14491.673
X30572.971Y864.065Z8196.323A14497.402
X30604.803Y864.115Z8196.317A14503.132
X30636.634Y864.165Z8196.312A14508.862
X30668.466Y864.09Z8196.321A14514.591
X30700.298Y864.14Z8196.315A14520.321
X30732.13Y864.065Z8196.324A14526.05
X30763.961Y864.115Z8196.318A14531.78
X30795.793Y864.165Z8196.313A14537.51
X30827.625Y864.09Z8196.321A14543.239
X30859.457Y864.141Z8196.315A14548.969
X30891.288Y864.066Z8196.324A14554.698
X30923.12Y864.115Z8196.318A14560.428
X30954.952Y864.165Z8196.313A14566.158
X30986.783Y864.09Z8196.321A14571.887
X31018.615Y864.14Z8196.315A14577.617
X31050.447Y864.065Z8196.324A14583.346
X31082.279Y864.115Z8196.319A14589.075
X31114.11Y864.165Z8196.313A14594.805
X31145.942Y864.09Z8196.321A14600.534
X31177.774Y864.14Z8196.317A14606.264
X31209.606Y864.065Z8196.325A14611.993
X31241.437Y864.114Z8196.319A14617.723
X31273.269Y864.165Z8196.314A14623.453
X31305.101Y864.089Z8196.323A14629.182
X31336.933Y864.14Z8196.317A14634.912
X31368.764Y864.064Z8196.325A14640.641
X31400.596Y864.114Z8196.32A14646.371
X31432.428Y864.164Z8196.315A14652.101
X31464.26Y864.089Z8196.322A14657.83
X31496.091Y864.139Z8196.318A14663.56
X31527.923Y864.064Z8196.325A14669.289
X31559.755Y864.114Z8196.319A14675.019
X31591.587Y864.164Z8196.314A14680.749
X31623.418Y864.214Z8196.309A14686.479
X31655.25Y864.015Z8196.331A14692.207
X31687.082Y864.064Z8196.326A14697.937
X31718.914Y864.115Z8196.32A14703.667
X31750.745Y864.165Z8196.315A14709.397
X31782.577Y864.215Z8196.31A14715.127
X31814.409Y864.016Z8196.331A14720.855
X31846.24Y864.065Z8196.327A14726.585
X31878.072Y864.115Z8196.321A14732.315
X31909.904Y864.165Z8196.316A14738.045
X31941.736Y864.215Z8196.311A14743.775
X31973.567Y864.016Z8196.331A14749.503
X32005.397Y864.066Z8196.326A14755.233
X32031.829Y881.509Z8204.754A14759.999
X32063.659Y881.559Z8204.749A14765.729
X32095.489Y881.609Z8204.744A14771.459
X32127.319Y881.409Z8204.765A14777.187
X32159.149Y881.459Z8204.759A14782.917
X32190.979Y881.509Z8204.754A14788.647
X32222.808Y881.559Z8204.749A14794.377
X32254.638Y881.609Z8204.744A14800.107
X32286.468Y881.408Z8204.765A14805.835
X32318.298Y881.458Z8204.759A14811.565
X32350.128Y881.508Z8204.754A14817.295
X32381.958Y881.558Z8204.75A14823.025
X32413.787Y881.609Z8204.745A14828.755
X32445.617Y881.409Z8204.767A14834.483
X32477.447Y881.458Z8204.762A14840.213
X32509.277Y881.509Z8204.756A14845.943
X32541.107Y881.559Z8204.751A14851.673
X32572.937Y881.608Z8204.746A14857.403
X32604.766Y881.408Z8204.769A14863.131
X32636.596Y881.458Z8204.763A14868.861
X32668.426Y881.508Z8204.757A14874.591
X32700.256Y881.559Z8204.751A14880.321
X32732.086Y881.609Z8204.747A14886.051
X32763.916Y881.408Z8204.769A14891.779
X32795.745Y881.458Z8204.763A14897.509
X32827.575Y881.509Z8204.757A14903.239
X32859.405Y881.559Z8204.751A14908.969
X32891.235Y881.609Z8204.747A14914.699
X32923.065Y881.409Z8204.769A14920.427
X32954.895Y881.459Z8204.764A14926.157
X32986.724Y881.509Z8204.757A14931.887
X33018.554Y881.559Z8204.753A14937.617
X33050.384Y881.609Z8204.748A14943.347
X33082.214Y881.409Z8204.769A14949.075
X33114.044Y881.459Z8204.763A14954.805
X33145.874Y881.509Z8204.758A14960.535
X33177.703Y881.559Z8204.752A14966.265
X33209.533Y881.609Z8204.748A14971.994
X33241.363Y881.408Z8204.769A14977.723
X33273.193Y881.458Z8204.764A14983.453
X33305.023Y881.508Z8204.759A14989.183
X33336.853Y881.558Z8204.753A14994.912
X33368.682Y881.608Z8204.749A15000.642
X33400.512Y881.408Z8204.771A15006.371
X33432.342Y881.458Z8204.765A15012.1
X33464.172Y881.508Z8204.759A15017.83
X33496.002Y881.558Z8204.753A15023.56
X33527.832Y881.608Z8204.748A15029.29
X33559.661Y881.408Z8204.77A15035.018
X33591.491Y881.458Z8204.764A15040.748
X33623.321Y881.508Z8204.759A15046.478
X33655.151Y881.558Z8204.753A15052.208
X33686.981Y881.609Z8204.748A15057.938
X33718.811Y881.408Z8204.77A15063.666
X33750.64Y881.459Z8204.766A15069.396
X33782.47Y881.508Z8204.76A15075.126
X33814.3Y881.559Z8204.754A15080.856
X33846.13Y881.609Z8204.75A15086.586
X33877.96Y881.408Z8204.771A15092.314
X33909.79Y881.459Z8204.766A15098.044
X33941.619Y881.509Z8204.76A15103.774
X33973.449Y881.559Z8204.754A15109.504
X34005.279Y881.609Z8204.749A15115.234
X34031.829Y898.555Z8213.289A15119.999
X34063.659Y898.605Z8213.283A15125.729
X34095.489Y898.655Z8213.278A15131.459
X34127.319Y898.705Z8213.272A15137.188
X34159.149Y898.755Z8213.268A15142.918
X34190.979Y898.555Z8213.289A15148.647
X34222.808Y898.605Z8213.283A15154.376
X34254.638Y898.655Z8213.278A15160.106
X34286.468Y898.705Z8213.272A15165.836
X34318.298Y898.755Z8213.267A15171.566
X34350.128Y898.554Z8213.289A15177.294
X34381.958Y898.604Z8213.285A15183.024
X34413.787Y898.655Z8213.279A15188.754
X34445.617Y898.705Z8213.274A15194.484
X34477.447Y898.755Z8213.269A15200.214
X34509.277Y898.554Z8213.293A15205.942
X34541.107Y898.604Z8213.287A15211.672
X34572.937Y898.654Z8213.28A15217.402
X34604.766Y898.705Z8213.275A15223.132
X34636.596Y898.755Z8213.271A15228.862
X34668.426Y898.555Z8213.293A15234.59
X34700.256Y898.605Z8213.287A15240.32
X34732.086Y898.655Z8213.281A15246.05
X34763.916Y898.705Z8213.276A15251.78
X34795.745Y898.755Z8213.271A15257.51
X34827.575Y898.555Z8213.294A15263.238
X34859.405Y898.605Z8213.287A15268.968
X34891.235Y898.656Z8213.281A15274.698
X34923.065Y898.705Z8213.276A15280.428
X34954.895Y898.755Z8213.272A15286.158
X34986.724Y898.555Z8213.293A15291.886
X35018.554Y898.605Z8213.288A15297.616
X35050.384Y898.655Z8213.282A15303.346
X35082.214Y898.706Z8213.277A15309.076
X35114.044Y898.755Z8213.271A15314.806
X35145.874Y898.555Z8213.293A15320.534
X35177.703Y898.605Z8213.288A15326.264
X35209.533Y898.655Z8213.282A15331.994
X35241.363Y898.705Z8213.276A15337.724
X35273.193Y898.754Z8213.272A15343.454
X35305.023Y898.554Z8213.294A15349.182
X35336.853Y898.605Z8213.288A15354.912
X35368.682Y898.655Z8213.283A15360.642
X35400.512Y898.705Z8213.278A15366.372
X35432.342Y898.755Z8213.272A15372.101
X35464.172Y898.554Z8213.294A15377.83
X35496.002Y898.604Z8213.289A15383.56
X35527.832Y898.654Z8213.283A15389.29
X35559.661Y898.704Z8213.277A15395.019
X35591.491Y898.754Z8213.272A15400.749
X35623.321Y898.554Z8213.294A15406.478
X35655.151Y898.604Z8213.289A15412.207
X35686.981Y898.655Z8213.283A15417.937
X35718.811Y898.705Z8213.277A15423.667
X35750.64Y898.755Z8213.274A15429.397
X35782.47Y898.554Z8213.294A15435.125
X35814.3Y898.605Z8213.29A15440.855
X35846.13Y898.655Z8213.285A15446.585
X35877.96Y898.705Z8213.279A15452.315
X35909.79Y898.756Z8213.274A15458.045
X35941.619Y898.555Z8213.294A15463.773
X35973.449Y898.605Z8213.29A15469.503
X36005.279Y898.655Z8213.283A15475.233
X36031.829Y915.604Z8221.875A15480
X36063.659Y915.654Z8221.869A15485.73
X36095.489Y915.454Z8221.891A15491.458
X36127.319Y915.504Z8221.887A15497.188
X36159.149Y915.554Z8221.88A15502.918
X36190.979Y915.604Z8221.875A15508.648
X36222.808Y915.654Z8221.87A15514.378
X36254.638Y915.453Z8221.892A15520.106
X36286.468Y915.503Z8221.885A15525.836
X36318.298Y915.554Z8221.881A15531.566
X36350.128Y915.604Z8221.876A15537.295
X36381.958Y915.654Z8221.87A15543.025
X36413.787Y915.453Z8221.893A15548.754
X36445.617Y915.504Z8221.888A15554.483
X36477.447Y915.553Z8221.883A15560.213
X36509.277Y915.604Z8221.879A15565.943
X36541.107Y915.654Z8221.872A15571.673
X36572.937Y915.453Z8221.895A15577.401
X36604.766Y915.503Z8221.89A15583.131
X36636.596Y915.553Z8221.884A15588.861
X36668.426Y915.604Z8221.879A15594.591
X36700.256Y915.654Z8221.873A15600.321
X36732.086Y915.453Z8221.896A15606.049
X36763.916Y915.503Z8221.89A15611.779
X36795.745Y915.554Z8221.885A15617.509
X36827.575Y915.604Z8221.879A15623.239
X36859.405Y915.654Z8221.874A15628.969
X36891.235Y915.453Z8221.895A15634.697
X36923.065Y915.504Z8221.89A15640.427
X36954.895Y915.554Z8221.885A15646.157
X36986.724Y915.604Z8221.879A15651.887
X37018.554Y915.654Z8221.874A15657.617
X37050.384Y915.454Z8221.896A15663.345
X37082.214Y915.504Z8221.89A15669.075
X37114.044Y915.554Z8221.884A15674.805
X37145.874Y915.604Z8221.879A15680.535
X37177.703Y915.654Z8221.874A15686.265
X37209.533Y915.453Z8221.897A15691.993
X37241.363Y915.503Z8221.89A15697.723
X37273.193Y915.553Z8221.885A15703.453
X37305.023Y915.604Z8221.879A15709.183
X37336.853Y915.654Z8221.874A15714.913
X37368.682Y915.453Z8221.898A15720.641
X37400.512Y915.503Z8221.892A15726.371
X37432.342Y915.553Z8221.886A15732.101
X37464.172Y915.603Z8221.879A15737.831
X37496.002Y915.654Z8221.875A15743.561
X37527.832Y915.453Z8221.897A15749.289
X37559.661Y915.503Z8221.891A15755.019
X37591.491Y915.553Z8221.886A15760.749
X37623.321Y915.603Z8221.879A15766.479
X37655.151Y915.653Z8221.875A15772.209
X37686.981Y915.453Z8221.898A15777.937
X37718.811Y915.504Z8221.891A15783.667
X37750.64Y915.554Z8221.887A15789.397
X37782.47Y915.604Z8221.881A15795.126
X37814.3Y915.654Z8221.876A15800.856
X37846.13Y915.453Z8221.899A15806.585
X37877.96Y915.503Z8221.893A15812.315
X37909.79Y915.554Z8221.887A15818.044
X37941.619Y915.604Z8221.881A15823.774
X37973.449Y915.654Z8221.876A15829.504
X38005.279Y915.454Z8221.899A15835.232
X38031.829Y932.156Z8230.563A15839.999
X38063.659Y932.206Z8230.557A15845.729
X38095.489Y932.256Z8230.551A15851.459
X38127.319Y932.306Z8230.545A15857.189
X38159.149Y932.357Z8230.541A15862.919
X38190.979Y932.156Z8230.563A15868.647
X38222.808Y932.206Z8230.556A15874.377
X38254.638Y932.256Z8230.55A15880.107
X38286.468Y932.306Z8230.545A15885.837
X38318.298Y932.357Z8230.54A15891.567
X38350.128Y932.155Z8230.564A15897.295
X38381.958Y932.206Z8230.558A15903.025
X38413.787Y932.256Z8230.553A15908.755
X38445.617Y932.306Z8230.547A15914.485
X38477.447Y932.356Z8230.543A15920.214
X38509.277Y932.155Z8230.566A15925.943
X38541.107Y932.205Z8230.56A15931.673
X38572.937Y932.256Z8230.554A15937.402
X38604.766Y932.306Z8230.548A15943.132
X38636.596Y932.356Z8230.544A15948.862
X38668.426Y932.156Z8230.566A15954.591
X38700.256Y932.205Z8230.56A15960.32
X38732.086Y932.256Z8230.555A15966.05
X38763.916Y932.306Z8230.549A15971.78
X38795.745Y932.356Z8230.544A15977.51
X38827.575Y932.156Z8230.566A15983.238
X38859.405Y932.207Z8230.56A15988.968
X38891.235Y932.257Z8230.554A15994.698
X38923.065Y932.307Z8230.548A16000.428
X38954.895Y932.357Z8230.545A16006.158
X38986.724Y932.156Z8230.566A16011.886
X39018.554Y932.206Z8230.561A16017.616
X39050.384Y932.256Z8230.555A16023.346
X39082.214Y932.307Z8230.549A16029.076
X39114.044Y932.357Z8230.544A16034.806
X39145.874Y932.155Z8230.566A16040.534
X39177.703Y932.206Z8230.562A16046.264
X39209.533Y932.256Z8230.555A16051.994
X39241.363Y932.306Z8230.549A16057.724
X39273.193Y932.356Z8230.545A16063.454
X39305.023Y932.155Z8230.567A16069.182
X39336.853Y932.205Z8230.562A16074.912
X39368.682Y932.255Z8230.556A16080.642
X39400.512Y932.306Z8230.551A16086.372
X39432.342Y932.356Z8230.545A16092.102
X39464.172Y932.155Z8230.567A16097.83
X39496.002Y932.205Z8230.562A16103.56
X39527.832Y932.255Z8230.556A16109.29
