(Created with emc2b post processor 2025/11/12 23:49)
G21
(G-code Generated with BlenderCAM and NC library)
G17 G90
T1 M06
(Tool: D = 6000.0 mm  type END flutes 4)
S12000 M03
G00 Z5000.0

G00 X-49968.17 Y0 Z10000
G01 Z8000 F50000
G00 X-49936.34 A5.729
X-49904.51 A11.459
X-49872.68 A17.188
X-49840.85 A22.918
X-49809.02 A28.647
X-49777.191 A34.377
X-49745.361 Y-0 A40.107
X-49713.531 Y0 Z7999.999 A45.836
X-49681.701 Y-0 Z8000 A51.566
X-49649.871 Y0 A57.295
X-49618.041 A63.025
X-49586.212 A68.754
X-49554.382 Y-0 Z8000.001 A74.484
X-49522.552 Z8000.002 A80.214
X-49518.413 Y-25.853 Z7994.52 A80.958
X-49490.718 Y-0 Z10000.001 A85.943
X-49458.892 Z10000.002 A91.673
X-49427.062 Y0 A97.402
X-49395.233 Y-0.001 Z10000.003 A103.132
X-49363.403 Y-0 Z10000.002 A108.861
X-49331.573 Y0 Z10000.003 A114.591
G01 X-49299.743 Y-0.002 Z8437.893 A120.321
X-49293.235 Y34.933 Z7994.529 A121.492
G00 X-49267.913 Y0 Z8000.003 A126.05
X-49236.083 Y-0.001 A131.78
X-49204.254 Y0 A137.509
X-49172.424 A143.239
X-49140.594 A148.969
X-49108.764 A154.698
X-49076.934 A160.428
X-49045.104 A166.157
X-49013.275 A171.887
X-48981.445 Y-0 Z8000.004 A177.616
X-48949.615 Y0 A183.346
X-48917.785 Y-0 A189.076
X-48885.955 Y0 Z8000.003 A194.805
X-48854.125 A200.535
X-48822.296 Z8000.004 A206.264
X-48790.466 A211.994
X-48758.636 Y-0.001 A217.723
X-48726.806 Y0 A223.453
X-48694.976 Y-0.001 A229.183
X-48663.146 A234.912
X-48631.317 Y-0.002 Z8000.005 A240.642
X-48599.487 Y0 A246.371
X-48567.657 A252.101
X-48535.827 Y-0.001 A257.831
X-48520.092 Y-98.809 Z7989.953 A260.662
X-48503.993 Y-0.002 Z10000.004 A263.56
X-48472.167 Y-0.003 Z10000.003 A269.29
X-48440.338 Y0 A275.019
X-48408.508 Y-0 Z10000.002 A280.749
X-48376.678 Y-0.001 Z10000.005 A286.478
X-48344.848 Y-0.002 Z10000.004 A292.208
G01 X-48313.018 Z8275.022 A297.938
X-48309.238 Y24.312 Z7996.743 A298.618
G00 X-48281.188 Y0.001 Z8000.005 A303.667
X-48249.359 Y0 A309.397
X-48217.529 A315.126
X-48185.699 Y-0.001 A320.856
X-48153.869 Z8000.006 A326.585
X-48122.039 Y0.001 A332.315
X-48090.209 Y0 A338.045
X-48058.38 A343.774
X-48026.55 Y-0 Z8000.005 A349.504
X-47994.72 Y-0.001 A355.233
X-47968.17 Y24.019 Z8000.144 A360
X-47936.34 A365.729
X-47904.51 Y24.018 A371.459
X-47872.68 Y24.017 A377.188
X-47840.85 Y24.016 A382.918
X-47809.02 Y24.019 A388.647
X-47777.191 Y24.018 A394.377
X-47745.361 Y24.017 A400.107
X-47713.531 A405.836
X-47681.701 Y24.016 A411.566
X-47649.871 Y24.019 A417.295
X-47618.041 Y24.018 A423.025
X-47586.212 Z8000.145 A428.754
X-47554.382 Y24.017 A434.484
X-47522.552 Y24.016 Z8000.146 A440.214
X-47490.722 Y24.019 A445.943
X-47471.401 Y-61.565 Z7990.494 A449.421
X-47458.892 Y7.095 Z9409.17 A451.673
X-47427.062 Y-0 Z10000.002 A457.402
X-47395.233 Y-0.002 A463.132
X-47363.403 Y0.001 Z10000.003 A468.861
G01 X-47347.553 Y124.344 Z7991.374 A471.715
G00 X-47331.573 Y24.015 Z8000.147 A474.591
X-47299.743 Y24.018 Z8000.146 A480.321
X-47267.913 Y24.022 Z8000.147 A486.05
X-47236.083 Y24.016 A491.78
X-47204.254 Y24.02 Z8000.148 A497.509
X-47172.424 Y24.016 Z8000.147 A503.239
X-47140.594 Y24.018 Z8000.146 A508.969
X-47108.764 Y24.022 Z8000.147 A514.698
X-47076.934 Y24.017 A520.428
X-47045.104 Y24.02 Z8000.148 A526.157
X-47013.275 Y24.016 Z8000.147 A531.887
X-46981.445 Y24.019 Z8000.148 A537.616
X-46949.615 Y24.021 A543.346
X-46917.785 Y24.017 A549.076
X-46885.955 Y24.02 A554.805
X-46854.125 Y24.015 Z8000.147 A560.535
X-46822.296 Y24.019 Z8000.148 A566.264
X-46790.466 Y24.022 A571.994
X-46758.636 Y24.017 A577.723
X-46726.806 Y24.019 A583.453
X-46694.976 Y24.015 A589.183
X-46663.146 Y24.018 A594.912
X-46631.317 Y24.021 Z8000.149 A600.642
X-46599.487 Y24.016 A606.371
X-46567.657 Y24.019 A612.101
X-46535.827 Y24.014 A617.83
X-46503.997 Y24.018 A623.56
X-46472.167 Y24.021 Z8000.148 A629.29
X-46440.338 Y24.016 Z8000.149 A635.019
X-46408.508 Y24.019 A640.749
X-46376.678 Y24.014 Z8000.148 A646.478
X-46344.848 Y24.018 A652.208
X-46313.018 Y24.021 Z8000.149 A657.938
X-46281.188 Y24.017 A663.667
X-46249.359 Y24.02 Z8000.15 A669.397
X-46217.529 Y24.015 A675.126
X-46185.699 Y24.018 A680.856
X-46153.869 Y24.021 A686.585
X-46122.039 Y24.016 A692.315
X-46090.209 Y24.02 Z8000.151 A698.045
X-46058.38 Y24.015 Z8000.15 A703.774
X-46026.55 Y24.019 Z8000.149 A709.504
X-45994.72 Y24.021 A715.233
X-45968.17 Y48.025 Z8000.576 A720
X-45936.34 Y48.021 A725.729
X-45904.51 Y48.024 A731.459
X-45872.68 Y48.019 A737.188
X-45840.85 Y48.022 A742.918
X-45809.02 Y48.025 A748.647
X-45777.191 Y48.021 A754.377
X-45745.361 Y48.024 A760.107
X-45713.531 Y48.019 A765.836
X-45681.701 Y48.022 A771.566
X-45649.871 Y48.025 Z8000.577 A777.295
X-45618.041 Y48.021 A783.025
X-45586.212 Y48.023 A788.754
X-45554.382 Y48.019 Z8000.578 A794.484
X-45522.552 Y48.022 A800.214
X-45490.722 Y48.025 A805.943
X-45458.892 Y48.02 A811.673
X-45427.062 Y48.023 A817.402
X-45395.233 Y48.019 Z8000.58 A823.132
X-45363.403 Y48.022 A828.861
X-45331.573 Y48.025 A834.591
X-45299.743 Y48.021 Z8000.579 A840.321
X-45267.913 Y48.024 A846.05
X-45236.083 Y48.019 Z8000.58 A851.78
X-45204.254 Y48.022 A857.509
X-45172.424 Y48.025 A863.239
X-45140.594 Y48.021 Z8000.579 A868.969
X-45108.764 Y48.024 Z8000.58 A874.698
X-45076.934 Y48.019 Z8000.579 A880.428
X-45045.104 Y48.022 Z8000.581 A886.157
X-45013.275 Y48.026 Z8000.58 A891.887
X-44981.445 Y48.021 A897.616
X-44949.615 Y48.024 A903.346
X-44917.785 Y48.019 A909.076
X-44885.955 Y48.022 A914.805
X-44854.125 Y48.018 Z8000.581 A920.535
X-44822.296 Y48.021 Z8000.58 A926.264
X-44790.466 Y48.024 Z8000.581 A931.994
X-44758.636 Y48.026 Z8000.58 A937.723
X-44726.806 Y48.03 Z8000.581 A943.453
X-44694.976 Y48.017 A949.183
X-44663.146 Y48.02 A954.912
X-44631.317 Y48.023 A960.642
X-44599.487 Y48.026 A966.371
X-44567.657 Y48.029 A972.101
X-44535.827 Y48.017 Z8000.582 A977.83
X-44503.997 Y48.02 Z8000.581 A983.56
X-44472.167 Y48.023 Z8000.58 A989.29
X-44440.338 Y48.026 Z8000.581 A995.019
X-44408.508 Y48.029 A1000.749
X-44376.678 Y48.017 A1006.478
X-44344.848 Y48.02 A1012.208
X-44313.018 Y48.024 A1017.938
X-44281.188 Y48.027 A1023.667
X-44249.359 Y48.03 A1029.397
X-44217.529 Y48.018 Z8000.582 A1035.126
X-44185.699 Y48.021 A1040.856
X-44153.869 Y48.024 A1046.585
X-44122.039 Y48.027 Z8000.583 A1052.315
X-44090.209 Y48.03 A1058.045
X-44058.38 Y48.018 Z8000.582 A1063.774
X-44026.55 Y48.021 A1069.504
X-43994.72 Y48.024 Z8000.581 A1075.233
X-43968.17 Y72.004 Z8001.296 A1080
X-43936.34 Y72.007 A1085.729
X-43904.51 Y72.01 A1091.459
X-43872.68 Y71.997 A1097.188
X-43840.85 Y72.001 A1102.918
X-43809.02 Y72.003 A1108.647
X-43777.191 Y72.006 A1114.377
X-43745.361 Y72.01 A1120.107
X-43713.531 Y71.997 A1125.836
X-43681.701 Y72 A1131.566
X-43649.871 Y72.003 A1137.295
X-43618.041 Y72.006 Z8001.297 A1143.025
X-43586.212 Y72.01 A1148.754
X-43554.382 Y71.997 Z8001.298 A1154.484
X-43522.552 Y72 A1160.214
X-43490.722 Y72.003 Z8001.299 A1165.943
X-43458.892 Y72.006 A1171.673
X-43427.062 Y72.009 Z8001.298 A1177.402
X-43395.233 Y71.997 Z8001.299 A1183.132
X-43363.403 Y72 A1188.861
X-43331.573 Y72.003 A1194.591
X-43299.743 Y72.006 A1200.321
X-43267.913 Y72.009 A1206.05
X-43236.083 Y71.998 A1211.78
X-43204.254 Y72 Z8001.3 A1217.509
X-43172.424 Y72.004 A1223.239
X-43140.594 Y72.006 A1228.969
X-43108.764 Y72.01 Z8001.299 A1234.698
X-43076.934 Y71.998 A1240.428
X-43045.104 Y72.001 Z8001.301 A1246.157
X-43013.275 Y72.004 Z8001.299 A1251.887
X-42981.445 Y72.007 Z8001.301 A1257.616
X-42949.615 Y72.01 Z8001.3 A1263.346
X-42917.785 Y71.998 A1269.076
X-42885.955 Y72.001 A1274.805
X-42854.125 Y72.004 A1280.535
X-42822.296 Y72.007 A1286.264
X-42790.466 Y72.01 A1291.994
X-42758.636 Y71.997 A1297.723
X-42726.806 Y72 A1303.453
X-42694.976 Y72.003 A1309.183
X-42663.146 Y72.006 Z8001.301 A1314.912
X-42631.317 Y72.009 Z8001.302 A1320.642
X-42599.487 Y71.996 Z8001.301 A1326.371
X-42567.657 Y72 Z8001.302 A1332.101
X-42535.827 Y72.003 Z8001.301 A1337.831
X-42503.997 Y72.006 A1343.56
X-42472.167 Y72.009 Z8001.3 A1349.29
X-42440.338 Y71.997 Z8001.301 A1355.019
X-42408.508 Y71.999 A1360.749
X-42376.678 Y72.002 Z8001.3 A1366.478
X-42344.848 Y72.006 Z8001.301 A1372.208
X-42313.018 Y72.009 A1377.938
X-42281.188 Y71.997 A1383.667
X-42249.359 Y72 Z8001.302 A1389.397
X-42217.529 Y72.003 A1395.126
X-42185.699 Y72.007 A1400.856
X-42153.869 Y72.009 A1406.585
X-42122.039 Y71.997 Z8001.303 A1412.315
X-42090.209 Y72 Z8001.302 A1418.045
X-42058.38 Y72.004 A1423.774
X-42026.55 Y72.007 A1429.504
X-41994.72 Y72.01 Z8001.301 A1435.233
X-41968.17 Y95.955 Z8002.303 A1440
X-41936.34 Y95.943 A1445.729
X-41904.51 Y95.946 A1451.459
X-41872.68 Y95.949 A1457.188
X-41840.85 Y95.952 A1462.918
X-41809.02 Y95.955 A1468.647
X-41777.191 Y95.942 A1474.377
X-41745.361 Y95.946 A1480.107
X-41713.531 Y95.948 A1485.836
X-41681.701 Y95.952 A1491.566
X-41649.871 Y95.954 Z8002.304 A1497.295
X-41618.041 Y95.942 A1503.025
X-41586.212 Y95.945 Z8002.305 A1508.754
X-41554.382 Y95.949 A1514.484
X-41522.552 Y95.952 A1520.214
X-41490.722 Y95.955 A1525.943
X-41458.892 Y95.942 A1531.673
X-41427.062 Y95.945 A1537.402
X-41395.233 Y95.948 A1543.132
X-41363.403 Y95.952 A1548.861
X-41331.573 Y95.955 Z8002.306 A1554.591
X-41299.743 Y95.942 A1560.321
X-41267.913 Y95.946 Z8002.305 A1566.05
X-41236.083 Y95.949 Z8002.306 A1571.78
X-41204.254 Y95.951 A1577.509
X-41172.424 Y95.955 Z8002.305 A1583.239
X-41140.594 Y95.943 A1588.968
X-41108.764 Y95.946 Z8002.306 A1594.698
X-41076.934 Y95.949 Z8002.305 A1600.428
X-41045.104 Y95.952 Z8002.306 A1606.157
X-41013.275 Y95.955 A1611.887
X-40981.445 Y95.943 Z8002.307 A1617.616
X-40949.615 Y95.946 A1623.346
X-40917.785 Y95.949 A1629.076
X-40885.955 Y95.952 Z8002.306 A1634.805
X-40854.125 Y95.955 A1640.535
X-40822.296 Y95.943 Z8002.307 A1646.264
X-40790.466 Y95.946 Z8002.306 A1651.994
X-40758.636 Y95.948 A1657.723
X-40726.806 Y95.952 Z8002.307 A1663.453
X-40694.976 Y95.955 A1669.183
X-40663.146 Y95.942 A1674.912
X-40631.317 Y95.945 Z8002.308 A1680.642
X-40599.487 Y95.948 Z8002.307 A1686.371
X-40567.657 Y95.951 A1692.101
X-40535.827 Y95.954 A1697.831
X-40503.997 Y95.942 Z8002.308 A1703.56
X-40472.167 Y95.945 Z8002.306 A1709.29
X-40440.338 Y95.948 Z8002.307 A1715.019
X-40408.508 Y95.951 A1720.749
X-40376.678 Y95.954 A1726.478
X-40344.848 Y95.942 A1732.208
X-40313.018 Y95.946 Z8002.308 A1737.938
X-40281.188 Y95.949 A1743.667
X-40249.359 Y95.953 A1749.397
X-40217.529 Y95.955 A1755.126
X-40185.699 Y95.943 A1760.856
X-40153.869 Y95.946 Z8002.309 A1766.585
X-40122.039 Y95.949 A1772.315
X-40090.209 Y95.952 A1778.045
X-40058.38 Y95.955 A1783.774
X-40026.55 Y95.943 Z8002.308 A1789.504
X-39994.72 Y95.946 A1795.233
X-39968.17 Y119.847 Z8003.594 A1799.999
X-39936.34 Y119.85 A1805.729
X-39904.51 Y119.853 A1811.459
X-39872.68 Y119.856 A1817.188
X-39840.85 Y119.844 A1822.918
X-39809.02 Y119.847 Z8003.595 A1828.647
X-39777.191 Y119.849 Z8003.594 A1834.377
X-39745.361 Y119.837 A1840.106
X-39713.531 Y119.856 A1845.836
X-39681.701 Y119.843 A1851.566
X-39649.871 Y119.862 Z8003.595 A1857.295
X-39618.041 Y119.849 A1863.025
X-39586.212 Y119.837 Z8003.596 A1868.754
X-39554.382 Y119.855 Z8003.595 A1874.484
X-39522.552 Y119.843 Z8003.596 A1880.214
X-39490.722 Y119.861 A1885.943
X-39458.892 Y119.849 A1891.673
X-39427.062 Y119.837 Z8003.597 A1897.402
X-39395.233 Y119.855 Z8003.598 A1903.132
X-39363.403 Y119.843 A1908.861
X-39331.573 Y119.862 A1914.591
X-39299.743 Y119.849 Z8003.597 A1920.321
X-39267.913 Y119.837 Z8003.598 A1926.05
X-39236.083 Y119.856 A1931.78
X-39204.254 Y119.843 A1937.509
X-39172.424 Y119.863 Z8003.597 A1943.239
X-39140.594 Y119.85 A1948.969
X-39108.764 Y119.838 Z8003.598 A1954.698
X-39076.934 Y119.856 A1960.428
X-39045.104 Y119.844 Z8003.599 A1966.157
X-39013.275 Y119.862 Z8003.598 A1971.887
X-38981.445 Y119.85 Z8003.599 A1977.616
X-38949.615 Y119.838 A1983.346
X-38917.785 Y119.856 Z8003.598 A1989.076
X-38885.955 Y119.844 Z8003.599 A1994.805
X-38854.125 Y119.862 Z8003.598 A2000.535
X-38822.296 Y119.85 Z8003.599 A2006.264
X-38790.466 Y119.837 A2011.994
X-38758.636 Y119.855 A2017.723
X-38726.806 Y119.843 A2023.453
X-38694.976 Y119.862 A2029.183
X-38663.146 Y119.849 A2034.912
X-38631.317 Y119.837 Z8003.6 A2040.642
X-38599.487 Y119.855 A2046.371
X-38567.657 Y119.843 A2052.101
X-38535.827 Y119.861 Z8003.599 A2057.831
X-38503.997 Y119.849 A2063.56
X-38472.167 Y119.837 A2069.29
X-38440.338 Y119.855 A2075.019
X-38408.508 Y119.843 A2080.749
X-38376.678 Y119.861 Z8003.598 A2086.478
X-38344.848 Y119.849 Z8003.599 A2092.208
X-38313.018 Y119.837 Z8003.6 A2097.937
X-38281.188 Y119.856 Z8003.599 A2103.667
X-38249.359 Y119.843 Z8003.601 A2109.397
X-38217.529 Y119.863 Z8003.6 A2115.126
X-38185.699 Y119.85 A2120.856
X-38153.869 Y119.838 Z8003.601 A2126.585
X-38122.039 Y119.856 A2132.315
X-38090.209 Y119.844 A2138.045
X-38058.38 Y119.862 A2143.774
X-38026.55 Y119.85 Z8003.6 A2149.504
X-37994.72 Y119.838 A2155.233
X-37968.17 Y143.699 Z8005.168 A2160
X-37936.34 Y143.687 Z8005.169 A2165.729
X-37904.51 Y143.705 Z8005.168 A2171.459
X-37872.68 Y143.692 A2177.188
X-37840.85 Y143.711 Z8005.169 A2182.918
X-37809.02 Y143.699 Z8005.168 A2188.647
X-37777.191 Y143.687 A2194.377
X-37745.361 Y143.705 A2200.107
X-37713.531 Y143.693 A2205.836
X-37681.701 Y143.711 A2211.566
X-37649.871 Y143.699 Z8005.169 A2217.295
X-37618.041 Y143.686 Z8005.17 A2223.025
X-37586.212 Y143.705 Z8005.169 A2228.754
X-37554.382 Y143.693 Z8005.17 A2234.484
X-37522.552 Y143.711 Z8005.171 A2240.214
X-37490.722 Y143.699 A2245.943
X-37458.892 Y143.686 Z8005.172 A2251.673
X-37427.062 Y143.705 Z8005.171 A2257.402
X-37395.233 Y143.692 Z8005.172 A2263.132
X-37363.403 Y143.711 A2268.862
X-37331.573 Y143.699 A2274.591
X-37299.743 Y143.686 A2280.321
X-37267.913 Y143.706 A2286.05
X-37236.083 Y143.693 A2291.78
X-37204.254 Y143.711 A2297.509
X-37172.424 Y143.699 A2303.239
X-37140.594 Y143.687 A2308.968
X-37108.764 Y143.706 A2314.698
X-37076.934 Y143.693 A2320.428
X-37045.104 Y143.711 Z8005.173 A2326.157
X-37013.275 Y143.699 Z8005.172 A2331.887
X-36981.445 Y143.687 Z8005.173 A2337.616
X-36949.615 Y143.705 A2343.346
X-36917.785 Y143.693 Z8005.172 A2349.076
X-36885.955 Y143.711 A2354.805
X-36854.125 Y143.699 A2360.535
X-36822.296 Y143.687 Z8005.173 A2366.264
X-36790.466 Y143.705 Z8005.172 A2371.994
X-36758.636 Y143.693 Z8005.173 A2377.723
X-36726.806 Y143.711 Z8005.172 A2383.453
X-36694.976 Y143.699 Z8005.173 A2389.183
X-36663.146 Y143.686 A2394.912
X-36631.317 Y143.704 Z8005.174 A2400.642
X-36599.487 Y143.692 A2406.371
X-36567.657 Y143.711 A2412.101
X-36535.827 Y143.698 A2417.831
X-36503.997 Y143.686 A2423.56
X-36472.167 Y143.704 Z8005.173 A2429.29
X-36440.338 Y143.692 A2435.019
X-36408.508 Y143.71 A2440.749
X-36376.678 Y143.698 A2446.478
X-36344.848 Y143.686 Z8005.174 A2452.208
X-36313.018 Y143.705 A2457.938
X-36281.188 Y143.693 A2463.667
X-36249.359 Y143.712 A2469.397
X-36217.529 Y143.699 A2475.126
X-36185.699 Y143.687 A2480.856
X-36153.869 Y143.705 A2486.585
X-36122.039 Y143.693 Z8005.175 A2492.315
X-36090.209 Y143.711 A2498.045
X-36058.38 Y143.699 A2503.774
X-36026.55 Y143.687 A2509.504
X-35994.72 Y143.705 Z8005.174 A2515.233
X-35968.17 Y167.471 Z8007.024 A2519.999
X-35936.34 Y167.49 A2525.729
X-35904.51 Y167.477 A2531.459
X-35872.68 Y167.495 A2537.188
X-35840.85 Y167.483 Z8007.025 A2542.918
X-35809.02 Y167.47 Z8007.024 A2548.647
X-35777.191 Y167.489 A2554.377
X-35745.361 Y167.477 Z8007.025 A2560.107
X-35713.531 Y167.495 Z8007.024 A2565.836
X-35681.701 Y167.483 A2571.566
X-35649.871 Y167.47 Z8007.025 A2577.295
X-35618.041 Y167.489 A2583.025
X-35586.212 Y167.477 Z8007.026 A2588.754
X-35554.382 Y167.495 Z8007.025 A2594.484
X-35522.552 Y167.483 Z8007.026 A2600.214
X-35490.722 Y167.47 Z8007.027 A2605.943
X-35458.892 Y167.489 A2611.673
X-35427.062 Y167.476 A2617.402
X-35395.233 Y167.495 A2623.132
X-35363.403 Y167.483 Z8007.028 A2628.862
X-35331.573 Y167.47 A2634.591
X-35299.743 Y167.489 Z8007.027 A2640.321
X-35267.913 Y167.477 Z8007.028 A2646.05
X-35236.083 Y167.495 A2651.78
X-35204.254 Y167.483 A2657.509
X-35172.424 Y167.471 A2663.239
X-35140.594 Y167.49 Z8007.027 A2668.969
X-35108.764 Y167.477 Z8007.028 A2674.698
X-35076.934 Y167.495 A2680.428
X-35045.104 Y167.483 A2686.157
X-35013.275 Y167.471 A2691.887
X-34981.445 Y167.489 A2697.616
X-34949.615 Y167.477 Z8007.029 A2703.346
X-34917.785 Y167.495 Z8007.028 A2709.076
X-34885.955 Y167.483 A2714.805
X-34854.125 Y167.471 Z8007.029 A2720.535
X-34822.296 Y167.49 A2726.264
X-34790.466 Y167.477 A2731.994
X-34758.636 Y167.495 Z8007.028 A2737.724
X-34726.806 Y167.483 Z8007.029 A2743.453
X-34694.976 Y167.47 A2749.183
X-34663.146 Y167.489 Z8007.028 A2754.912
X-34631.317 Y167.476 Z8007.03 A2760.642
X-34599.487 Y167.495 A2766.371
X-34567.657 Y167.482 Z8007.029 A2772.101
X-34535.827 Y167.47 Z8007.03 A2777.83
X-34503.997 Y167.489 Z8007.029 A2783.56
X-34472.167 Y167.476 A2789.29
X-34440.338 Y167.495 A2795.019
X-34408.508 Y167.482 A2800.749
X-34376.678 Y167.47 A2806.478
X-34344.848 Y167.489 Z8007.03 A2812.208
X-34313.018 Y167.477 A2817.938
X-34281.188 Y167.495 Z8007.029 A2823.667
X-34249.359 Y167.483 Z8007.03 A2829.397
X-34217.529 Y167.471 A2835.126
X-34185.699 Y167.489 A2840.856
X-34153.869 Y167.476 Z8007.031 A2846.585
X-34122.039 Y167.495 A2852.315
X-34090.209 Y167.483 A2858.045
X-34058.38 Y167.471 A2863.774
X-34026.55 Y167.49 Z8007.03 A2869.504
X-33994.72 Y167.477 A2875.233
X-33968.17 Y191.199 Z8009.159 A2880
X-33936.34 Y191.187 A2885.729
X-33904.51 Y191.174 A2891.459
X-33872.68 Y191.193 A2897.188
X-33840.85 Y191.18 Z8009.16 A2902.918
X-33809.02 Y191.199 Z8009.159 A2908.647
X-33777.191 Y191.187 A2914.377
X-33745.361 Y191.175 Z8009.16 A2920.106
X-33713.531 Y191.193 Z8009.159 A2925.836
X-33681.701 Y191.18 A2931.566
X-33649.871 Y191.198 Z8009.16 A2937.295
X-33618.041 Y191.186 A2943.025
X-33586.212 Y191.174 A2948.754
X-33554.382 Y191.192 A2954.484
X-33522.552 Y191.18 A2960.214
X-33490.722 Y191.198 A2965.943
X-33458.892 Y191.186 Z8009.161 A2971.673
X-33427.062 Y191.174 A2977.402
X-33395.233 Y191.192 Z8009.162 A2983.132
X-33363.403 Y191.18 A2988.861
X-33331.573 Y191.199 A2994.591
X-33299.743 Y191.186 A3000.321
X-33267.913 Y191.174 A3006.05
X-33236.083 Y191.192 A3011.78
X-33204.254 Y191.18 Z8009.163 A3017.509
X-33172.424 Y191.199 Z8009.162 A3023.239
X-33140.594 Y191.187 A3028.969
X-33108.764 Y191.175 A3034.698
X-33076.934 Y191.193 A3040.428
X-33045.104 Y191.181 Z8009.163 A3046.157
X-33013.275 Y191.199 Z8009.162 A3051.887
X-32981.445 Y191.187 A3057.616
X-32949.615 Y191.174 Z8009.163 A3063.346
X-32917.785 Y191.193 Z8009.162 A3069.076
X-32885.955 Y191.18 Z8009.163 A3074.805
X-32854.125 Y191.199 Z8009.162 A3080.535
X-32822.296 Y191.187 Z8009.164 A3086.264
X-32790.466 Y191.174 A3091.994
X-32758.636 Y191.192 Z8009.162 A3097.723
X-32726.806 Y191.18 Z8009.163 A3103.453
X-32694.976 Y191.198 Z8009.162 A3109.183
X-32663.146 Y191.186 Z8009.163 A3114.912
X-32631.317 Y191.174 Z8009.164 A3120.642
X-32599.487 Y191.192 A3126.371
X-32567.657 Y191.18 A3132.101
X-32535.827 Y191.198 A3137.831
X-32503.997 Y191.186 Z8009.163 A3143.56
X-32472.167 Y191.173 Z8009.164 A3149.29
X-32440.338 Y191.192 Z8009.163 A3155.019
X-32408.508 Y191.179 A3160.749
X-32376.678 Y191.198 A3166.478
X-32344.848 Y191.185 Z8009.164 A3172.208
X-32313.018 Y191.174 A3177.937
X-32281.188 Y191.193 A3183.667
X-32249.359 Y191.18 A3189.397
X-32217.529 Y191.199 A3195.126
X-32185.699 Y191.187 A3200.856
X-32153.869 Y191.174 Z8009.165 A3206.585
X-32122.039 Y191.192 A3212.315
X-32090.209 Y191.18 A3218.045
X-32058.38 Y191.199 A3223.774
X-32026.55 Y191.186 A3229.504
X-31994.718 Y191.174 Z8009.164 A3235.233
X-31968.168 Y214.812 Z8011.569 A3240
X-31936.336 Y214.799 A3245.729
X-31904.504 Y214.818 A3251.459
X-31872.673 Y214.805 A3257.188
X-31840.841 Y214.824 A3262.918
X-31809.009 Y214.812 A3268.647
X-31777.177 Y214.799 A3274.377
X-31745.346 Y214.818 A3280.107
X-31713.514 Y214.805 A3285.836
X-31681.682 Y214.823 A3291.566
X-31649.85 Y214.811 A3297.295
X-31618.019 Y214.799 Z8011.571 A3303.025
X-31586.187 Y214.817 Z8011.57 A3308.754
X-31554.355 Y214.805 A3314.484
X-31522.523 Y214.823 Z8011.571 A3320.214
X-31490.692 Y214.811 A3325.943
X-31458.86 Y214.799 Z8011.572 A3331.673
X-31427.028 Y214.817 Z8011.571 A3337.402
X-31395.196 Y214.805 Z8011.572 A3343.132
X-31363.365 Y214.823 A3348.862
X-31331.533 Y214.811 A3354.591
X-31299.701 Y214.799 Z8011.573 A3360.321
X-31267.869 Y214.818 Z8011.572 A3366.05
X-31236.038 Y214.805 A3371.78
X-31204.206 Y214.823 A3377.509
X-31172.374 Y214.811 Z8011.573 A3383.239
X-31140.542 Y214.799 A3388.968
X-31108.711 Y214.818 Z8011.572 A3394.698
X-31076.879 Y214.805 Z8011.573 A3400.428
X-31045.047 Y214.824 A3406.157
X-31013.216 Y214.812 Z8011.572 A3411.887
X-30981.384 Y214.799 Z8011.574 A3417.616
X-30949.552 Y214.818 Z8011.573 A3423.346
X-30917.72 Y214.805 A3429.076
X-30885.889 Y214.824 Z8011.572 A3434.805
X-30854.057 Y214.811 Z8011.573 A3440.535
X-30822.225 Y214.8 Z8011.574 A3446.264
X-30790.393 Y214.817 Z8011.572 A3451.994
X-30758.562 Y214.805 Z8011.573 A3457.723
X-30726.73 Y214.823 A3463.453
X-30694.898 Y214.811 A3469.183
X-30663.066 Y214.799 Z8011.574 A3474.912
X-30631.235 Y214.816 Z8011.573 A3480.642
X-30599.403 Y214.804 Z8011.574 A3486.371
X-30567.571 Y214.822 A3492.101
X-30535.739 Y214.81 A3497.831
X-30503.908 Y214.798 A3503.56
X-30472.076 Y214.816 Z8011.573 A3509.29
X-30440.244 Y214.804 Z8011.574 A3515.019
X-30408.412 Y214.822 Z8011.573 A3520.749
X-30376.581 Y214.81 A3526.478
X-30344.749 Y214.798 Z8011.574 A3532.208
X-30312.917 Y214.817 A3537.938
X-30281.085 Y214.805 A3543.667
X-30249.254 Y214.823 A3549.397
X-30217.422 Y214.811 Z8011.575 A3555.126
X-30185.59 Y214.799 A3560.856
X-30153.759 Y214.817 A3566.585
X-30121.927 Y214.804 Z8011.576 A3572.315
X-30090.095 Y214.823 Z8011.575 A3578.045
X-30058.263 Y214.811 Z8011.576 A3583.774
X-30026.432 Y214.799 Z8011.575 A3589.504
X-29994.6 Y214.817 Z8011.573 A3595.233
X-29968.168 Y238.33 Z8014.252 A3599.999
X-29936.336 Y238.349 A3605.729
X-29904.504 Y238.336 A3611.459
X-29872.673 Y238.324 A3617.188
X-29840.841 Y238.342 Z8014.253 A3622.918
X-29809.009 Y238.33 Z8014.252 A3628.647
X-29777.177 Y238.348 Z8014.251 A3634.377
X-29745.346 Y238.336 Z8014.252 A3640.107
X-29713.514 Y238.324 Z8014.253 A3645.836
X-29681.682 Y238.342 Z8014.251 A3651.566
X-29649.85 Y238.329 Z8014.253 A3657.295
X-29618.019 Y238.348 A3663.025
X-29586.187 Y238.336 A3668.754
X-29554.355 Y238.323 Z8014.254 A3674.484
X-29522.523 Y238.311 Z8014.255 A3680.213
X-29490.692 Y238.36 Z8014.254 A3685.943
X-29458.86 Y238.348 Z8014.255 A3691.673
X-29427.028 Y238.336 A3697.402
X-29395.196 Y238.324 Z8014.256 A3703.132
X-29363.365 Y238.312 A3708.861
X-29331.533 Y238.361 Z8014.255 A3714.591
X-29299.701 Y238.348 A3720.321
X-29267.869 Y238.336 Z8014.256 A3726.05
X-29236.038 Y238.323 A3731.78
X-29204.206 Y238.312 A3737.509
X-29172.374 Y238.361 Z8014.255 A3743.239
X-29140.542 Y238.349 A3748.969
X-29108.711 Y238.336 A3754.698
X-29076.879 Y238.324 A3760.428
X-29045.047 Y238.312 Z8014.257 A3766.157
X-29013.216 Y238.361 Z8014.255 A3771.887
X-28981.384 Y238.348 Z8014.256 A3777.616
X-28949.552 Y238.336 Z8014.257 A3783.346
X-28917.72 Y238.324 Z8014.256 A3789.075
X-28885.889 Y238.312 Z8014.257 A3794.805
X-28854.057 Y238.361 Z8014.256 A3800.535
X-28822.225 Y238.348 A3806.264
X-28790.393 Y238.335 Z8014.257 A3811.994
X-28758.562 Y238.323 A3817.723
X-28726.73 Y238.311 A3823.453
X-28694.898 Y238.36 Z8014.256 A3829.183
X-28663.066 Y238.348 A3834.912
X-28631.235 Y238.335 Z8014.258 A3840.642
X-28599.403 Y238.323 Z8014.257 A3846.371
X-28567.571 Y238.311 Z8014.258 A3852.101
X-28535.739 Y238.36 Z8014.256 A3857.831
X-28503.908 Y238.347 Z8014.257 A3863.56
X-28472.076 Y238.335 Z8014.256 A3869.29
X-28440.244 Y238.323 Z8014.257 A3875.019
X-28408.412 Y238.31 A3880.749
X-28376.581 Y238.359 Z8014.256 A3886.479
X-28344.749 Y238.347 A3892.208
X-28312.917 Y238.335 Z8014.257 A3897.938
X-28281.085 Y238.324 A3903.667
X-28249.254 Y238.311 Z8014.258 A3909.397
X-28217.422 Y238.36 Z8014.257 A3915.126
X-28185.59 Y238.348 Z8014.258 A3920.856
X-28153.759 Y238.336 A3926.585
X-28121.927 Y238.323 Z8014.259 A3932.315
X-28090.095 Y238.312 Z8014.26 A3938.044
X-28058.263 Y238.36 Z8014.258 A3943.774
X-28026.432 Y238.348 A3949.504
X-27994.6 Y238.336 Z8014.257 A3955.233
X-27968.168 Y261.746 Z8017.205 A3959.999
X-27936.336 Y261.795 Z8017.203 A3965.729
X-27904.504 Y261.782 A3971.459
X-27872.673 Y261.77 Z8017.204 A3977.188
X-27840.841 Y261.758 Z8017.205 A3982.918
X-27809.009 Y261.745 Z8017.204 A3988.647
X-27777.177 Y261.795 Z8017.203 A3994.377
X-27745.346 Y261.782 Z8017.204 A4000.107
X-27713.514 Y261.77 A4005.836
X-27681.682 Y261.757 A4011.566
X-27649.85 Y261.745 Z8017.206 A4017.295
X-27618.019 Y261.794 Z8017.204 A4023.025
X-27586.187 Y261.782 Z8017.205 A4028.755
X-27554.355 Y261.77 Z8017.206 A4034.484
X-27522.523 Y261.757 Z8017.207 A4040.214
X-27490.692 Y261.745 A4045.943
X-27458.86 Y261.794 Z8017.205 A4051.673
X-27427.028 Y261.782 Z8017.206 A4057.402
X-27395.196 Y261.77 Z8017.208 A4063.132
X-27363.365 Y261.757 Z8017.209 A4068.861
X-27331.533 Y261.745 A4074.591
X-27299.701 Y261.794 Z8017.206 A4080.321
X-27267.869 Y261.782 Z8017.207 A4086.05
X-27236.038 Y261.77 Z8017.208 A4091.78
X-27204.206 Y261.757 A4097.509
X-27172.374 Y261.746 Z8017.209 A4103.239
X-27140.542 Y261.795 Z8017.206 A4108.969
X-27108.711 Y261.783 Z8017.207 A4114.698
X-27076.879 Y261.77 Z8017.208 A4120.428
X-27045.047 Y261.758 Z8017.209 A4126.157
X-27013.216 Y261.746 A4131.887
X-26981.384 Y261.795 Z8017.208 A4137.617
X-26949.552 Y261.782 A4143.346
X-26917.72 Y261.77 A4149.076
X-26885.889 Y261.758 Z8017.209 A4154.805
X-26854.057 Y261.745 A4160.535
X-26822.225 Y261.795 Z8017.208 A4166.265
X-26790.393 Y261.782 A4171.994
X-26758.562 Y261.769 A4177.724
X-26726.73 Y261.757 Z8017.209 A4183.453
X-26694.898 Y261.745 A4189.182
X-26663.066 Y261.794 Z8017.208 A4194.912
X-26631.235 Y261.781 Z8017.209 A4200.642
X-26599.403 Y261.769 Z8017.21 A4206.371
X-26567.571 Y261.756 A4212.101
X-26535.739 Y261.745 A4217.83
X-26503.908 Y261.794 Z8017.209 A4223.56
X-26472.076 Y261.781 Z8017.208 A4229.29
X-26440.244 Y261.769 Z8017.209 A4235.019
X-26408.412 Y261.757 A4240.749
X-26376.581 Y261.744 Z8017.21 A4246.478
X-26344.749 Y261.794 Z8017.208 A4252.208
X-26312.917 Y261.782 Z8017.209 A4257.938
X-26281.085 Y261.77 A4263.667
X-26249.254 Y261.758 Z8017.21 A4269.397
X-26217.422 Y261.745 A4275.126
X-26185.59 Y261.794 Z8017.209 A4280.856
X-26153.759 Y261.782 Z8017.21 A4286.586
X-26121.927 Y261.77 Z8017.211 A4292.315
X-26090.095 Y261.758 A4298.045
X-26058.263 Y261.745 Z8017.21 A4303.774
X-26026.432 Y261.795 Z8017.209 A4309.504
X-25994.6 Y261.782 A4315.233
X-25968.168 Y285.08 Z8020.421 A4320
X-25936.336 Y285.067 Z8020.422 A4325.729
X-25904.504 Y285.055 A4331.458
X-25872.673 Y285.104 Z8020.421 A4337.188
X-25840.841 Y285.092 A4342.918
X-25809.009 Y285.079 A4348.647
X-25777.177 Y285.067 A4354.377
X-25745.346 Y285.055 Z8020.422 A4360.106
X-25713.514 Y285.104 Z8020.421 A4365.836
X-25681.682 Y285.091 A4371.566
X-25649.85 Y285.079 A4377.295
X-25618.019 Y285.067 Z8020.423 A4383.025
X-25586.187 Y285.055 Z8020.424 A4388.754
X-25554.355 Y285.104 Z8020.422 A4394.484
X-25522.523 Y285.091 Z8020.423 A4400.214
X-25490.692 Y285.079 A4405.943
X-25458.86 Y285.067 Z8020.424 A4411.673
X-25427.028 Y285.054 A4417.402
X-25395.196 Y285.103 A4423.132
X-25363.365 Y285.091 A4428.862
X-25331.533 Y285.079 Z8020.425 A4434.591
X-25299.701 Y285.067 Z8020.424 A4440.321
X-25267.869 Y285.055 Z8020.425 A4446.05
X-25236.038 Y285.103 Z8020.423 A4451.78
X-25204.206 Y285.092 Z8020.424 A4457.509
X-25172.374 Y285.079 Z8020.425 A4463.239
X-25140.542 Y285.068 A4468.968
X-25108.711 Y285.055 Z8020.426 A4474.698
X-25076.879 Y285.104 Z8020.424 A4480.428
X-25045.047 Y285.092 Z8020.425 A4486.157
X-25013.216 Y285.079 A4491.887
X-24981.384 Y285.067 A4497.616
X-24949.552 Y285.055 Z8020.426 A4503.346
X-24917.72 Y285.104 Z8020.424 A4509.076
X-24885.889 Y285.091 Z8020.425 A4514.805
X-24854.057 Y285.079 A4520.535
X-24822.225 Y285.067 Z8020.427 A4526.264
X-24790.393 Y285.055 A4531.994
X-24758.562 Y285.103 Z8020.424 A4537.724
X-24726.73 Y285.091 Z8020.425 A4543.453
X-24694.898 Y285.079 Z8020.426 A4549.183
X-24663.066 Y285.066 A4554.912
X-24631.235 Y285.054 Z8020.427 A4560.642
X-24599.403 Y285.103 Z8020.426 A4566.372
X-24567.571 Y285.091 A4572.101
X-24535.739 Y285.078 Z8020.427 A4577.831
X-24503.908 Y285.066 Z8020.426 A4583.56
X-24472.076 Y285.054 Z8020.427 A4589.29
X-24440.244 Y285.103 Z8020.425 A4595.019
X-24408.412 Y285.09 A4600.749
X-24376.581 Y285.078 Z8020.426 A4606.478
X-24344.749 Y285.066 Z8020.427 A4612.208
X-24312.917 Y285.054 A4617.937
X-24281.085 Y285.104 Z8020.425 A4623.667
X-24249.254 Y285.092 Z8020.427 A4629.397
X-24217.422 Y285.08 A4635.126
X-24185.59 Y285.067 Z8020.428 A4640.856
X-24153.759 Y285.055 A4646.585
X-24121.927 Y285.103 Z8020.427 A4652.315
X-24090.095 Y285.091 A4658.045
X-24058.263 Y285.079 Z8020.428 A4663.774
X-24026.432 Y285.067 Z8020.427 A4669.504
X-23994.6 Y285.055 Z8020.428 A4675.233
X-23968.168 Y308.292 Z8023.9 A4680
X-23936.336 Y308.28 A4685.729
X-23904.504 Y308.267 A4691.459
X-23872.673 Y308.255 A4697.188
X-23840.841 Y308.243 Z8023.902 A4702.918
X-23809.009 Y308.292 Z8023.9 A4708.648
X-23777.177 Y308.279 A4714.377
X-23745.346 Y308.267 A4720.107
X-23713.514 Y308.255 A4725.836
X-23681.682 Y308.243 Z8023.901 A4731.566
X-23649.85 Y308.291 Z8023.9 A4737.295
X-23618.019 Y308.279 A4743.025
X-23586.187 Y308.267 Z8023.901 A4748.754
X-23554.355 Y308.255 Z8023.902 A4754.484
X-23522.523 Y308.242 Z8023.903 A4760.213
X-23490.692 Y308.291 Z8023.902 A4765.943
X-23458.86 Y308.279 Z8023.903 A4771.673
X-23427.028 Y308.267 Z8023.902 A4777.402
X-23395.196 Y308.255 Z8023.904 A4783.132
X-23363.365 Y308.242 A4788.861
X-23331.533 Y308.292 Z8023.903 A4794.591
X-23299.701 Y308.279 A4800.321
X-23267.869 Y308.267 Z8023.904 A4806.05
X-23236.038 Y308.255 Z8023.905 A4811.78
X-23204.206 Y308.243 Z8023.904 A4817.509
X-23172.374 Y308.292 Z8023.903 A4823.239
X-23140.542 Y308.28 Z8023.902 A4828.969
X-23108.711 Y308.268 Z8023.904 A4834.698
X-23076.879 Y308.255 Z8023.903 A4840.428
X-23045.047 Y308.243 Z8023.905 A4846.157
X-23013.216 Y308.292 Z8023.903 A4851.887
X-22981.384 Y308.28 Z8023.904 A4857.616
X-22949.552 Y308.267 A4863.346
X-22917.72 Y308.255 A4869.075
X-22885.889 Y308.243 Z8023.905 A4874.805
X-22854.057 Y308.292 Z8023.903 A4880.535
X-22822.225 Y308.28 Z8023.904 A4886.264
X-22790.393 Y308.267 A4891.994
X-22758.562 Y308.255 A4897.723
X-22726.73 Y308.242 Z8023.906 A4903.453
X-22694.898 Y308.291 Z8023.903 A4909.183
X-22663.066 Y308.279 Z8023.904 A4914.912
X-22631.235 Y308.267 Z8023.905 A4920.642
X-22599.403 Y308.254 Z8023.906 A4926.371
X-22567.571 Y308.242 A4932.101
X-22535.739 Y308.291 Z8023.904 A4937.831
X-22503.908 Y308.279 Z8023.905 A4943.56
X-22472.076 Y308.267 Z8023.904 A4949.29
X-22440.244 Y308.254 A4955.019
X-22408.412 Y308.242 Z8023.906 A4960.749
X-22376.581 Y308.291 Z8023.904 A4966.479
X-22344.749 Y308.279 A4972.208
X-22312.917 Y308.267 Z8023.905 A4977.938
X-22281.085 Y308.255 Z8023.906 A4983.667
X-22249.254 Y308.243 A4989.397
X-22217.422 Y308.292 Z8023.904 A4995.126
X-22185.59 Y308.28 Z8023.905 A5000.856
X-22153.759 Y308.267 Z8023.907 A5006.585
X-22121.927 Y308.255 Z8023.908 A5012.315
X-22090.095 Y308.243 A5018.044
X-22058.263 Y308.292 Z8023.905 A5023.774
X-22026.432 Y308.28 A5029.504
X-21994.6 Y308.268 Z8023.906 A5035.233
X-21968.168 Y331.314 Z8027.637 A5039.999
X-21936.336 Y331.363 Z8027.634 A5045.729
X-21904.504 Y331.351 Z8027.635 A5051.459
X-21872.673 Y331.338 A5057.188
X-21840.841 Y331.326 Z8027.637 A5062.918
X-21809.009 Y331.313 A5068.647
X-21777.177 Y331.362 Z8027.635 A5074.377
X-21745.346 Y331.351 A5080.107
X-21713.514 Y331.338 A5085.836
X-21681.682 Y331.326 Z8027.636 A5091.566
X-21649.85 Y331.313 Z8027.637 A5097.295
X-21618.019 Y331.362 Z8027.636 A5103.025
X-21586.187 Y331.35 Z8027.637 A5108.755
X-21554.355 Y331.338 A5114.484
X-21522.523 Y331.325 Z8027.639 A5120.214
X-21490.692 Y331.313 Z8027.64 A5125.943
X-21458.86 Y331.362 Z8027.637 A5131.673
X-21427.028 Y331.35 Z8027.638 A5137.402
X-21395.196 Y331.338 Z8027.64 A5143.132
X-21363.365 Y331.325 Z8027.639 A5148.861
X-21331.533 Y331.313 Z8027.641 A5154.591
X-21299.701 Y331.362 Z8027.638 A5160.321
X-21267.869 Y331.35 Z8027.639 A5166.05
X-21236.038 Y331.338 A5171.78
X-21204.206 Y331.325 Z8027.641 A5177.509
X-21172.374 Y331.313 A5183.239
X-21140.542 Y331.362 Z8027.637 A5188.969
X-21108.711 Y331.35 Z8027.639 A5194.698
X-21076.879 Y331.338 Z8027.64 A5200.428
X-21045.047 Y331.326 Z8027.641 A5206.157
X-21013.216 Y331.313 Z8027.64 A5211.887
X-20981.384 Y331.362 Z8027.639 A5217.617
X-20949.552 Y331.35 A5223.346
X-20917.72 Y331.338 Z8027.64 A5229.076
X-20885.889 Y331.326 Z8027.641 A5234.805
X-20854.057 Y331.313 A5240.535
X-20822.225 Y331.362 Z8027.639 A5246.265
X-20790.393 Y331.35 A5251.994
X-20758.562 Y331.337 Z8027.64 A5257.724
X-20726.73 Y331.325 Z8027.641 A5263.453
X-20694.898 Y331.312 Z8027.642 A5269.182
X-20663.066 Y331.362 Z8027.64 A5274.912
X-20631.235 Y331.35 Z8027.641 A5280.642
X-20599.403 Y331.337 A5286.371
X-20567.571 Y331.325 Z8027.642 A5292.101
X-20535.739 Y331.313 A5297.83
X-20503.908 Y331.362 Z8027.64 A5303.56
X-20472.076 Y331.349 A5309.29
X-20440.244 Y331.337 A5315.019
X-20408.412 Y331.325 Z8027.641 A5320.749
X-20376.581 Y331.312 A5326.478
X-20344.749 Y331.362 Z8027.64 A5332.208
X-20312.917 Y331.35 Z8027.641 A5337.938
X-20281.085 Y331.338 A5343.667
X-20249.254 Y331.326 Z8027.642 A5349.397
X-20217.422 Y331.313 A5355.126
X-20185.59 Y331.362 Z8027.641 A5360.856
X-20153.759 Y331.35 Z8027.642 A5366.586
X-20121.927 Y331.338 Z8027.643 A5372.315
X-20090.095 Y331.326 A5378.045
X-20058.263 Y331.313 A5383.774
X-20026.432 Y331.363 Z8027.641 A5389.504
X-19994.6 Y331.35 A5395.233
X-19968.168 Y354.258 Z8031.624 A5400
X-19936.336 Y354.246 Z8031.625 A5405.729
X-19904.504 Y354.234 A5411.458
X-19872.673 Y354.282 Z8031.622 A5417.188
X-19840.841 Y354.27 Z8031.624 A5422.918
X-19809.009 Y354.258 A5428.647
X-19777.177 Y354.245 A5434.377
X-19745.346 Y354.233 A5440.106
X-19713.514 Y354.282 Z8031.622 A5445.836
X-19681.682 Y354.27 Z8031.623 A5451.566
X-19649.85 Y354.258 Z8031.625 A5457.295
X-19618.019 Y354.245 Z8031.626 A5463.025
X-19586.187 Y354.233 A5468.754
X-19554.355 Y354.282 Z8031.625 A5474.484
X-19522.523 Y354.27 Z8031.626 A5480.214
X-19490.692 Y354.257 A5485.943
X-19458.86 Y354.245 Z8031.627 A5491.673
X-19427.028 Y354.233 Z8031.628 A5497.402
X-19395.196 Y354.282 Z8031.626 A5503.132
X-19363.365 Y354.27 Z8031.627 A5508.862
X-19331.533 Y354.258 Z8031.628 A5514.591
X-19299.701 Y354.245 Z8031.627 A5520.321
X-19267.869 Y354.233 Z8031.629 A5526.05
X-19236.038 Y354.282 Z8031.627 A5531.78
X-19204.206 Y354.27 A5537.509
X-19172.374 Y354.258 A5543.239
X-19140.542 Y354.246 Z8031.628 A5548.968
X-19108.711 Y354.234 A5554.698
X-19076.879 Y354.283 Z8031.627 A5560.428
X-19045.047 Y354.27 Z8031.628 A5566.157
X-19013.216 Y354.258 A5571.887
X-18981.384 Y354.246 A5577.616
X-18949.552 Y354.233 Z8031.629 A5583.346
X-18917.72 Y354.282 Z8031.627 A5589.076
X-18885.889 Y354.27 Z8031.628 A5594.805
X-18854.057 Y354.258 A5600.535
X-18822.225 Y354.246 Z8031.629 A5606.264
X-18790.393 Y354.234 A5611.994
X-18758.562 Y354.282 Z8031.627 A5617.724
X-18726.73 Y354.269 Z8031.628 A5623.453
X-18694.898 Y354.257 Z8031.629 A5629.183
X-18663.066 Y354.245 A5634.912
X-18631.235 Y354.233 Z8031.63 A5640.642
X-18599.403 Y354.282 Z8031.628 A5646.372
X-18567.571 Y354.269 Z8031.629 A5652.101
X-18535.739 Y354.257 A5657.831
X-18503.908 Y354.245 Z8031.63 A5663.56
X-18472.076 Y354.232 Z8031.629 A5669.29
X-18440.244 Y354.281 Z8031.628 A5675.019
X-18408.412 Y354.269 A5680.749
X-18376.581 Y354.257 Z8031.629 A5686.478
X-18344.749 Y354.244 Z8031.63 A5692.208
X-18312.917 Y354.233 Z8031.631 A5697.937
X-18281.085 Y354.282 Z8031.629 A5703.667
X-18249.254 Y354.27 A5709.397
X-18217.422 Y354.258 Z8031.63 A5715.126
X-18185.59 Y354.246 A5720.856
X-18153.759 Y354.233 Z8031.631 A5726.585
X-18121.927 Y354.282 Z8031.63 A5732.315
X-18090.095 Y354.27 A5738.045
X-18058.263 Y354.258 Z8031.631 A5743.774
X-18026.432 Y354.246 Z8031.63 A5749.504
X-17994.6 Y354.233 A5755.233
X-17968.168 Y377.056 Z8035.859 A5760
X-17936.336 Y377.044 Z8035.86 A5765.729
X-17904.504 Y377.031 A5771.459
X-17872.673 Y377.019 Z8035.861 A5777.188
X-17840.841 Y377.007 A5782.918
X-17809.009 Y377.055 Z8035.859 A5788.648
X-17777.177 Y377.043 Z8035.86 A5794.377
X-17745.346 Y377.031 A5800.107
X-17713.514 Y377.019 A5805.836
X-17681.682 Y377.006 Z8035.861 A5811.566
X-17649.85 Y377.055 Z8035.86 A5817.295
X-17618.019 Y377.043 Z8035.861 A5823.025
X-17586.187 Y377.031 A5828.754
X-17554.355 Y377.019 Z8035.862 A5834.484
X-17522.523 Y377.006 Z8035.863 A5840.213
X-17490.692 Y377.055 Z8035.861 A5845.943
X-17458.86 Y377.043 Z8035.862 A5851.673
X-17427.028 Y377.031 A5857.402
X-17395.196 Y377.018 Z8035.863 A5863.132
X-17363.365 Y377.007 Z8035.865 A5868.861
X-17331.533 Y377.056 Z8035.862 A5874.591
X-17299.701 Y377.043 A5880.321
X-17267.869 Y377.031 Z8035.863 A5886.05
X-17236.038 Y377.019 Z8035.864 A5891.78
X-17204.206 Y377.006 A5897.509
X-17172.374 Y377.056 Z8035.862 A5903.239
X-17140.542 Y377.043 A5908.969
X-17108.711 Y377.032 Z8035.863 A5914.698
X-17076.879 Y377.019 Z8035.864 A5920.428
X-17045.047 Y377.007 Z8035.866 A5926.157
X-17013.216 Y377.056 Z8035.863 A5931.887
X-16981.384 Y377.043 Z8035.862 A5937.616
X-16949.552 Y377.031 Z8035.864 A5943.346
X-16917.72 Y377.019 A5949.075
X-16885.889 Y377.007 Z8035.865 A5954.805
X-16854.057 Y377.056 Z8035.863 A5960.535
X-16822.225 Y377.043 A5966.264
X-16790.393 Y377.031 Z8035.864 A5971.994
X-16758.562 Y377.018 A5977.723
X-16726.73 Y377.006 Z8035.865 A5983.453
X-16694.898 Y377.055 Z8035.863 A5989.183
X-16663.066 Y377.043 A5994.912
X-16631.235 Y377.03 Z8035.865 A6000.642
X-16599.403 Y377.018 Z8035.866 A6006.371
X-16567.571 Y377.006 A6012.101
X-16535.739 Y377.055 Z8035.864 A6017.831
X-16503.908 Y377.043 A6023.56
X-16472.076 Y377.03 A6029.29
X-16440.244 Y377.018 Z8035.865 A6035.019
X-16408.412 Y377.006 A6040.749
X-16376.581 Y377.055 Z8035.863 A6046.479
X-16344.749 Y377.043 Z8035.865 A6052.208
X-16312.917 Y377.031 A6057.938
X-16281.085 Y377.019 A6063.667
X-16249.254 Y377.007 Z8035.867 A6069.397
X-16217.422 Y377.056 Z8035.864 A6075.126
X-16185.59 Y377.044 Z8035.865 A6080.856
X-16153.759 Y377.031 A6086.585
X-16121.927 Y377.019 Z8035.867 A6092.315
X-16090.095 Y377.007 A6098.044
X-16058.263 Y377.056 Z8035.865 A6103.774
X-16026.432 Y377.044 A6109.504
X-15994.601 Y377.031 A6115.233
X-15968.169 Y399.639 Z8040.339 A6119.999
X-15936.338 Y399.626 Z8040.34 A6125.729
X-15904.507 Y399.675 Z8040.337 A6131.459
X-15872.676 Y399.663 Z8040.338 A6137.188
X-15840.846 Y399.651 Z8040.339 A6142.918
X-15809.015 Y399.638 Z8040.338 A6148.647
X-15777.184 Y399.626 Z8040.339 A6154.377
X-15745.353 Y399.675 Z8040.337 A6160.107
X-15713.522 Y399.663 Z8040.338 A6165.836
X-15681.692 Y399.65 Z8040.339 A6171.566
X-15649.861 Y399.638 Z8040.34 A6177.295
X-15618.03 Y399.626 A6183.025
X-15586.199 Y399.675 Z8040.339 A6188.755
X-15554.368 Y399.663 Z8040.34 A6194.484
X-15522.538 Y399.65 Z8040.341 A6200.214
X-15490.707 Y399.638 A6205.943
X-15458.876 Y399.626 Z8040.343 A6211.673
X-15427.045 Y399.675 Z8040.339 A6217.402
X-15395.215 Y399.662 Z8040.341 A6223.132
X-15363.384 Y399.651 Z8040.342 A6228.861
X-15331.553 Y399.638 Z8040.343 A6234.591
X-15299.722 Y399.626 A6240.32
X-15267.891 Y399.675 Z8040.341 A6246.05
X-15236.061 Y399.662 Z8040.342 A6251.78
X-15204.23 Y399.65 A6257.509
X-15172.399 Y399.639 A6263.239
X-15140.568 Y399.627 Z8040.343 A6268.968
X-15108.737 Y399.675 Z8040.34 A6274.698
X-15076.907 Y399.663 Z8040.341 A6280.428
X-15045.076 Y399.651 Z8040.343 A6286.157
X-15013.245 Y399.639 A6291.887
X-14981.414 Y399.626 Z8040.345 A6297.616
X-14949.584 Y399.675 Z8040.342 A6303.346
X-14917.753 Y399.663 A6309.076
X-14885.922 Y399.651 A6314.805
X-14854.091 Y399.638 Z8040.343 A6320.535
X-14822.26 Y399.626 Z8040.344 A6326.264
X-14790.43 Y399.675 Z8040.342 A6331.994
X-14758.599 Y399.662 A6337.724
X-14726.768 Y399.649 Z8040.343 A6343.453
X-14694.937 Y399.638 Z8040.344 A6349.182
X-14663.106 Y399.626 A6354.912
X-14631.276 Y399.674 Z8040.342 A6360.642
X-14599.445 Y399.662 Z8040.343 A6366.371
X-14567.614 Y399.65 Z8040.344 A6372.101
X-14535.783 Y399.637 A6377.83
X-14503.952 Y399.625 A6383.56
X-14472.122 Y399.674 Z8040.342 A6389.29
X-14440.291 Y399.662 A6395.019
X-14408.46 Y399.649 Z8040.343 A6400.749
X-14376.629 Y399.637 Z8040.344 A6406.478
X-14344.799 Y399.625 Z8040.345 A6412.208
X-14312.968 Y399.675 Z8040.342 A6417.938
X-14281.137 Y399.663 Z8040.343 A6423.667
X-14249.306 Y399.651 Z8040.344 A6429.397
X-14217.475 Y399.639 Z8040.345 A6435.126
X-14185.645 Y399.626 Z8040.346 A6440.856
X-14153.814 Y399.675 Z8040.344 A6446.586
X-14121.983 Y399.662 A6452.315
X-14090.152 Y399.651 Z8040.345 A6458.045
X-14058.321 Y399.638 Z8040.346 A6463.774
X-14026.491 Y399.626 A6469.504
X-13994.66 Y399.675 Z8040.343 A6475.233
X-13968.169 Y422.121 Z8045.053 A6480
X-13936.338 Y422.108 Z8045.054 A6485.729
X-13904.507 Y422.096 Z8045.055 A6491.458
X-13872.676 Y422.145 Z8045.051 A6497.188
X-13840.846 Y422.132 Z8045.053 A6502.918
X-13809.015 Y422.12 A6508.647
X-13777.184 Y422.108 Z8045.055 A6514.377
X-13745.353 Y422.096 Z8045.054 A6520.106
X-13713.522 Y422.144 Z8045.051 A6525.836
X-13681.692 Y422.132 Z8045.053 A6531.566
X-13649.861 Y422.12 Z8045.054 A6537.295
X-13618.03 Y422.107 Z8045.055 A6543.025
X-13586.199 Y422.095 A6548.754
X-13554.368 Y422.145 Z8045.053 A6554.484
X-13522.538 Y422.132 Z8045.054 A6560.214
X-13490.707 Y422.12 Z8045.056 A6565.943
X-13458.876 Y422.107 A6571.673
X-13427.045 Y422.095 Z8045.057 A6577.402
X-13395.215 Y422.144 Z8045.055 A6583.132
X-13363.384 Y422.132 Z8045.056 A6588.862
X-13331.553 Y422.12 Z8045.057 A6594.591
X-13299.722 Y422.108 A6600.321
X-13267.891 Y422.096 Z8045.058 A6606.05
X-13236.061 Y422.144 Z8045.055 A6611.78
X-13204.23 Y422.132 A6617.509
X-13172.399 Y422.12 Z8045.057 A6623.239
X-13140.568 Y422.108 A6628.968
X-13108.737 Y422.096 Z8045.058 A6634.698
X-13076.907 Y422.145 Z8045.055 A6640.428
X-13045.076 Y422.133 Z8045.057 A6646.157
X-13013.245 Y422.121 A6651.887
X-12981.414 Y422.108 Z8045.058 A6657.616
X-12949.584 Y422.096 Z8045.059 A6663.346
X-12917.753 Y422.145 Z8045.056 A6669.076
X-12885.922 Y422.132 Z8045.057 A6674.805
X-12854.091 Y422.12 A6680.535
X-12822.26 Y422.108 Z8045.059 A6686.264
X-12790.43 Y422.096 A6691.994
X-12758.599 Y422.144 Z8045.056 A6697.724
X-12726.768 Y422.132 Z8045.057 A6703.453
X-12694.937 Y422.12 Z8045.059 A6709.183
X-12663.106 Y422.107 A6714.912
X-12631.276 Y422.095 Z8045.06 A6720.642
X-12599.445 Y422.144 Z8045.057 A6726.372
X-12567.614 Y422.132 Z8045.058 A6732.101
X-12535.783 Y422.119 A6737.831
X-12503.952 Y422.107 Z8045.06 A6743.56
X-12472.122 Y422.095 Z8045.059 A6749.29
X-12440.291 Y422.144 Z8045.057 A6755.019
X-12408.46 Y422.132 Z8045.058 A6760.749
X-12376.629 Y422.119 A6766.478
X-12344.799 Y422.107 Z8045.059 A6772.208
X-12312.968 Y422.095 A6777.937
X-12281.137 Y422.145 Z8045.057 A6783.667
X-12249.306 Y422.132 Z8045.059 A6789.397
X-12217.475 Y422.12 A6795.126
X-12185.645 Y422.108 A6800.856
X-12153.814 Y422.096 Z8045.061 A6806.585
X-12121.983 Y422.144 Z8045.059 A6812.315
X-12090.152 Y422.132 A6818.045
X-12058.321 Y422.121 Z8045.06 A6823.774
X-12026.491 Y422.108 A6829.504
X-11994.66 Y422.096 A6835.233
X-11968.169 Y444.433 Z8049.999 A6840
X-11936.338 Y444.421 Z8050 A6845.729
X-11904.507 Y444.409 A6851.459
X-11872.676 Y444.396 Z8050.001 A6857.188
X-11840.846 Y444.384 Z8050.003 A6862.918
X-11809.015 Y444.433 Z8049.999 A6868.648
X-11777.184 Y444.421 A6874.377
X-11745.353 Y444.409 Z8050 A6880.107
X-11713.522 Y444.396 Z8050.001 A6885.836
X-11681.692 Y444.383 Z8050.002 A6891.566
X-11649.861 Y444.432 Z8050 A6897.295
X-11618.03 Y444.42 Z8050.001 A6903.025
X-11586.199 Y444.408 Z8050.002 A6908.754
X-11554.368 Y444.396 Z8050.003 A6914.484
X-11522.538 Y444.384 Z8050.004 A6920.213
X-11490.707 Y444.433 Z8050.002 A6925.943
X-11458.876 Y444.42 Z8050.003 A6931.673
X-11427.045 Y444.408 A6937.402
X-11395.215 Y444.396 Z8050.004 A6943.132
X-11363.384 Y444.383 Z8050.005 A6948.861
X-11331.553 Y444.433 Z8050.002 A6954.591
X-11299.722 Y444.421 Z8050.003 A6960.321
X-11267.891 Y444.408 Z8050.004 A6966.05
X-11236.061 Y444.396 A6971.78
X-11204.23 Y444.383 Z8050.005 A6977.509
X-11172.399 Y444.433 Z8050.003 A6983.239
X-11140.568 Y444.421 A6988.969
X-11108.737 Y444.409 Z8050.004 A6994.698
X-11076.907 Y444.396 A7000.428
X-11045.076 Y444.384 Z8050.006 A7006.157
X-11013.245 Y444.433 Z8050.003 A7011.887
X-10981.414 Y444.421 Z8050.004 A7017.616
X-10949.584 Y444.409 A7023.346
X-10917.753 Y444.396 A7029.075
X-10885.922 Y444.384 Z8050.005 A7034.805
X-10854.091 Y444.433 Z8050.003 A7040.535
X-10822.26 Y444.421 Z8050.004 A7046.264
X-10790.43 Y444.408 A7051.994
X-10758.599 Y444.396 A7057.723
X-10726.768 Y444.384 Z8050.006 A7063.453
X-10694.937 Y444.432 Z8050.004 A7069.183
X-10663.106 Y444.421 A7074.912
X-10631.276 Y444.408 Z8050.005 A7080.642
X-10599.445 Y444.395 Z8050.006 A7086.371
X-10567.614 Y444.383 Z8050.007 A7092.101
X-10535.783 Y444.432 Z8050.004 A7097.831
X-10503.952 Y444.42 A7103.56
X-10472.122 Y444.408 A7109.29
X-10440.291 Y444.395 Z8050.005 A7115.019
X-10408.46 Y444.383 Z8050.006 A7120.749
X-10376.629 Y444.432 Z8050.004 A7126.479
X-10344.799 Y444.42 A7132.208
X-10312.968 Y444.408 Z8050.005 A7137.938
X-10281.137 Y444.396 Z8050.006 A7143.667
X-10249.306 Y444.384 A7149.397
X-10217.475 Y444.433 Z8050.005 A7155.126
X-10185.645 Y444.42 A7160.856
X-10153.814 Y444.409 Z8050.006 A7166.585
X-10121.983 Y444.396 Z8050.008 A7172.315
X-10090.152 Y444.384 A7178.044
X-10058.321 Y444.433 Z8050.005 A7183.774
X-10026.491 Y444.421 A7189.504
X-9994.66 Y444.409 A7195.233
X-9968.169 Y466.509 Z8055.173 A7199.999
X-9936.338 Y466.497 Z8055.175 A7205.729
X-9904.507 Y466.546 Z8055.171 A7211.459
X-9872.676 Y466.533 Z8055.172 A7217.188
X-9840.846 Y466.521 Z8055.173 A7222.918
X-9809.015 Y466.509 A7228.647
X-9777.184 Y466.496 A7234.377
X-9745.353 Y466.545 Z8055.171 A7240.107
X-9713.522 Y466.533 Z8055.172 A7245.836
X-9681.692 Y466.52 Z8055.173 A7251.566
X-9649.861 Y466.508 Z8055.174 A7257.295
X-9618.03 Y466.496 Z8055.175 A7263.025
X-9586.199 Y466.545 Z8055.173 A7268.755
X-9554.368 Y466.533 Z8055.174 A7274.484
X-9522.538 Y466.521 Z8055.175 A7280.214
X-9490.707 Y466.508 Z8055.177 A7285.943
X-9458.876 Y466.496 A7291.673
X-9427.045 Y466.545 Z8055.173 A7297.402
X-9396.174 Y373.391 Z8036.258 A7302.959
X-9395.215 Y238.628 Z9005.251 A7303.132
X-9363.384 Y156.409 Z9347.946 A7308.861
X-9331.552 Y89.403 Z9627.215 A7314.591
X-9299.722 Y38.279 Z9840.27 A7320.32
X-9267.891 Y3.623 Z9984.99 A7326.05
X-9236.061 Y0.008 Z10000.002 A7331.78
X-9204.23 Y-0.007 Z10000.003 A7337.509
X-9172.398 Y0.515 Z9998.073 A7343.239
G01 X-9140.568 Y33.078 Z9861.955 A7348.968
X-9108.737 Y82.241 Z9657.255 A7354.698
X-9076.907 Y147.206 Z9386.072 A7360.427
X-9045.076 Y227.632 Z9051.039 A7366.157
X-9013.244 Y322.558 Z8655.54 A7371.887
X-8981.414 Y430.893 Z8203.597 A7377.616
X-8978.038 Y479.495 Z8055.059 A7378.224
G00 X-8949.584 Y466.546 Z8055.175 A7383.346
X-8917.753 Y466.472 Z8055.179 A7389.075
X-8885.922 Y466.521 Z8055.177 A7394.805
X-8854.091 Y466.57 Z8055.174 A7400.535
X-8822.26 Y466.497 Z8055.179 A7406.264
X-8790.43 Y466.546 Z8055.176 A7411.994
X-8758.599 Y466.472 Z8055.18 A7417.723
X-8726.768 Y466.521 Z8055.177 A7423.453
X-8694.937 Y466.569 Z8055.175 A7429.183
X-8663.106 Y466.496 Z8055.179 A7434.912
X-8631.276 Y466.545 Z8055.177 A7440.642
X-8599.445 Y466.471 Z8055.181 A7446.371
X-8567.614 Y466.52 Z8055.179 A7452.101
X-8535.783 Y466.569 Z8055.175 A7457.831
X-8503.952 Y466.496 Z8055.18 A7463.56
X-8472.122 Y466.545 Z8055.176 A7469.29
X-8440.291 Y466.471 Z8055.181 A7475.019
X-8408.46 Y466.52 Z8055.177 A7480.749
X-8376.629 Y466.569 Z8055.175 A7486.479
X-8344.799 Y466.496 Z8055.179 A7492.208
X-8312.968 Y466.545 Z8055.177 A7497.938
X-8281.137 Y466.471 Z8055.181 A7503.667
X-8249.306 Y466.521 Z8055.179 A7509.397
X-8217.475 Y466.57 Z8055.176 A7515.127
X-8185.645 Y466.496 Z8055.181 A7520.856
X-8153.814 Y466.545 Z8055.177 A7526.586
X-8121.983 Y466.472 Z8055.183 A7532.315
X-8090.152 Y466.521 Z8055.179 A7538.045
X-8058.321 Y466.57 Z8055.177 A7543.774
X-8026.491 Y466.497 Z8055.18 A7549.504
X-7994.66 Y466.546 Z8055.176 A7555.233
X-7968.169 Y488.402 Z8060.569 A7559.999
X-7936.338 Y488.451 Z8060.565 A7565.729
X-7904.507 Y488.5 Z8060.563 A7571.459
X-7872.676 Y488.426 Z8060.567 A7577.188
X-7840.846 Y488.476 Z8060.564 A7582.918
X-7809.015 Y488.402 Z8060.569 A7588.647
X-7777.184 Y488.451 Z8060.565 A7594.377
X-7745.353 Y488.5 Z8060.563 A7600.107
X-7713.522 Y488.426 Z8060.567 A7605.836
X-7681.692 Y488.475 Z8060.564 A7611.566
X-7649.861 Y488.401 Z8060.569 A7617.295
X-7618.03 Y488.451 Z8060.566 A7623.025
X-7586.199 Y488.5 Z8060.564 A7628.755
X-7554.368 Y488.426 Z8060.569 A7634.484
X-7522.538 Y488.475 Z8060.566 A7640.214
X-7490.707 Y488.401 Z8060.571 A7645.943
X-7458.963 Y480.03 Z8058.785 A7651.657
X-7458.876 Y467.473 Z8143.86 A7651.673
X-7427.045 Y351.995 Z8602.566 A7657.403
X-7395.214 Y250.501 Z9005.231 A7663.132
X-7363.384 Y164.24 Z9347.953 A7668.862
X-7331.552 Y93.822 Z9627.202 A7674.591
X-7299.722 Y40.215 Z9840.273 A7680.321
X-7267.891 Y3.829 Z9984.992 A7686.05
X-7236.06 Y-0.043 Z10000.003 A7691.78
X-7204.23 Y0.017 A7697.509
X-7172.399 Y0.409 Z9998.085 A7703.239
G01 X-7140.568 Y34.757 Z9861.951 A7708.968
X-7108.737 Y86.373 Z9657.247 A7714.698
X-7076.906 Y154.585 Z9386.064 A7720.427
X-7045.076 Y239.022 Z9051.031 A7726.157
X-7013.245 Y338.537 Z8655.592 A7731.886
X-6981.414 Y452.432 Z8203.584 A7737.616
X-6972.382 Y498.3 Z8055.171 A7739.242
G00 X-6949.584 Y488.5 Z8060.566 A7743.346
X-6917.753 Y488.426 Z8060.571 A7749.075
X-6885.922 Y488.476 Z8060.568 A7754.805
X-6854.091 Y488.402 Z8060.573 A7760.534
X-6822.26 Y488.451 Z8060.571 A7766.264
X-6790.43 Y488.5 Z8060.567 A7771.994
X-6758.599 Y488.426 Z8060.571 A7777.723
X-6726.768 Y488.475 Z8060.569 A7783.453
X-6694.937 Y488.401 Z8060.574 A7789.182
X-6663.106 Y488.45 Z8060.57 A7794.912
X-6631.276 Y488.499 Z8060.568 A7800.642
X-6599.445 Y488.425 Z8060.573 A7806.371
X-6567.614 Y488.475 Z8060.57 A7812.101
X-6535.783 Y488.401 Z8060.574 A7817.83
X-6503.952 Y488.45 Z8060.571 A7823.56
X-6472.122 Y488.499 Z8060.566 A7829.29
X-6440.291 Y488.426 Z8060.572 A7835.019
X-6408.46 Y488.475 Z8060.569 A7840.749
X-6376.629 Y488.401 Z8060.573 A7846.478
X-6344.799 Y488.451 Z8060.57 A7852.208
X-6312.968 Y488.5 Z8060.568 A7857.938
X-6281.137 Y488.426 Z8060.573 A7863.667
X-6249.306 Y488.476 Z8060.57 A7869.397
X-6217.475 Y488.402 Z8060.575 A7875.126
X-6185.645 Y488.451 Z8060.571 A7880.856
X-6153.814 Y488.5 Z8060.569 A7886.586
X-6121.983 Y488.426 Z8060.574 A7892.315
X-6090.152 Y488.476 Z8060.571 A7898.045
X-6058.321 Y488.402 Z8060.575 A7903.774
X-6026.491 Y488.451 Z8060.571 A7909.504
X-5994.66 Y488.5 Z8060.568 A7915.234
X-5968.169 Y510.168 Z8066.175 A7919.999
X-5936.338 Y510.217 Z8066.172 A7925.729
X-5904.507 Y510.266 Z8066.168 A7931.459
X-5872.676 Y510.192 Z8066.173 A7937.188
X-5840.846 Y510.241 Z8066.17 A7942.918
X-5809.015 Y510.167 Z8066.174 A7948.647
X-5777.184 Y510.216 Z8066.171 A7954.377
X-5745.353 Y510.266 Z8066.168 A7960.107
X-5713.522 Y510.192 Z8066.172 A7965.836
X-5681.692 Y510.241 Z8066.169 A7971.566
X-5649.861 Y510.167 Z8066.175 A7977.295
X-5618.03 Y510.217 Z8066.172 A7983.025
X-5586.199 Y510.266 Z8066.169 A7988.755
X-5554.368 Y510.192 Z8066.175 A7994.484
X-5522.538 Y510.241 Z8066.172 A8000.214
X-5490.707 Y510.167 Z8066.177 A8005.943
X-5463.725 Y503.152 Z8059.469 A8010.8
X-5458.876 Y489.717 Z8143.872 A8011.673
X-5427.045 Y368.748 Z8602.578 A8017.403
X-5395.214 Y262.434 Z9005.241 A8023.132
X-5363.384 Y172.07 Z9347.962 A8028.862
X-5331.553 Y98.308 Z9627.209 A8034.591
X-5299.722 Y42.152 Z9840.279 A8040.321
X-5267.891 Y4.033 Z9984.995 A8046.051
X-5236.06 Y-0.017 Z10000.003 A8051.78
X-5204.23 Y0.043 A8057.51
X-5172.399 Y0.46 Z9998.083 A8063.239
G01 X-5140.568 Y36.437 Z9861.948 A8068.969
X-5108.737 Y90.503 Z9657.242 A8074.699
X-5076.906 Y161.962 Z9386.056 A8080.428
X-5045.076 Y250.412 Z9051.02 A8086.158
X-5013.245 Y354.661 Z8655.582 A8091.887
X-4981.414 Y473.967 Z8203.572 A8097.616
X-4972.737 Y519.689 Z8061.04 A8099.178
G00 X-4949.584 Y510.266 Z8066.172 A8103.346
X-4917.753 Y510.192 Z8066.177 A8109.075
X-4885.922 Y510.241 Z8066.174 A8114.805
X-4854.091 Y510.167 Z8066.179 A8120.534
X-4822.26 Y510.217 Z8066.176 A8126.264
X-4790.43 Y510.266 Z8066.172 A8131.994
X-4758.599 Y510.192 Z8066.177 A8137.723
X-4726.768 Y510.241 Z8066.174 A8143.453
X-4694.937 Y510.167 Z8066.179 A8149.182
X-4663.106 Y510.216 Z8066.176 A8154.912
X-4631.276 Y510.265 Z8066.173 A8160.642
X-4599.445 Y510.191 Z8066.178 A8166.371
X-4567.614 Y510.241 Z8066.175 A8172.101
X-4535.783 Y510.167 Z8066.18 A8177.83
X-4503.952 Y510.216 Z8066.177 A8183.56
X-4472.122 Y510.265 Z8066.172 A8189.29
X-4440.291 Y510.191 Z8066.177 A8195.019
X-4408.46 Y510.24 Z8066.174 A8200.749
X-4376.629 Y510.167 Z8066.179 A8206.478
X-4344.799 Y510.216 Z8066.176 A8212.208
X-4312.968 Y510.265 Z8066.174 A8217.938
X-4281.137 Y510.192 Z8066.178 A8223.667
X-4249.306 Y510.241 Z8066.175 A8229.397
X-4217.475 Y510.168 Z8066.181 A8235.126
X-4185.645 Y510.217 Z8066.178 A8240.856
X-4153.814 Y510.266 Z8066.175 A8246.586
X-4121.983 Y510.192 Z8066.18 A8252.315
X-4090.152 Y510.241 Z8066.177 A8258.045
X-4058.321 Y510.168 Z8066.181 A8263.774
X-4026.491 Y510.217 Z8066.178 A8269.504
X-3994.66 Y510.266 Z8066.173 A8275.234
X-3968.168 Y531.738 Z8071.988 A8279.999
X-3936.337 Y531.788 Z8071.985 A8285.729
X-3904.506 Y531.714 Z8071.99 A8291.458
X-3872.675 Y531.763 Z8071.986 A8297.188
X-3840.844 Y531.812 Z8071.984 A8302.918
X-3809.013 Y531.738 Z8071.988 A8308.647
X-3777.182 Y531.787 Z8071.985 A8314.377
X-3745.351 Y531.714 Z8071.989 A8320.106
X-3713.52 Y531.763 Z8071.986 A8325.836
X-3681.689 Y531.812 Z8071.983 A8331.566
X-3649.858 Y531.738 Z8071.989 A8337.295
X-3618.027 Y531.787 Z8071.986 A8343.025
X-3586.196 Y531.713 Z8071.99 A8348.754
X-3554.365 Y531.763 Z8071.989 A8354.484
X-3522.534 Y531.812 Z8071.986 A8360.214
X-3490.703 Y531.738 Z8071.99 A8365.943
X-3458.948 Y524.476 Z8070.276 A8371.659
X-3458.872 Y511.958 Z8143.883 A8371.673
X-3427.041 Y385.387 Z8602.522 A8377.402
X-3395.21 Y274.365 Z9005.251 A8383.132
X-3363.379 Y179.898 Z9347.969 A8388.862
X-3331.548 Y102.795 Z9627.216 A8394.591
X-3299.717 Y44.089 Z9840.284 A8400.321
X-3267.886 Y4.088 Z9984.98 A8406.05
X-3236.055 Y0.007 Z10000.003 A8411.78
X-3204.224 Y0.069 A8417.51
X-3172.393 Y0.508 Z9998.081 A8423.239
G01 X-3140.562 Y38.116 Z9861.944 A8428.969
X-3108.731 Y94.476 Z9657.272 A8434.698
X-3076.9 Y169.339 Z9386.05 A8440.428
X-3045.068 Y261.8 Z9051.011 A8446.158
X-3013.238 Y370.783 Z8655.571 A8451.887
X-2981.407 Y495.5 Z8203.559 A8457.617
X-2973.096 Y541.043 Z8067.109 A8459.113
G00 X-2949.576 Y531.714 Z8071.993 A8463.346
X-2917.745 Y531.763 Z8071.99 A8469.076
X-2885.914 Y531.812 Z8071.987 A8474.806
X-2854.083 Y531.738 Z8071.992 A8480.535
X-2822.252 Y531.788 Z8071.99 A8486.265
X-2790.421 Y531.714 Z8071.993 A8491.994
X-2758.589 Y531.763 Z8071.99 A8497.724
X-2726.758 Y531.811 Z8071.987 A8503.453
X-2694.927 Y531.738 Z8071.992 A8509.182
X-2663.096 Y531.787 Z8071.99 A8514.912
X-2631.265 Y531.713 Z8071.994 A8520.641
X-2599.434 Y531.762 Z8071.992 A8526.371
X-2567.603 Y531.812 Z8071.989 A8532.101
X-2535.772 Y531.738 Z8071.992 A8537.83
X-2503.941 Y531.787 Z8071.99 A8543.56
X-2472.11 Y531.713 Z8071.993 A8549.289
X-2440.279 Y531.762 Z8071.991 A8555.019
X-2408.448 Y531.811 Z8071.988 A8560.749
X-2376.617 Y531.737 Z8071.992 A8566.478
X-2344.786 Y531.786 Z8071.99 A8572.208
X-2312.955 Y531.713 Z8071.994 A8577.937
X-2281.124 Y531.763 Z8071.991 A8583.667
X-2249.293 Y531.813 Z8071.989 A8589.397
X-2217.462 Y531.738 Z8071.993 A8595.126
X-2185.631 Y531.788 Z8071.99 A8600.856
X-2153.8 Y531.713 Z8071.995 A8606.585
X-2121.969 Y531.763 Z8071.993 A8612.315
X-2090.138 Y531.812 Z8071.99 A8618.045
X-2058.307 Y531.738 Z8071.994 A8623.774
X-2026.476 Y531.788 Z8071.99 A8629.504
X-1994.645 Y531.714 Z8071.995 A8635.233
X-1968.168 Y553.109 Z8078.002 A8640
X-1936.337 Y553.158 Z8077.999 A8645.729
X-1904.506 Y553.084 Z8078.004 A8651.459
X-1872.675 Y553.133 Z8078.001 A8657.188
X-1840.844 Y553.059 Z8078.006 A8662.917
X-1809.013 Y553.108 Z8078.002 A8668.647
X-1777.182 Y553.158 Z8077.999 A8674.377
X-1745.351 Y553.084 Z8078.004 A8680.106
X-1713.52 Y553.133 Z8078.001 A8685.836
X-1681.689 Y553.059 Z8078.005 A8691.565
X-1649.858 Y553.108 Z8078.002 A8697.295
X-1618.027 Y553.158 Z8078 A8703.025
X-1586.196 Y553.084 Z8078.005 A8708.754
X-1554.365 Y553.133 Z8078.002 A8714.484
X-1522.534 Y553.059 Z8078.007 A8720.213
X-1490.703 Y553.108 Z8078.004 A8725.943
X-1458.872 Y553.157 Z8078.001 A8731.673
X-1427.591 Y500.865 Z8064.997 A8737.303
X-1427.041 Y402.135 Z8602.536 A8737.402
X-1395.21 Y286.293 Z9005.261 A8743.132
X-1363.379 Y187.597 Z9347.93 A8748.861
X-1331.548 Y107.28 Z9627.222 A8754.591
X-1299.717 Y46.024 Z9840.289 A8760.321
X-1267.886 Y4.293 Z9984.983 A8766.05
X-1236.055 Y0.033 Z10000.003 A8771.78
X-1204.224 Y-0.058 A8777.509
X-1172.393 Y0.557 Z9998.078 A8783.239
G01 X-1140.562 Y39.795 Z9861.939 A8788.969
X-1108.731 Y98.605 Z9657.266 A8794.698
X-1076.9 Y176.715 Z9386.041 A8800.428
X-1045.069 Y273.032 Z9051.058 A8806.157
X-1013.238 Y386.902 Z8655.56 A8811.887
X-981.407 Y517.03 Z8203.548 A8817.617
X-978.023 Y563.991 Z8077.834 A8818.225
G00 X-949.576 Y553.084 Z8078.008 A8823.346
X-917.745 Y553.133 Z8078.004 A8829.076
X-885.914 Y553.059 Z8078.01 A8834.805
X-854.083 Y553.108 Z8078.006 A8840.535
X-822.252 Y553.158 Z8078.004 A8846.265
X-790.421 Y553.083 Z8078.008 A8851.994
X-758.59 Y553.133 Z8078.005 A8857.724
X-726.759 Y553.059 Z8078.01 A8863.453
X-694.928 Y553.108 Z8078.006 A8869.183
X-663.097 Y553.157 Z8078.002 A8874.913
X-631.266 Y553.083 Z8078.009 A8880.642
X-599.435 Y553.132 Z8078.006 A8886.372
X-567.604 Y553.058 Z8078.011 A8892.101
X-535.773 Y553.108 Z8078.007 A8897.831
X-503.942 Y553.157 Z8078.004 A8903.56
X-472.111 Y553.083 Z8078.007 A8909.29
X-440.28 Y553.132 Z8078.005 A8915.019
X-408.449 Y553.058 Z8078.01 A8920.748
X-376.618 Y553.108 Z8078.007 A8926.478
X-344.787 Y553.157 Z8078.003 A8932.208
X-312.956 Y553.083 Z8078.009 A8937.937
X-281.125 Y553.133 Z8078.005 A8943.667
X-249.294 Y553.059 Z8078.012 A8949.396
X-217.463 Y553.108 Z8078.008 A8955.126
X-185.632 Y553.158 Z8078.004 A8960.856
X-153.801 Y553.084 Z8078.01 A8966.585
X-121.97 Y553.133 Z8078.007 A8972.315
X-90.139 Y553.059 Z8078.012 A8978.044
X-58.308 Y553.108 Z8078.008 A8983.774
X-26.477 Y553.158 Z8078.004 A8989.504
X5.353 Y553.084 Z8078.009 A8995.233
X31.83 Y574.273 Z8084.212 A9000
X63.661 Y574.199 Z8084.218 A9005.729
X95.492 Y574.249 Z8084.213 A9011.459
X127.323 Y574.298 Z8084.21 A9017.189
X159.154 Y574.224 Z8084.216 A9022.918
X190.985 Y574.273 Z8084.212 A9028.648
X222.816 Y574.199 Z8084.217 A9034.377
X254.647 Y574.248 Z8084.214 A9040.107
X286.478 Y574.298 Z8084.21 A9045.836
X318.309 Y574.223 Z8084.215 A9051.566
X350.14 Y574.272 Z8084.213 A9057.295
X381.971 Y574.198 Z8084.218 A9063.025
X413.802 Y574.248 Z8084.215 A9068.754
X445.633 Y574.297 Z8084.212 A9074.484
X477.464 Y574.223 Z8084.218 A9080.213
X509.295 Y574.273 Z8084.215 A9085.943
X541.126 Y574.199 Z8084.22 A9091.672
X572.957 Y574.248 Z8084.217 A9097.402
X604.788 Y574.297 Z8084.213 A9103.132
X636.619 Y574.223 Z8084.219 A9108.861
X668.45 Y574.273 Z8084.216 A9114.591
X698.503 Y406.224 Z8039.823 A9120
X700.281 Y47.818 Z9840.265 A9120.32
X732.112 Y4.499 Z9984.987 A9126.05
X763.943 Y0.058 Z10000.003 A9131.78
X795.774 Y-0.033 A9137.509
X827.605 Y0.607 Z9998.075 A9143.239
G01 X859.436 Y415.768 Z8612.76 A9148.968
X865.508 Y616.334 Z8092.098 A9150.062
G00 X891.267 Y574.249 Z8084.218 A9154.698
X923.098 Y574.298 Z8084.213 A9160.428
X954.929 Y574.224 Z8084.219 A9166.157
X986.76 Y574.273 Z8084.216 A9171.887
X1018.591 Y574.199 Z8084.221 A9177.616
X1050.422 Y574.249 Z8084.218 A9183.346
X1082.253 Y574.298 Z8084.215 A9189.076
X1114.084 Y574.224 Z8084.219 A9194.805
X1145.915 Y574.273 Z8084.216 A9200.535
X1177.746 Y574.199 Z8084.222 A9206.264
X1209.577 Y574.249 Z8084.218 A9211.994
X1241.408 Y574.297 Z8084.215 A9217.724
X1273.239 Y574.223 Z8084.22 A9223.453
X1305.07 Y574.272 Z8084.217 A9229.183
X1336.901 Y574.198 Z8084.222 A9234.912
X1368.732 Y574.248 Z8084.218 A9240.642
X1400.563 Y574.297 Z8084.216 A9246.372
X1432.394 Y574.223 Z8084.22 A9252.101
X1464.225 Y574.272 Z8084.217 A9257.831
X1496.056 Y574.198 Z8084.222 A9263.56
X1527.887 Y574.248 Z8084.218 A9269.29
X1559.718 Y574.297 Z8084.215 A9275.02
X1591.549 Y574.223 Z8084.22 A9280.749
X1623.38 Y574.272 Z8084.217 A9286.479
X1655.211 Y574.198 Z8084.222 A9292.208
X1687.042 Y574.248 Z8084.218 A9297.938
X1718.873 Y574.298 Z8084.216 A9303.667
X1750.704 Y574.224 Z8084.22 A9309.397
X1782.535 Y574.273 Z8084.218 A9315.126
X1814.366 Y574.199 Z8084.222 A9320.856
X1846.197 Y574.248 Z8084.22 A9326.585
X1878.028 Y574.297 Z8084.217 A9332.315
X1909.86 Y574.223 Z8084.222 A9338.044
X1941.691 Y574.273 Z8084.218 A9343.774
X1973.522 Y574.199 Z8084.223 A9349.503
X2005.352 Y574.248 Z8084.218 A9355.233
X2031.831 Y595.227 Z8090.61 A9360
X2063.662 Y595.153 Z8090.616 A9365.729
X2095.493 Y595.202 Z8090.612 A9371.459
X2127.324 Y595.128 Z8090.617 A9377.188
X2159.155 Y595.178 Z8090.614 A9382.918
X2190.986 Y595.227 Z8090.61 A9388.648
X2222.817 Y595.152 Z8090.616 A9394.377
X2254.648 Y595.202 Z8090.612 A9400.107
X2286.479 Y595.128 Z8090.618 A9405.836
X2318.31 Y595.176 Z8090.614 A9411.566
X2350.141 Y595.226 Z8090.61 A9417.296
X2381.972 Y595.153 Z8090.617 A9423.025
X2413.803 Y595.202 Z8090.613 A9428.755
X2445.634 Y595.128 Z8090.619 A9434.484
X2477.465 Y595.177 Z8090.616 A9440.214
X2509.296 Y595.226 Z8090.612 A9445.943
X2541.127 Y595.152 Z8090.618 A9451.673
X2572.958 Y595.202 Z8090.615 A9457.402
X2604.789 Y595.128 Z8090.621 A9463.132
X2636.62 Y595.177 Z8090.617 A9468.861
X2668.451 Y595.227 Z8090.613 A9474.591
X2700.282 Y595.152 Z8090.619 A9480.32
X2732.113 Y595.202 Z8090.616 A9486.05
X2763.944 Y595.128 Z8090.62 A9491.779
X2795.775 Y595.177 Z8090.618 A9497.509
X2827.606 Y595.227 Z8090.614 A9503.239
X2859.437 Y595.154 Z8090.618 A9508.968
X2891.268 Y595.203 Z8090.615 A9514.698
X2923.099 Y595.128 Z8090.62 A9520.427
X2954.93 Y595.178 Z8090.618 A9526.157
X2986.761 Y595.227 Z8090.614 A9531.887
X3018.592 Y595.153 Z8090.62 A9537.616
X3050.423 Y595.202 Z8090.616 A9543.346
X3082.254 Y595.128 Z8090.621 A9549.075
X3114.085 Y595.178 Z8090.618 A9554.805
X3145.916 Y595.227 Z8090.614 A9560.535
X3177.747 Y595.153 Z8090.62 A9566.264
X3209.578 Y595.202 Z8090.616 A9571.994
X3241.41 Y595.128 Z8090.621 A9577.723
X3273.241 Y595.177 Z8090.618 A9583.453
X3305.072 Y595.227 Z8090.615 A9589.183
X3336.903 Y595.152 Z8090.62 A9594.912
X3368.734 Y595.201 Z8090.618 A9600.642
X3400.565 Y595.127 Z8090.623 A9606.371
X3432.396 Y595.177 Z8090.619 A9612.101
X3464.227 Y595.226 Z8090.615 A9617.831
X3496.058 Y595.152 Z8090.621 A9623.56
X3527.889 Y595.201 Z8090.616 A9629.29
X3559.72 Y595.127 Z8090.621 A9635.019
X3591.551 Y595.176 Z8090.619 A9640.749
X3623.382 Y595.226 Z8090.615 A9646.479
X3655.213 Y595.152 Z8090.62 A9652.208
X3687.044 Y595.202 Z8090.617 A9657.938
X3718.875 Y595.128 Z8090.622 A9663.667
X3750.706 Y595.178 Z8090.62 A9669.397
X3782.537 Y595.227 Z8090.616 A9675.127
X3814.368 Y595.154 Z8090.621 A9680.856
X3846.199 Y595.202 Z8090.619 A9686.586
X3878.03 Y595.128 Z8090.624 A9692.315
X3909.861 Y595.177 Z8090.62 A9698.045
X3941.692 Y595.227 Z8090.617 A9703.774
X3973.523 Y595.153 Z8090.621 A9709.504
X4005.354 Y595.202 Z8090.617 A9715.233
X4031.83 Y615.842 Z8097.2 A9719.999
X4063.661 Y615.892 Z8097.196 A9725.729
X4095.492 Y615.941 Z8097.192 A9731.459
X4127.323 Y615.867 Z8097.197 A9737.188
X4159.153 Y615.917 Z8097.194 A9742.918
X4190.984 Y615.842 Z8097.199 A9748.647
X4222.815 Y615.891 Z8097.196 A9754.377
X4254.646 Y615.941 Z8097.192 A9760.107
X4286.477 Y615.867 Z8097.198 A9765.836
X4318.307 Y615.916 Z8097.194 A9771.566
X4350.138 Y615.842 Z8097.2 A9777.295
X4381.969 Y615.891 Z8097.197 A9783.025
X4413.8 Y615.941 Z8097.194 A9788.755
X4445.631 Y615.867 Z8097.2 A9794.484
X4477.461 Y615.916 Z8097.196 A9800.214
X4509.292 Y615.842 Z8097.201 A9805.943
X4541.123 Y615.891 Z8097.199 A9811.673
X4572.954 Y615.94 Z8097.195 A9817.403
X4604.784 Y615.866 Z8097.201 A9823.132
X4636.615 Y615.916 Z8097.197 A9828.862
X4668.446 Y615.842 Z8097.204 A9834.591
X4700.277 Y615.891 Z8097.199 A9840.321
X4732.108 Y615.941 Z8097.195 A9846.051
X4763.938 Y615.867 Z8097.202 A9851.78
X4795.769 Y615.916 Z8097.197 A9857.509
X4827.6 Y615.843 Z8097.203 A9863.239
X4859.431 Y615.892 Z8097.199 A9868.968
X4891.262 Y615.942 Z8097.195 A9874.698
X4923.092 Y615.867 Z8097.201 A9880.427
X4954.923 Y615.917 Z8097.198 A9886.157
X4986.754 Y615.842 Z8097.204 A9891.886
X5018.585 Y615.892 Z8097.2 A9897.616
X5050.415 Y615.941 Z8097.196 A9903.346
X5082.246 Y615.867 Z8097.202 A9909.075
X5114.077 Y615.916 Z8097.198 A9914.805
X5145.908 Y615.842 Z8097.203 A9920.534
X5177.739 Y615.892 Z8097.2 A9926.264
X5209.569 Y615.941 Z8097.196 A9931.994
X5241.4 Y615.867 Z8097.202 A9937.723
X5273.231 Y615.916 Z8097.198 A9943.453
X5305.062 Y615.842 Z8097.204 A9949.182
X5336.893 Y615.891 Z8097.2 A9954.912
X5368.723 Y615.94 Z8097.197 A9960.642
X5400.554 Y615.866 Z8097.203 A9966.371
X5432.385 Y615.916 Z8097.2 A9972.101
X5464.216 Y615.841 Z8097.205 A9977.83
X5496.047 Y615.891 Z8097.201 A9983.56
X5527.877 Y615.94 Z8097.197 A9989.29
X5559.708 Y615.866 Z8097.203 A9995.019
X5591.539 Y615.915 Z8097.198 A10000.749
X5623.37 Y615.841 Z8097.204 A10006.478
X5655.2 Y615.891 Z8097.201 A10012.208
X5687.031 Y615.941 Z8097.197 A10017.938
X5718.862 Y615.867 Z8097.203 A10023.667
X5750.693 Y615.916 Z8097.2 A10029.397
X5782.524 Y615.843 Z8097.206 A10035.126
X5814.354 Y615.892 Z8097.202 A10040.856
X5846.185 Y615.941 Z8097.198 A10046.586
X5878.016 Y615.867 Z8097.204 A10052.315
X5909.847 Y615.916 Z8097.2 A10058.045
X5941.678 Y615.842 Z8097.207 A10063.774
X5973.508 Y615.892 Z8097.202 A10069.504
X6005.339 Y615.941 Z8097.197 A10075.234
X6031.83 Y636.361 Z8103.955 A10079.999
X6063.661 Y636.411 Z8103.951 A10085.729
X6095.492 Y636.46 Z8103.947 A10091.459
X6127.323 Y636.386 Z8103.953 A10097.188
X6159.153 Y636.435 Z8103.95 A10102.918
X6190.984 Y636.361 Z8103.955 A10108.647
X6222.815 Y636.41 Z8103.952 A10114.377
X6254.646 Y636.46 Z8103.948 A10120.107
X6286.477 Y636.386 Z8103.954 A10125.836
X6318.307 Y636.435 Z8103.95 A10131.566
X6350.138 Y636.36 Z8103.956 A10137.295
X6381.969 Y636.41 Z8103.953 A10143.025
X6413.8 Y636.46 Z8103.949 A10148.755
X6445.631 Y636.386 Z8103.956 A10154.484
X6477.461 Y636.435 Z8103.952 A10160.214
X6509.292 Y636.361 Z8103.958 A10165.943
X6541.123 Y636.41 Z8103.955 A10171.673
X6572.954 Y636.46 Z8103.95 A10177.403
X6604.784 Y636.386 Z8103.957 A10183.132
X6636.615 Y636.435 Z8103.953 A10188.862
X6668.446 Y636.361 Z8103.96 A10194.591
X6700.277 Y636.41 Z8103.955 A10200.321
X6732.108 Y636.46 Z8103.95 A10206.051
X6763.938 Y636.386 Z8103.957 A10211.78
X6795.769 Y636.435 Z8103.954 A10217.51
X6827.6 Y636.361 Z8103.96 A10223.239
X6859.431 Y636.41 Z8103.955 A10228.969
X6891.262 Y636.46 Z8103.951 A10234.699
X6923.092 Y636.386 Z8103.957 A10240.428
X6954.923 Y636.435 Z8103.954 A10246.158
X6986.754 Y636.361 Z8103.96 A10251.887
X7018.585 Y636.411 Z8103.956 A10257.617
X7050.415 Y636.46 Z8103.951 A10263.346
X7082.246 Y636.386 Z8103.957 A10269.075
X7114.077 Y636.435 Z8103.954 A10274.805
X7145.908 Y636.361 Z8103.959 A10280.534
X7177.739 Y636.411 Z8103.956 A10286.264
X7209.569 Y636.46 Z8103.952 A10291.994
X7241.4 Y636.385 Z8103.958 A10297.723
X7273.231 Y636.434 Z8103.954 A10303.453
X7305.062 Y636.36 Z8103.96 A10309.182
X7336.893 Y636.41 Z8103.956 A10314.912
X7368.723 Y636.46 Z8103.952 A10320.642
X7400.554 Y636.385 Z8103.959 A10326.371
X7432.385 Y636.435 Z8103.955 A10332.101
X7464.216 Y636.361 Z8103.96 A10337.83
X7496.047 Y636.41 Z8103.956 A10343.56
X7527.877 Y636.459 Z8103.952 A10349.29
X7559.708 Y636.385 Z8103.958 A10355.019
X7591.539 Y636.434 Z8103.954 A10360.749
X7623.37 Y636.36 Z8103.96 A10366.478
X7655.2 Y636.409 Z8103.957 A10372.208
X7687.031 Y636.459 Z8103.953 A10377.938
X7718.862 Y636.386 Z8103.959 A10383.667
X7750.693 Y636.435 Z8103.956 A10389.397
X7782.524 Y636.361 Z8103.961 A10395.126
X7814.354 Y636.41 Z8103.958 A10400.856
X7846.185 Y636.46 Z8103.954 A10406.586
X7878.016 Y636.385 Z8103.96 A10412.315
X7909.847 Y636.435 Z8103.956 A10418.045
X7941.678 Y636.361 Z8103.962 A10423.774
X7973.508 Y636.41 Z8103.957 A10429.504
X8005.339 Y636.46 Z8103.953 A10435.234
X8031.83 Y656.657 Z8110.879 A10439.999
X8063.661 Y656.706 Z8110.875 A10445.729
X8095.492 Y656.632 Z8110.882 A10451.458
X8127.323 Y656.681 Z8110.877 A10457.188
X8159.153 Y656.731 Z8110.875 A10462.918
X8190.984 Y656.656 Z8110.879 A10468.647
X8222.815 Y656.705 Z8110.876 A10474.377
X8254.646 Y656.631 Z8110.881 A10480.106
X8286.477 Y656.681 Z8110.877 A10485.836
X8318.307 Y656.73 Z8110.874 A10491.566
X8350.138 Y656.656 Z8110.88 A10497.295
X8381.969 Y656.706 Z8110.877 A10503.025
X8413.8 Y656.631 Z8110.883 A10508.754
X8445.631 Y656.681 Z8110.879 A10514.484
X8477.461 Y656.73 Z8110.876 A10520.214
X8509.292 Y656.656 Z8110.882 A10525.943
X8541.123 Y656.705 Z8110.877 A10531.673
X8572.954 Y656.631 Z8110.884 A10537.402
X8604.784 Y656.681 Z8110.881 A10543.132
X8636.615 Y656.73 Z8110.877 A10548.862
X8668.446 Y656.656 Z8110.883 A10554.591
X8700.277 Y656.705 Z8110.879 A10560.321
X8732.108 Y656.632 Z8110.885 A10566.05
X8763.938 Y656.681 Z8110.881 A10571.78
X8795.769 Y656.731 Z8110.877 A10577.51
X8827.6 Y656.657 Z8110.883 A10583.239
X8859.431 Y656.706 Z8110.879 A10588.969
X8891.262 Y656.632 Z8110.885 A10594.698
X8923.092 Y656.682 Z8110.881 A10600.428
X8954.923 Y656.731 Z8110.878 A10606.158
X8986.754 Y656.657 Z8110.883 A10611.887
X9018.585 Y656.706 Z8110.88 A10617.617
X9050.415 Y656.632 Z8110.886 A10623.346
X9082.246 Y656.681 Z8110.882 A10629.076
X9114.077 Y656.731 Z8110.877 A10634.806
X9145.908 Y656.657 Z8110.884 A10640.535
X9177.739 Y656.706 Z8110.881 A10646.265
X9209.569 Y656.632 Z8110.886 A10651.994
X9241.4 Y656.681 Z8110.881 A10657.724
X9273.231 Y656.73 Z8110.878 A10663.453
X9305.062 Y656.655 Z8110.885 A10669.182
X9336.893 Y656.706 Z8110.88 A10674.912
X9368.723 Y656.631 Z8110.887 A10680.641
X9400.554 Y656.681 Z8110.883 A10686.371
X9432.385 Y656.73 Z8110.879 A10692.101
X9464.216 Y656.656 Z8110.885 A10697.83
X9496.047 Y656.705 Z8110.88 A10703.56
X9527.877 Y656.631 Z8110.885 A10709.289
X9559.708 Y656.681 Z8110.883 A10715.019
X9591.539 Y656.73 Z8110.879 A10720.749
X9623.37 Y656.656 Z8110.884 A10726.478
X9655.2 Y656.705 Z8110.881 A10732.208
X9687.031 Y656.631 Z8110.887 A10737.937
X9718.862 Y656.681 Z8110.883 A10743.667
X9750.693 Y656.731 Z8110.88 A10749.397
X9782.524 Y656.657 Z8110.885 A10755.126
X9814.354 Y656.706 Z8110.882 A10760.856
X9846.185 Y656.632 Z8110.888 A10766.585
X9878.016 Y656.681 Z8110.885 A10772.315
X9909.847 Y656.731 Z8110.88 A10778.045
X9941.678 Y656.657 Z8110.886 A10783.774
X9973.508 Y656.706 Z8110.881 A10789.504
X10005.339 Y656.632 Z8110.887 A10795.233
X10031.83 Y676.725 Z8117.967 A10800
X10063.661 Y676.774 Z8117.962 A10805.729
X10095.492 Y676.7 Z8117.969 A10811.459
X10127.323 Y676.75 Z8117.964 A10817.188
X10159.153 Y676.675 Z8117.971 A10822.917
X10190.984 Y676.725 Z8117.966 A10828.647
X10222.815 Y676.774 Z8117.962 A10834.377
X10254.646 Y676.699 Z8117.968 A10840.106
X10286.477 Y676.749 Z8117.963 A10845.836
X10318.307 Y676.675 Z8117.971 A10851.565
X10350.138 Y676.724 Z8117.967 A10857.295
X10381.969 Y676.774 Z8117.963 A10863.025
X10413.8 Y676.7 Z8117.969 A10868.754
X10445.631 Y676.75 Z8117.966 A10874.484
X10477.461 Y676.675 Z8117.973 A10880.213
X10509.292 Y676.724 Z8117.969 A10885.943
X10541.123 Y676.774 Z8117.965 A10891.673
X10572.954 Y676.699 Z8117.971 A10897.402
X10604.784 Y676.749 Z8117.968 A10903.132
X10636.615 Y676.675 Z8117.974 A10908.861
X10668.446 Y676.724 Z8117.97 A10914.591
X10700.277 Y676.774 Z8117.965 A10920.321
X10732.108 Y676.7 Z8117.971 A10926.05
X10763.938 Y676.749 Z8117.968 A10931.78
X10795.769 Y676.675 Z8117.975 A10937.509
X10827.6 Y676.725 Z8117.97 A10943.239
X10859.431 Y676.775 Z8117.965 A10948.969
X10891.262 Y676.7 Z8117.972 A10954.698
X10923.092 Y676.749 Z8117.968 A10960.428
X10954.923 Y676.675 Z8117.975 A10966.157
X10986.754 Y676.725 Z8117.97 A10971.887
X11018.585 Y676.774 Z8117.966 A10977.617
X11050.415 Y676.7 Z8117.973 A10983.346
X11082.246 Y676.749 Z8117.968 A10989.076
X11114.077 Y676.675 Z8117.975 A10994.805
X11145.908 Y676.725 Z8117.97 A11000.535
X11177.739 Y676.774 Z8117.967 A11006.265
X11209.569 Y676.7 Z8117.973 A11011.994
X11241.4 Y676.749 Z8117.969 A11017.724
X11273.231 Y676.674 Z8117.975 A11023.453
X11305.062 Y676.724 Z8117.971 A11029.183
X11336.893 Y676.774 Z8117.966 A11034.913
X11368.723 Y676.699 Z8117.974 A11040.642
X11400.554 Y676.749 Z8117.97 A11046.372
X11432.385 Y676.674 Z8117.977 A11052.101
X11464.216 Y676.724 Z8117.972 A11057.831
X11496.047 Y676.773 Z8117.967 A11063.56
X11527.877 Y676.699 Z8117.973 A11069.29
X11559.708 Y676.748 Z8117.969 A11075.019
X11591.539 Y676.674 Z8117.976 A11080.748
X11623.37 Y676.724 Z8117.971 A11086.478
X11655.2 Y676.773 Z8117.967 A11092.208
X11687.031 Y676.699 Z8117.974 A11097.937
X11718.862 Y676.749 Z8117.97 A11103.667
X11750.693 Y676.675 Z8117.977 A11109.396
X11782.524 Y676.725 Z8117.973 A11115.126
X11814.354 Y676.774 Z8117.969 A11120.856
X11846.185 Y676.7 Z8117.975 A11126.585
X11878.016 Y676.749 Z8117.971 A11132.315
X11909.847 Y676.675 Z8117.978 A11138.044
X11941.678 Y676.724 Z8117.973 A11143.774
X11973.508 Y676.774 Z8117.968 A11149.504
X12005.339 Y676.7 Z8117.974 A11155.233
X12031.83 Y696.563 Z8125.208 A11160
X12063.661 Y696.488 Z8125.215 A11165.729
X12095.492 Y696.538 Z8125.21 A11171.459
X12127.323 Y696.587 Z8125.205 A11177.189
X12159.153 Y696.512 Z8125.213 A11182.918
X12190.984 Y696.562 Z8125.208 A11188.648
X12222.815 Y696.487 Z8125.215 A11194.377
X12254.646 Y696.537 Z8125.211 A11200.107
X12286.477 Y696.587 Z8125.205 A11205.836
X12318.307 Y696.512 Z8125.212 A11211.566
X12350.138 Y696.562 Z8125.209 A11217.295
X12381.969 Y696.487 Z8125.216 A11223.025
X12413.8 Y696.537 Z8125.211 A11228.754
X12445.631 Y696.587 Z8125.207 A11234.484
X12477.461 Y696.512 Z8125.215 A11240.213
X12509.292 Y696.562 Z8125.211 A11245.943
X12541.123 Y696.487 Z8125.218 A11251.672
X12572.954 Y696.537 Z8125.214 A11257.402
X12604.784 Y696.587 Z8125.21 A11263.132
X12636.615 Y696.512 Z8125.216 A11268.861
X12668.446 Y696.562 Z8125.212 A11274.591
X12700.277 Y696.488 Z8125.218 A11280.32
X12732.108 Y696.537 Z8125.214 A11286.05
X12763.938 Y696.588 Z8125.21 A11291.78
X12795.769 Y696.512 Z8125.217 A11297.509
X12827.6 Y696.562 Z8125.213 A11303.239
X12859.431 Y696.488 Z8125.219 A11308.968
X12891.262 Y696.538 Z8125.214 A11314.698
X12923.092 Y696.587 Z8125.21 A11320.428
X12954.923 Y696.513 Z8125.218 A11326.157
X12986.754 Y696.562 Z8125.212 A11331.887
X13018.585 Y696.488 Z8125.219 A11337.616
X13050.415 Y696.538 Z8125.215 A11343.346
X13082.246 Y696.587 Z8125.211 A11349.076
X13114.077 Y696.513 Z8125.217 A11354.805
X13145.908 Y696.562 Z8125.212 A11360.535
X13177.739 Y696.488 Z8125.22 A11366.264
X13209.569 Y696.537 Z8125.215 A11371.994
X13241.4 Y696.586 Z8125.211 A11377.724
X13273.231 Y696.512 Z8125.217 A11383.453
X13305.062 Y696.561 Z8125.213 A11389.183
X13336.893 Y696.487 Z8125.22 A11394.912
X13368.723 Y696.537 Z8125.216 A11400.642
X13400.554 Y696.587 Z8125.211 A11406.372
X13432.385 Y696.512 Z8125.219 A11412.101
X13464.216 Y696.562 Z8125.213 A11417.831
X13496.047 Y696.487 Z8125.22 A11423.56
X13527.877 Y696.537 Z8125.215 A11429.29
X13559.708 Y696.586 Z8125.211 A11435.02
X13591.539 Y696.512 Z8125.218 A11440.749
X13623.37 Y696.562 Z8125.213 A11446.479
X13655.2 Y696.487 Z8125.22 A11452.208
X13687.031 Y696.537 Z8125.215 A11457.938
X13718.862 Y696.587 Z8125.212 A11463.667
X13750.693 Y696.513 Z8125.219 A11469.397
X13782.524 Y696.563 Z8125.214 A11475.126
X13814.354 Y696.488 Z8125.221 A11480.856
X13846.185 Y696.537 Z8125.218 A11486.585
X13878.016 Y696.587 Z8125.213 A11492.315
X13909.847 Y696.512 Z8125.22 A11498.044
X13941.678 Y696.563 Z8125.215 A11503.774
X13973.508 Y696.488 Z8125.221 A11509.503
X14005.339 Y696.538 Z8125.217 A11515.233
X14031.83 Y716.167 Z8132.599 A11520
X14063.661 Y716.092 Z8132.606 A11525.729
X14095.492 Y716.142 Z8132.601 A11531.459
X14127.323 Y716.068 Z8132.608 A11537.188
X14159.153 Y716.117 Z8132.604 A11542.918
X14190.984 Y716.166 Z8132.599 A11548.648
X14222.815 Y716.091 Z8132.606 A11554.377
X14254.646 Y716.142 Z8132.601 A11560.107
X14286.477 Y716.067 Z8132.608 A11565.836
X14318.307 Y716.117 Z8132.603 A11571.566
X14350.138 Y716.166 Z8132.599 A11577.296
X14381.969 Y716.091 Z8132.607 A11583.025
X14413.8 Y716.142 Z8132.603 A11588.755
X14445.631 Y716.067 Z8132.61 A11594.484
X14477.461 Y716.117 Z8132.606 A11600.214
X14509.292 Y716.166 Z8132.602 A11605.943
X14541.123 Y716.092 Z8132.609 A11611.673
X14572.954 Y716.141 Z8132.604 A11617.402
X14604.784 Y716.067 Z8132.612 A11623.132
X14636.615 Y716.116 Z8132.608 A11628.861
X14668.446 Y716.166 Z8132.602 A11634.591
X14700.277 Y716.092 Z8132.609 A11640.32
X14732.108 Y716.141 Z8132.605 A11646.05
X14763.938 Y716.067 Z8132.612 A11651.779
X14795.769 Y716.116 Z8132.608 A11657.509
X14827.6 Y716.166 Z8132.603 A11663.239
X14859.431 Y716.093 Z8132.61 A11668.968
X14891.262 Y716.142 Z8132.605 A11674.698
X14923.092 Y716.067 Z8132.612 A11680.427
X14954.923 Y716.117 Z8132.608 A11686.157
X14986.754 Y716.167 Z8132.603 A11691.887
X15018.585 Y716.092 Z8132.61 A11697.616
X15050.415 Y716.142 Z8132.606 A11703.346
X15082.246 Y716.067 Z8132.611 A11709.075
X15114.077 Y716.117 Z8132.608 A11714.805
X15145.908 Y716.167 Z8132.603 A11720.535
X15177.739 Y716.092 Z8132.61 A11726.264
X15209.569 Y716.141 Z8132.606 A11731.994
X15241.4 Y716.067 Z8132.612 A11737.723
X15273.231 Y716.116 Z8132.608 A11743.453
X15305.062 Y716.165 Z8132.604 A11749.183
X15336.893 Y716.092 Z8132.61 A11754.912
X15368.723 Y716.141 Z8132.607 A11760.642
X15400.554 Y716.066 Z8132.614 A11766.371
X15432.385 Y716.116 Z8132.609 A11772.101
X15464.216 Y716.166 Z8132.604 A11777.831
X15496.047 Y716.091 Z8132.611 A11783.56
X15527.877 Y716.141 Z8132.606 A11789.29
X15559.708 Y716.066 Z8132.614 A11795.019
X15591.539 Y716.116 Z8132.608 A11800.749
X15623.37 Y716.166 Z8132.604 A11806.479
X15655.2 Y716.091 Z8132.611 A11812.208
X15687.031 Y716.14 Z8132.607 A11817.938
X15718.862 Y716.067 Z8132.614 A11823.667
X15750.693 Y716.116 Z8132.61 A11829.397
X15782.524 Y716.166 Z8132.605 A11835.127
X15814.354 Y716.092 Z8132.612 A11840.856
X15846.185 Y716.141 Z8132.608 A11846.586
X15878.016 Y716.067 Z8132.615 A11852.315
X15909.847 Y716.116 Z8132.61 A11858.045
X15941.678 Y716.166 Z8132.606 A11863.774
X15973.508 Y716.092 Z8132.612 A11869.504
X16005.34 Y716.142 Z8132.607 A11875.233
X16031.831 Y735.411 Z8140.143 A11879.999
X16063.663 Y735.46 Z8140.139 A11885.729
X16095.495 Y735.51 Z8140.134 A11891.459
X16127.326 Y735.435 Z8140.141 A11897.188
X16159.158 Y735.485 Z8140.137 A11902.918
X16190.99 Y735.411 Z8140.143 A11908.647
X16222.822 Y735.46 Z8140.138 A11914.377
X16254.653 Y735.51 Z8140.134 A11920.107
X16286.485 Y735.435 Z8140.141 A11925.836
X16318.317 Y735.485 Z8140.137 A11931.566
X16350.149 Y735.41 Z8140.144 A11937.295
X16381.98 Y735.46 Z8140.14 A11943.025
X16413.812 Y735.509 Z8140.135 A11948.755
X16445.644 Y735.435 Z8140.143 A11954.484
X16477.476 Y735.485 Z8140.139 A11960.214
X16509.307 Y735.41 Z8140.146 A11965.943
X16541.139 Y735.46 Z8140.142 A11971.673
X16572.971 Y735.509 Z8140.137 A11977.403
X16604.803 Y735.435 Z8140.145 A11983.132
X16636.634 Y735.485 Z8140.14 A11988.862
X16668.466 Y735.41 Z8140.148 A11994.591
X16700.298 Y735.46 Z8140.142 A12000.321
X16732.13 Y735.51 Z8140.138 A12006.051
X16763.961 Y735.435 Z8140.145 A12011.78
X16795.793 Y735.485 Z8140.14 A12017.509
X16827.625 Y735.411 Z8140.147 A12023.239
X16859.457 Y735.461 Z8140.142 A12028.968
X16891.288 Y735.51 Z8140.138 A12034.698
X16923.12 Y735.436 Z8140.145 A12040.427
X16954.952 Y735.485 Z8140.141 A12046.157
X16986.783 Y735.411 Z8140.148 A12051.886
X17018.615 Y735.46 Z8140.144 A12057.616
X17050.447 Y735.51 Z8140.138 A12063.346
X17082.279 Y735.435 Z8140.145 A12069.075
X17114.11 Y735.485 Z8140.14 A12074.805
X17145.942 Y735.411 Z8140.148 A12080.534
X17177.774 Y735.46 Z8140.144 A12086.264
X17209.606 Y735.51 Z8140.138 A12091.994
X17241.437 Y735.435 Z8140.146 A12097.723
X17273.269 Y735.484 Z8140.141 A12103.453
X17305.101 Y735.41 Z8140.148 A12109.182
X17336.933 Y735.46 Z8140.144 A12114.912
X17368.764 Y735.509 Z8140.139 A12120.642
X17400.596 Y735.435 Z8140.147 A12126.371
X17432.428 Y735.484 Z8140.142 A12132.101
X17464.26 Y735.41 Z8140.149 A12137.83
X17496.091 Y735.459 Z8140.144 A12143.56
X17527.923 Y735.509 Z8140.14 A12149.29
X17559.755 Y735.434 Z8140.146 A12155.019
X17591.587 Y735.484 Z8140.142 A12160.749
X17623.418 Y735.409 Z8140.148 A12166.478
X17655.25 Y735.459 Z8140.144 A12172.208
X17687.082 Y735.509 Z8140.139 A12177.938
X17718.914 Y735.435 Z8140.146 A12183.667
X17750.745 Y735.485 Z8140.143 A12189.397
X17782.577 Y735.41 Z8140.15 A12195.126
X17814.409 Y735.46 Z8140.145 A12200.856
X17846.24 Y735.509 Z8140.141 A12206.586
X17878.072 Y735.435 Z8140.149 A12212.315
X17909.904 Y735.485 Z8140.143 A12218.045
X17941.736 Y735.411 Z8140.15 A12223.774
X17973.567 Y735.46 Z8140.145 A12229.504
X18005.399 Y735.51 Z8140.139 A12235.234
X18031.831 Y754.54 Z8147.812 A12239.999
X18063.663 Y754.59 Z8147.808 A12245.729
X18095.495 Y754.516 Z8147.813 A12251.458
X18127.326 Y754.565 Z8147.809 A12257.188
X18159.158 Y754.615 Z8147.806 A12262.918
X18190.99 Y754.54 Z8147.811 A12268.647
X18222.822 Y754.59 Z8147.807 A12274.377
X18254.653 Y754.515 Z8147.814 A12280.106
X18286.485 Y754.565 Z8147.809 A12285.836
X18318.317 Y754.615 Z8147.806 A12291.566
X18350.149 Y754.539 Z8147.812 A12297.295
X18381.98 Y754.589 Z8147.809 A12303.025
X18413.812 Y754.515 Z8147.816 A12308.754
X18445.644 Y754.565 Z8147.811 A12314.484
X18477.476 Y754.615 Z8147.808 A12320.214
X18509.307 Y754.54 Z8147.814 A12325.943
X18541.139 Y754.59 Z8147.809 A12331.673
X18572.971 Y754.515 Z8147.817 A12337.402
X18604.803 Y754.565 Z8147.813 A12343.132
X18636.634 Y754.614 Z8147.809 A12348.862
X18668.466 Y754.54 Z8147.815 A12354.591
X18700.298 Y754.59 Z8147.811 A12360.321
X18732.13 Y754.515 Z8147.817 A12366.05
X18763.961 Y754.565 Z8147.813 A12371.78
X18795.793 Y754.615 Z8147.809 A12377.51
X18827.625 Y754.54 Z8147.816 A12383.239
X18859.457 Y754.59 Z8147.81 A12388.969
X18891.288 Y754.516 Z8147.818 A12394.698
X18923.12 Y754.565 Z8147.813 A12400.428
X18954.952 Y754.615 Z8147.809 A12406.158
X18986.783 Y754.541 Z8147.816 A12411.887
X19018.615 Y754.59 Z8147.811 A12417.617
X19050.447 Y754.516 Z8147.818 A12423.346
X19082.279 Y754.565 Z8147.814 A12429.075
X19114.11 Y754.615 Z8147.809 A12434.805
X19145.942 Y754.54 Z8147.816 A12440.534
X19177.774 Y754.59 Z8147.812 A12446.264
X19209.606 Y754.515 Z8147.818 A12451.993
X19241.437 Y754.565 Z8147.813 A12457.723
X19273.269 Y754.614 Z8147.809 A12463.453
X19305.101 Y754.539 Z8147.817 A12469.182
X19336.933 Y754.59 Z8147.811 A12474.912
X19368.764 Y754.515 Z8147.819 A12480.641
X19400.596 Y754.565 Z8147.815 A12486.371
X19432.428 Y754.614 Z8147.81 A12492.101
X19464.26 Y754.54 Z8147.817 A12497.83
X19496.091 Y754.589 Z8147.812 A12503.56
X19527.923 Y754.515 Z8147.819 A12509.289
X19559.755 Y754.564 Z8147.814 A12515.019
X19591.587 Y754.614 Z8147.809 A12520.749
X19623.418 Y754.539 Z8147.816 A12526.478
X19655.25 Y754.589 Z8147.812 A12532.208
X19687.082 Y754.515 Z8147.82 A12537.937
X19718.914 Y754.565 Z8147.815 A12543.667
X19750.745 Y754.614 Z8147.811 A12549.397
X19782.577 Y754.54 Z8147.817 A12555.126
X19814.409 Y754.59 Z8147.813 A12560.856
X19846.24 Y754.515 Z8147.821 A12566.585
X19878.072 Y754.565 Z8147.817 A12572.315
X19909.904 Y754.615 Z8147.811 A12578.045
X19941.736 Y754.54 Z8147.819 A12583.774
X19973.567 Y754.59 Z8147.813 A12589.504
X20005.399 Y754.516 Z8147.82 A12595.233
X20031.831 Y773.43 Z8155.61 A12599.999
X20063.663 Y773.479 Z8155.605 A12605.729
X20095.495 Y773.405 Z8155.611 A12611.458
X20127.326 Y773.454 Z8155.606 A12617.188
X20159.158 Y773.504 Z8155.603 A12622.918
X20190.99 Y773.429 Z8155.61 A12628.647
X20222.822 Y773.479 Z8155.605 A12634.377
X20254.653 Y773.404 Z8155.611 A12640.106
X20286.485 Y773.454 Z8155.607 A12645.836
X20318.317 Y773.504 Z8155.602 A12651.566
X20350.149 Y773.428 Z8155.61 A12657.295
X20381.98 Y773.479 Z8155.606 A12663.025
X20413.812 Y773.404 Z8155.613 A12668.754
X20445.644 Y773.454 Z8155.61 A12674.484
X20477.476 Y773.504 Z8155.605 A12680.214
X20509.307 Y773.429 Z8155.612 A12685.943
X20541.139 Y773.479 Z8155.608 A12691.673
X20572.971 Y773.404 Z8155.614 A12697.402
X20604.803 Y773.454 Z8155.611 A12703.132
X20636.634 Y773.504 Z8155.606 A12708.862
X20668.466 Y773.429 Z8155.613 A12714.591
X20700.298 Y773.479 Z8155.609 A12720.321
X20732.13 Y773.404 Z8155.616 A12726.05
X20763.961 Y773.454 Z8155.611 A12731.78
X20795.793 Y773.504 Z8155.607 A12737.51
X20827.625 Y773.43 Z8155.613 A12743.239
X20859.457 Y773.479 Z8155.609 A12748.969
X20891.288 Y773.405 Z8155.615 A12754.698
X20923.12 Y773.455 Z8155.611 A12760.428
X20954.952 Y773.504 Z8155.607 A12766.158
X20986.783 Y773.43 Z8155.613 A12771.887
X21018.615 Y773.479 Z8155.609 A12777.617
X21050.447 Y773.405 Z8155.616 A12783.346
X21082.279 Y773.454 Z8155.611 A12789.076
X21114.11 Y773.504 Z8155.606 A12794.806
X21145.942 Y773.429 Z8155.614 A12800.535
X21177.774 Y773.479 Z8155.61 A12806.265
X21209.606 Y773.405 Z8155.616 A12811.994
X21241.437 Y773.454 Z8155.611 A12817.724
X21273.269 Y773.504 Z8155.607 A12823.453
X21305.101 Y773.429 Z8155.614 A12829.183
X21336.933 Y773.479 Z8155.61 A12834.912
X21368.764 Y773.404 Z8155.617 A12840.641
X21400.596 Y773.453 Z8155.612 A12846.371
X21432.428 Y773.504 Z8155.609 A12852.101
X21464.26 Y773.429 Z8155.615 A12857.83
X21496.091 Y773.478 Z8155.61 A12863.56
X21527.923 Y773.404 Z8155.616 A12869.289
X21559.755 Y773.453 Z8155.611 A12875.019
X21591.587 Y773.503 Z8155.607 A12880.749
X21623.418 Y773.428 Z8155.613 A12886.478
X21655.25 Y773.478 Z8155.61 A12892.208
X21687.082 Y773.404 Z8155.617 A12897.937
X21718.914 Y773.454 Z8155.612 A12903.667
X21750.745 Y773.504 Z8155.609 A12909.397
X21782.577 Y773.429 Z8155.615 A12915.126
X21814.409 Y773.479 Z8155.611 A12920.856
X21846.24 Y773.404 Z8155.618 A12926.585
X21878.072 Y773.454 Z8155.614 A12932.315
X21909.904 Y773.504 Z8155.61 A12938.045
X21941.736 Y773.43 Z8155.616 A12943.774
X21973.567 Y773.479 Z8155.611 A12949.504
X22005.399 Y773.405 Z8155.618 A12955.233
X22031.831 Y792.077 Z8163.53 A12960
X22063.663 Y792.126 Z8163.525 A12965.729
X22095.495 Y792.052 Z8163.532 A12971.459
X22127.326 Y792.101 Z8163.527 A12977.188
X22159.158 Y792.026 Z8163.535 A12982.917
X22190.99 Y792.076 Z8163.53 A12988.647
X22222.822 Y792.126 Z8163.524 A12994.377
X22254.653 Y792.052 Z8163.532 A13000.106
X22286.485 Y792.101 Z8163.526 A13005.836
X22318.317 Y792.027 Z8163.534 A13011.565
X22350.149 Y792.076 Z8163.531 A13017.295
X22381.98 Y792.126 Z8163.526 A13023.025
X22413.812 Y792.052 Z8163.534 A13028.754
X22445.644 Y792.101 Z8163.529 A13034.484
X22477.476 Y792.026 Z8163.537 A13040.213
X22509.307 Y792.076 Z8163.532 A13045.943
X22541.139 Y792.126 Z8163.528 A13051.673
X22572.971 Y792.051 Z8163.535 A13057.402
X22604.803 Y792.101 Z8163.53 A13063.132
X22636.634 Y792.026 Z8163.538 A13068.861
X22668.466 Y792.076 Z8163.533 A13074.591
X22700.298 Y792.126 Z8163.528 A13080.321
X22732.13 Y792.052 Z8163.536 A13086.05
X22763.961 Y792.101 Z8163.531 A13091.78
X22795.793 Y792.027 Z8163.537 A13097.509
X22827.625 Y792.077 Z8163.534 A13103.239
X22859.457 Y792.127 Z8163.528 A13108.969
X22891.288 Y792.052 Z8163.536 A13114.698
X22923.12 Y792.102 Z8163.53 A13120.428
X22954.952 Y792.027 Z8163.539 A13126.157
X22986.783 Y792.077 Z8163.533 A13131.887
X23018.615 Y792.127 Z8163.53 A13137.617
X23050.447 Y792.052 Z8163.537 A13143.346
X23082.279 Y792.102 Z8163.532 A13149.076
X23114.11 Y792.027 Z8163.538 A13154.805
X23145.942 Y792.076 Z8163.534 A13160.535
X23177.774 Y792.127 Z8163.53 A13166.265
X23209.606 Y792.052 Z8163.537 A13171.994
X23241.437 Y792.101 Z8163.531 A13177.724
X23273.269 Y792.026 Z8163.538 A13183.453
X23305.101 Y792.076 Z8163.535 A13189.183
X23336.933 Y792.126 Z8163.53 A13194.913
X23368.764 Y792.052 Z8163.537 A13200.642
X23400.596 Y792.101 Z8163.533 A13206.372
X23432.428 Y792.026 Z8163.539 A13212.101
X23464.26 Y792.076 Z8163.535 A13217.831
X23496.091 Y792.126 Z8163.53 A13223.56
X23527.923 Y792.051 Z8163.537 A13229.29
X23559.755 Y792.101 Z8163.532 A13235.019
X23591.587 Y792.026 Z8163.538 A13240.749
X23623.418 Y792.076 Z8163.535 A13246.478
X23655.25 Y792.126 Z8163.53 A13252.208
X23687.082 Y792.051 Z8163.537 A13257.937
X23718.914 Y792.102 Z8163.533 A13263.667
X23750.745 Y792.027 Z8163.54 A13269.396
X23782.577 Y792.077 Z8163.536 A13275.126
X23814.409 Y792.127 Z8163.531 A13280.856
X23846.24 Y792.052 Z8163.538 A13286.585
X23878.072 Y792.101 Z8163.534 A13292.315
X23909.904 Y792.027 Z8163.541 A13298.044
X23941.736 Y792.077 Z8163.537 A13303.774
X23973.567 Y792.127 Z8163.531 A13309.504
X24005.399 Y792.052 Z8163.538 A13315.233
X24031.831 Y810.48 Z8171.565 A13320
X24063.663 Y810.405 Z8171.572 A13325.729
X24095.495 Y810.455 Z8171.567 A13331.459
X24127.326 Y810.504 Z8171.563 A13337.189
X24159.158 Y810.43 Z8171.571 A13342.918
X24190.99 Y810.479 Z8171.566 A13348.648
X24222.822 Y810.404 Z8171.572 A13354.377
X24254.653 Y810.454 Z8171.567 A13360.107
X24286.485 Y810.504 Z8171.563 A13365.836
X24318.317 Y810.429 Z8171.57 A13371.566
X24350.149 Y810.479 Z8171.566 A13377.295
X24381.98 Y810.405 Z8171.574 A13383.025
X24413.812 Y810.455 Z8171.569 A13388.754
X24445.644 Y810.504 Z8171.565 A13394.484
X24477.476 Y810.43 Z8171.573 A13400.213
X24509.307 Y810.479 Z8171.568 A13405.943
X24541.139 Y810.404 Z8171.575 A13411.672
X24572.971 Y810.454 Z8171.571 A13417.402
X24604.803 Y810.504 Z8171.566 A13423.132
X24636.634 Y810.429 Z8171.574 A13428.861
X24668.466 Y810.479 Z8171.568 A13434.591
X24700.298 Y810.405 Z8171.576 A13440.32
X24732.13 Y810.455 Z8171.571 A13446.05
X24763.961 Y810.505 Z8171.566 A13451.78
X24795.793 Y810.43 Z8171.573 A13457.509
X24827.625 Y810.48 Z8171.569 A13463.239
X24859.457 Y810.405 Z8171.576 A13468.968
X24891.288 Y810.455 Z8171.571 A13474.698
X24923.12 Y810.505 Z8171.566 A13480.428
X24954.952 Y810.43 Z8171.575 A13486.157
X24986.783 Y810.48 Z8171.569 A13491.887
X25018.615 Y810.405 Z8171.576 A13497.616
X25050.447 Y810.455 Z8171.571 A13503.346
X25082.279 Y810.505 Z8171.567 A13509.076
X25114.11 Y810.43 Z8171.575 A13514.805
X25145.942 Y810.48 Z8171.569 A13520.535
X25177.774 Y810.405 Z8171.577 A13526.264
X25209.606 Y810.455 Z8171.572 A13531.994
X25241.437 Y810.504 Z8171.566 A13537.724
X25273.269 Y810.429 Z8171.574 A13543.453
X25305.101 Y810.479 Z8171.569 A13549.183
X25336.933 Y810.405 Z8171.578 A13554.912
X25368.764 Y810.454 Z8171.573 A13560.642
X25400.596 Y810.504 Z8171.568 A13566.372
X25432.428 Y810.429 Z8171.576 A13572.101
X25464.26 Y810.479 Z8171.571 A13577.831
X25496.091 Y810.404 Z8171.579 A13583.56
X25527.923 Y810.454 Z8171.571 A13589.29
X25559.755 Y810.504 Z8171.568 A13595.02
X25591.587 Y810.429 Z8171.576 A13600.749
X25623.418 Y810.479 Z8171.57 A13606.479
X25655.25 Y810.404 Z8171.578 A13612.208
X25687.082 Y810.454 Z8171.573 A13617.938
X25718.914 Y810.504 Z8171.568 A13623.667
X25750.745 Y810.43 Z8171.576 A13629.397
X25782.577 Y810.48 Z8171.571 A13635.126
X25814.409 Y810.405 Z8171.578 A13640.856
X25846.24 Y810.455 Z8171.574 A13646.585
X25878.072 Y810.504 Z8171.569 A13652.315
X25909.904 Y810.43 Z8171.577 A13658.044
X25941.736 Y810.48 Z8171.572 A13663.774
X25973.567 Y810.405 Z8171.579 A13669.503
X26005.399 Y810.455 Z8171.574 A13675.233
X26031.831 Y828.638 Z8179.711 A13680
X26063.663 Y828.563 Z8179.718 A13685.729
X26095.495 Y828.613 Z8179.714 A13691.459
X26127.326 Y828.538 Z8179.72 A13697.188
X26159.158 Y828.588 Z8179.716 A13702.918
X26190.99 Y828.638 Z8179.71 A13708.648
X26222.822 Y828.563 Z8179.718 A13714.377
X26254.653 Y828.613 Z8179.713 A13720.107
X26286.485 Y828.538 Z8179.719 A13725.836
X26318.317 Y828.587 Z8179.716 A13731.566
X26350.149 Y828.637 Z8179.712 A13737.296
X26381.98 Y828.562 Z8179.719 A13743.025
X26413.812 Y828.613 Z8179.715 A13748.755
X26445.644 Y828.538 Z8179.722 A13754.484
X26477.476 Y828.587 Z8179.718 A13760.214
X26509.307 Y828.637 Z8179.714 A13765.943
X26541.139 Y828.562 Z8179.72 A13771.673
X26572.971 Y828.612 Z8179.715 A13777.402
X26604.803 Y828.537 Z8179.724 A13783.132
X26636.634 Y828.587 Z8179.718 A13788.861
X26668.466 Y828.637 Z8179.715 A13794.591
X26700.298 Y828.562 Z8179.721 A13800.32
X26732.13 Y828.612 Z8179.717 A13806.05
X26763.961 Y828.538 Z8179.723 A13811.779
X26795.793 Y828.588 Z8179.719 A13817.509
X26827.625 Y828.638 Z8179.714 A13823.239
X26859.457 Y828.563 Z8179.721 A13828.968
X26891.288 Y828.613 Z8179.717 A13834.698
X26923.12 Y828.538 Z8179.724 A13840.427
X26954.952 Y828.588 Z8179.719 A13846.157
X26986.783 Y828.638 Z8179.715 A13851.887
X27018.615 Y828.563 Z8179.722 A13857.616
X27050.447 Y828.613 Z8179.718 A13863.346
X27082.279 Y828.538 Z8179.725 A13869.075
X27114.11 Y828.588 Z8179.72 A13874.805
X27145.942 Y828.638 Z8179.715 A13880.535
X27177.774 Y828.563 Z8179.722 A13886.264
X27209.606 Y828.613 Z8179.718 A13891.994
X27241.437 Y828.537 Z8179.725 A13897.723
X27273.269 Y828.587 Z8179.719 A13903.453
X27305.101 Y828.636 Z8179.716 A13909.183
X27336.933 Y828.562 Z8179.722 A13914.912
X27368.764 Y828.612 Z8179.719 A13920.642
X27400.596 Y828.537 Z8179.726 A13926.371
X27432.428 Y828.587 Z8179.72 A13932.101
X27464.26 Y828.637 Z8179.716 A13937.831
X27496.091 Y828.562 Z8179.723 A13943.56
X27527.923 Y828.612 Z8179.718 A13949.29
X27559.755 Y828.537 Z8179.725 A13955.019
X27591.587 Y828.587 Z8179.72 A13960.749
X27623.418 Y828.637 Z8179.715 A13966.479
X27655.25 Y828.562 Z8179.723 A13972.208
X27687.082 Y828.612 Z8179.718 A13977.938
X27718.914 Y828.537 Z8179.725 A13983.667
X27750.745 Y828.588 Z8179.721 A13989.397
X27782.577 Y828.637 Z8179.717 A13995.127
X27814.409 Y828.562 Z8179.724 A14000.856
X27846.24 Y828.612 Z8179.719 A14006.586
X27878.072 Y828.537 Z8179.727 A14012.315
X27909.904 Y828.588 Z8179.721 A14018.045
X27941.736 Y828.637 Z8179.718 A14023.775
X27973.567 Y828.562 Z8179.723 A14029.504
X28005.399 Y828.613 Z8179.718 A14035.233
X28031.831 Y846.425 Z8187.972 A14039.999
X28063.663 Y846.475 Z8187.966 A14045.729
X28095.495 Y846.525 Z8187.962 A14051.459
X28127.326 Y846.45 Z8187.969 A14057.188
X28159.158 Y846.5 Z8187.964 A14062.918
X28190.99 Y846.424 Z8187.972 A14068.647
X28222.822 Y846.475 Z8187.967 A14074.377
X28254.653 Y846.525 Z8187.961 A14080.107
X28286.485 Y846.449 Z8187.969 A14085.836
X28318.317 Y846.499 Z8187.964 A14091.566
X28350.149 Y846.425 Z8187.973 A14097.295
X28381.98 Y846.474 Z8187.967 A14103.025
X28413.812 Y846.524 Z8187.963 A14108.755
X28445.644 Y846.45 Z8187.971 A14114.484
X28477.476 Y846.499 Z8187.967 A14120.214
X28509.307 Y846.424 Z8187.974 A14125.943
X28541.139 Y846.474 Z8187.969 A14131.673
X28572.971 Y846.524 Z8187.964 A14137.403
X28604.803 Y846.449 Z8187.973 A14143.132
X28636.634 Y846.499 Z8187.968 A14148.862
X28668.466 Y846.425 Z8187.974 A14154.591
X28700.298 Y846.474 Z8187.971 A14160.321
X28732.13 Y846.525 Z8187.965 A14166.051
X28763.961 Y846.449 Z8187.973 A14171.78
X28795.793 Y846.499 Z8187.968 A14177.509
X28827.625 Y846.425 Z8187.975 A14183.239
X28859.457 Y846.475 Z8187.971 A14188.968
X28891.288 Y846.525 Z8187.965 A14194.698
X28923.12 Y846.45 Z8187.973 A14200.427
X28954.952 Y846.5 Z8187.969 A14206.157
X28986.783 Y846.425 Z8187.975 A14211.886
X29018.615 Y846.475 Z8187.972 A14217.616
X29050.447 Y846.525 Z8187.966 A14223.346
X29082.279 Y846.45 Z8187.973 A14229.075
X29114.11 Y846.5 Z8187.969 A14234.805
X29145.942 Y846.425 Z8187.975 A14240.534
X29177.774 Y846.475 Z8187.971 A14246.264
X29209.606 Y846.525 Z8187.966 A14251.994
X29241.437 Y846.449 Z8187.973 A14257.723
X29273.269 Y846.499 Z8187.969 A14263.453
X29305.101 Y846.424 Z8187.976 A14269.182
X29336.933 Y846.474 Z8187.972 A14274.912
X29368.764 Y846.524 Z8187.967 A14280.642
X29400.596 Y846.449 Z8187.974 A14286.371
X29432.428 Y846.499 Z8187.97 A14292.101
X29464.26 Y846.424 Z8187.977 A14297.83
X29496.091 Y846.474 Z8187.972 A14303.56
X29527.923 Y846.524 Z8187.966 A14309.29
X29559.755 Y846.449 Z8187.974 A14315.019
X29591.587 Y846.499 Z8187.969 A14320.749
X29623.418 Y846.424 Z8187.976 A14326.478
X29655.25 Y846.474 Z8187.973 A14332.208
X29687.082 Y846.524 Z8187.967 A14337.938
X29718.914 Y846.45 Z8187.974 A14343.667
X29750.745 Y846.5 Z8187.971 A14349.397
X29782.577 Y846.425 Z8187.977 A14355.126
X29814.409 Y846.475 Z8187.973 A14360.856
X29846.24 Y846.525 Z8187.968 A14366.586
X29878.072 Y846.45 Z8187.976 A14372.315
X29909.904 Y846.5 Z8187.971 A14378.045
X29941.736 Y846.425 Z8187.978 A14383.774
X29973.567 Y846.475 Z8187.973 A14389.504
X30005.399 Y846.525 Z8187.967 A14395.234
X30031.831 Y864.09 Z8196.317 A14399.999
X30063.663 Y864.14 Z8196.312 A14405.729
X30095.495 Y864.065 Z8196.32 A14411.458
X30127.326 Y864.115 Z8196.315 A14417.188
X30159.158 Y864.165 Z8196.31 A14422.918
X30190.99 Y864.09 Z8196.317 A14428.647
X30222.822 Y864.14 Z8196.311 A14434.377
X30254.653 Y864.065 Z8196.32 A14440.106
X30286.485 Y864.115 Z8196.315 A14445.836
X30318.317 Y864.165 Z8196.31 A14451.566
X30350.149 Y864.089 Z8196.318 A14457.295
X30381.98 Y864.14 Z8196.313 A14463.025
X30413.812 Y864.065 Z8196.321 A14468.754
X30445.644 Y864.115 Z8196.317 A14474.484
X30477.476 Y864.165 Z8196.311 A14480.214
X30509.307 Y864.09 Z8196.32 A14485.943
X30541.139 Y864.14 Z8196.314 A14491.673
X30572.971 Y864.065 Z8196.323 A14497.402
X30604.803 Y864.115 Z8196.317 A14503.132
X30636.634 Y864.165 Z8196.312 A14508.862
X30668.466 Y864.09 Z8196.321 A14514.591
X30700.298 Y864.14 Z8196.315 A14520.321
X30732.13 Y864.065 Z8196.324 A14526.05
X30763.961 Y864.115 Z8196.318 A14531.78
X30795.793 Y864.165 Z8196.313 A14537.51
X30827.625 Y864.09 Z8196.321 A14543.239
X30859.457 Y864.141 Z8196.315 A14548.969
X30891.288 Y864.066 Z8196.324 A14554.698
X30923.12 Y864.115 Z8196.318 A14560.428
X30954.952 Y864.165 Z8196.313 A14566.158
X30986.783 Y864.09 Z8196.321 A14571.887
X31018.615 Y864.14 Z8196.315 A14577.617
X31050.447 Y864.065 Z8196.324 A14583.346
X31082.279 Y864.115 Z8196.319 A14589.075
X31114.11 Y864.165 Z8196.313 A14594.805
X31145.942 Y864.09 Z8196.321 A14600.534
X31177.774 Y864.14 Z8196.317 A14606.264
X31209.606 Y864.065 Z8196.325 A14611.993
X31241.437 Y864.114 Z8196.319 A14617.723
X31273.269 Y864.165 Z8196.314 A14623.453
X31305.101 Y864.089 Z8196.323 A14629.182
X31336.933 Y864.14 Z8196.317 A14634.912
X31368.764 Y864.064 Z8196.325 A14640.641
X31400.596 Y864.114 Z8196.32 A14646.371
X31432.428 Y864.164 Z8196.315 A14652.101
X31464.26 Y864.089 Z8196.322 A14657.83
X31496.091 Y864.139 Z8196.318 A14663.56
X31527.923 Y864.064 Z8196.325 A14669.289
X31559.755 Y864.114 Z8196.319 A14675.019
X31591.587 Y864.164 Z8196.314 A14680.749
X31623.418 Y864.214 Z8196.309 A14686.479
X31655.25 Y864.015 Z8196.331 A14692.207
X31687.082 Y864.064 Z8196.326 A14697.937
X31718.914 Y864.115 Z8196.32 A14703.667
X31750.745 Y864.165 Z8196.315 A14709.397
X31782.577 Y864.215 Z8196.31 A14715.127
X31814.409 Y864.016 Z8196.331 A14720.855
X31846.24 Y864.065 Z8196.327 A14726.585
X31878.072 Y864.115 Z8196.321 A14732.315
X31909.904 Y864.165 Z8196.316 A14738.045
X31941.736 Y864.215 Z8196.311 A14743.775
X31973.567 Y864.016 Z8196.331 A14749.503
X32005.397 Y864.066 Z8196.326 A14755.233
X32031.829 Y881.509 Z8204.754 A14759.999
X32063.659 Y881.559 Z8204.749 A14765.729
X32095.489 Y881.609 Z8204.744 A14771.459
X32127.319 Y881.409 Z8204.765 A14777.187
X32159.149 Y881.459 Z8204.759 A14782.917
X32190.979 Y881.509 Z8204.754 A14788.647
X32222.808 Y881.559 Z8204.749 A14794.377
X32254.638 Y881.609 Z8204.744 A14800.107
X32286.468 Y881.408 Z8204.765 A14805.835
X32318.298 Y881.458 Z8204.759 A14811.565
X32350.128 Y881.508 Z8204.754 A14817.295
X32381.958 Y881.558 Z8204.75 A14823.025
X32413.787 Y881.609 Z8204.745 A14828.755
X32445.617 Y881.409 Z8204.767 A14834.483
X32477.447 Y881.458 Z8204.762 A14840.213
X32509.277 Y881.509 Z8204.756 A14845.943
X32541.107 Y881.559 Z8204.751 A14851.673
X32572.937 Y881.608 Z8204.746 A14857.403
X32604.766 Y881.408 Z8204.769 A14863.131
X32636.596 Y881.458 Z8204.763 A14868.861
X32668.426 Y881.508 Z8204.757 A14874.591
X32700.256 Y881.559 Z8204.751 A14880.321
X32732.086 Y881.609 Z8204.747 A14886.051
X32763.916 Y881.408 Z8204.769 A14891.779
X32795.745 Y881.458 Z8204.763 A14897.509
X32827.575 Y881.509 Z8204.757 A14903.239
X32859.405 Y881.559 Z8204.751 A14908.969
X32891.235 Y881.609 Z8204.747 A14914.699
X32923.065 Y881.409 Z8204.769 A14920.427
X32954.895 Y881.459 Z8204.764 A14926.157
X32986.724 Y881.509 Z8204.757 A14931.887
X33018.554 Y881.559 Z8204.753 A14937.617
X33050.384 Y881.609 Z8204.748 A14943.347
X33082.214 Y881.409 Z8204.769 A14949.075
X33114.044 Y881.459 Z8204.763 A14954.805
X33145.874 Y881.509 Z8204.758 A14960.535
X33177.703 Y881.559 Z8204.752 A14966.265
X33209.533 Y881.609 Z8204.748 A14971.994
X33241.363 Y881.408 Z8204.769 A14977.723
X33273.193 Y881.458 Z8204.764 A14983.453
X33305.023 Y881.508 Z8204.759 A14989.183
