(Created with grbl post processor 2025/11/12 23:43)
G21
(G-code Generated with BlenderCAM and NC library)
G17G90
(Tool: D = 6000.0 mm  type END flutes 4)
S12000M03
G00 Z5000.0

G0X-50000Y0Z10000
G1Z8000F50000
G0A5.729
A11.459
A17.188
A22.918
A28.647
A34.377
Y-0A40.107
G1Y0Z7999.999A45.836
G0Y-0Z8000A51.566
Y0A57.295
A63.025
A68.754
Y-124.402Z7992.115A72.318
Y-0.001Z10000A74.484
G1Y18.014Z7995.966A79.694
G0Y-0Z8000.002A80.214
Y-18.015Z7995.965A80.733
Y-0Z10000.001A85.943
Z10000.002A91.673
Y0A97.402
Y-0.001Z10000.003A103.132
G1Y-0Z10000.002A108.861
G0Y0Z10000.003A114.591
G1Y-0.001Z8677.606A120.321
Y46.827Z7992.336A122.097
G0Y0Z8000.003A126.05
Y-0.001A131.78
Y0A137.509
A143.239
A148.969
A154.698
A160.428
A166.157
A171.887
Y-0Z8000.004A177.616
Y0A183.346
Y-0A189.076
G1Y0Z8000.003A194.805
G0A200.535
Z8000.004A206.264
A211.994
Y-0.001A217.723
Y0A223.453
Y-0.001A229.183
A234.912
Y-0.002Z8000.005A240.642
Y0A246.371
A252.101
Y-0.001A257.831
Y-60.812Z7989.779A260.311
Y-0.002Z9406.232A263.56
Y-0.003Z10000.003A269.29
Y0A275.019
G1Y-0Z10000.002A280.749
G0Y-0.001Z10000.005A286.478
G1Y-0.002Z10000.004A292.208
G0Z10000.005A297.938
G1Y53.201Z7990.939A302.138
G0Y0.001Z8000.005A303.667
Y0A309.397
A315.126
Y-0.001A320.856
Z8000.006A326.585
Y0.001A332.315
Y0A338.045
A343.774
G1Y-0Z8000.005A349.504
G0Y-0.001A355.233
G1Y0Z8000A0
G0X-48000Y0.001A360
Y0A365.729
A371.459
Y-0.001A377.188
A382.918
Y0A388.647
A394.377
G1Y-0A400.107
G0Y-0.001A405.836
A411.566
Y0A417.295
A423.025
A428.754
Y-0.001Z8000.001A434.484
Y-0.002A440.214
Y-15.84Z7997.999A445.529
Y0Z8170.147A445.943
Z10000.002A451.673
Y-0A457.402
Y-0.002A463.132
Y0.001Z10000.003A468.861
G1Y-0.002Z9428.661A474.591
Y73.908Z7990.147A477.356
G0Y0Z8000.003A480.321
Y0.003Z8000.002A486.05
Y-0.001Z8000.003A491.78
Y0.001A497.509
Y-0.002A503.239
Y0A508.969
Y0.004A514.698
Y-0A520.428
Y0.001Z8000.004A526.157
Y-0.002Z8000.003A531.887
Y0Z8000.004A537.616
Y0.003A543.346
Y-0.001A549.076
Y0.001Z8000.003A554.805
Y-0.003Z8000.004A560.535
Y0Z8000.005A566.264
G1Y0.003Z8000.003A571.994
G0Y-0.001Z8000.004A577.723
Y0.001A583.453
Y-0.003A589.183
Y0A594.912
Y0.002Z8000.005A600.642
Y-0.001A606.371
Y0.001A612.101
Y-133.253Z7993.324A615.918
Y-0.004Z10000.004A617.83
G1Y66.036Z7990.033A621.664
G0Y0Z8000.005A623.56
Y-66.037Z7990.033A625.456
Y0.003Z10000.003A629.29
Y-0.002A635.019
Y0A640.749
Y-0.004Z10000.004A646.478
Y-0Z10000.003A652.208
G1Y42.425Z7992.082A656.717
G0Y0.002Z8000.005A657.938
Y-0.001A663.667
Y0.001A669.397
Y-0.002A675.126
Y0A680.856
Y0.003Z8000.006A686.585
Y-0.001A692.315
Y0.002A698.045
Y-0.002A703.774
Y0Z8000.005A709.504
Y0.003A715.233
G1Y0.001Z8000A360
G0X-46000Y0.002A720
Y-0.001A725.729
Y0.001A731.459
Y-0.003A737.188
Y0A742.918
Y0.002A748.647
Y-0.002A754.377
Y0A760.107
Y-0.003A765.836
Y-0A771.566
Y0.002A777.295
Y-0.002A783.025
Y0A788.754
Y-0.003Z8000.001A794.484
Y-0Z8000.002A800.214
Y0.002A805.943
Y-0.002A811.673
Y0A817.402
Y-0.004Z8000.003A823.132
Y-0A828.861
Y0.002A834.591
Y-0.002A840.321
Y0.001A846.05
Y-0.003A851.78
Y-0A857.509
Y0.002A863.239
Y-0.001A868.969
Y0.001A874.698
Y-0.003Z8000.002A880.428
Y0Z8000.004A886.157
Y0.002Z8000.003A891.887
Y-0.001Z8000.004A897.616
Y0.001A903.346
Y-0.003Z8000.003A909.076
Y-0A914.805
Y-0.005A920.535
Y-0.001Z8000.004A926.264
Y0A931.994
Y0.003Z8000.003A937.723
Y0.006Z8000.004A943.453
Y-0.006A949.183
Y-0.002A954.912
Y0A960.642
Y0.003Z8000.005A966.371
Y0.006A972.101
Y-0.005A977.83
Y-0.002A983.56
Y0Z8000.004A989.29
Y0.003A995.019
Y0.006A1000.749
Y-0.006A1006.478
Y-0.002A1012.208
Y0Z8000.005A1017.938
Y0.004A1023.667
Y0.006A1029.397
Y-0.005A1035.126
Y-0.002A1040.856
Y0A1046.585
Y0.003Z8000.006A1052.315
Y0.007A1058.045
Y-0.005A1063.774
Y-0.001Z8000.005A1069.504
Y0.001A1075.233
G1Y0.002Z8000A720
G0X-44000Y0A1080
Y0.003A1085.729
Y0.006A1091.459
Y-0.005A1097.188
Y-0.002A1102.918
Y0A1108.647
Y0.003A1114.377
Y0.006A1120.107
Y-0.005A1125.836
Y-0.003A1131.566
Y0A1137.295
Y0.003A1143.025
Y0.006A1148.754
Y-0.005Z8000.001A1154.484
Y-0.003A1160.214
Y0Z8000.002A1165.943
Y0.002A1171.673
Y0.005A1177.402
Y-0.006Z8000.003A1183.132
Y-0.003A1188.861
Y0A1194.591
Y0.002A1200.321
Y0.005A1206.05
Y-0.006A1211.78
Y-0.003A1217.509
Y0A1223.239
Y0.003A1228.969
Y0.006Z8000.002A1234.698
Y-0.005Z8000.003A1240.428
Y-0.002Z8000.004A1246.157
Y0Z8000.003A1251.887
Y0.003Z8000.004A1257.616
Y0.006Z8000.003A1263.346
Y-0.005A1269.076
Y-0.003A1274.805
Y0Z8000.004A1280.535
Y0.003A1286.264
Y0.006A1291.994
Y-0.006Z8000.003A1297.723
Y-0.003Z8000.004A1303.453
Y-0.001A1309.183
Y0.002A1314.912
Y0.005Z8000.005A1320.642
Y-0.006A1326.371
Y-0.003A1332.101
Y-0A1337.831
Y0.002A1343.56
Y0.005Z8000.004A1349.29
Y-0.006A1355.019
Y-0.004A1360.749
Y-0Z8000.003A1366.478
Y0.002Z8000.004A1372.208
Y0.005Z8000.005A1377.938
Y-0.005A1383.667
Y-0.002A1389.397
Y0A1395.126
Y0.003A1400.856
Y0.005A1406.585
Y-0.005Z8000.006A1412.315
Y-0.002A1418.045
Y0A1423.774
Y0.003Z8000.005A1429.504
Y0.006A1435.233
G1Y0Z8000A1080
G0X-42000Y0.005A1440
Y-0.006A1445.729
Y-0.003A1451.459
Y-0A1457.188
Y0.002A1462.918
Y0.005A1468.647
Y-0.007A1474.377
Y-0.003A1480.107
Y-0.001A1485.836
Y0.001A1491.566
Y0.005A1497.295
Y-0.007A1503.025
Y-0.004A1508.754
Y-0Z8000.001A1514.484
Y0.001Z8000.002A1520.214
Y0.004A1525.943
Y-0.007A1531.673
Y-0.004A1537.402
Y-0.001Z8000.003A1543.132
Y0.001A1548.861
Y0.005A1554.591
Y-0.007A1560.321
Y-0.004A1566.05
Y-0.001A1571.78
Y0.001A1577.509
Y0.005A1583.239
Y-0.006A1588.968
Y-0.003Z8000.002A1594.698
Y0Z8000.003A1600.428
Y0.002Z8000.004A1606.157
Y0.005Z8000.003A1611.887
Y-0.006Z8000.004A1617.616
Y-0.003A1623.346
Y-0A1629.076
Y0.002Z8000.003A1634.805
Y0.005A1640.535
Y-0.006Z8000.004A1646.264
Y-0.003Z8000.003A1651.994
Y-0.001Z8000.004A1657.723
Y0.001Z8000.003A1663.453
Y0.004Z8000.004A1669.183
Y-0.007A1674.912
Y-0.004Z8000.005A1680.642
Y-0.001A1686.371
Y0.001A1692.101
Y0.004A1697.831
Y-0.007A1703.56
Y-0.004Z8000.004A1709.29
Y-0.001A1715.019
Y0.001A1720.749
Y0.004A1726.478
Y-0.007Z8000.005A1732.208
Y-0.004A1737.938
Y-0A1743.667
Y0.002A1749.397
Y0.005A1755.126
Y-0.006A1760.856
Y-0.004Z8000.006A1766.585
Y-0A1772.315
Y0.002A1778.045
Y0.005A1783.774
Y-0.006Z8000.005A1789.504
Y-0.003A1795.233
G1Y0.005Z8000A1440
G0X-40000Y-0.004A1799.999
Y-0.001A1805.729
Y0.001A1811.459
Y0.004A1817.188
Y-0.007A1822.918
Y-0.004A1828.647
Y-0.002A1834.377
Y-0.014A1840.106
Y0.004Z7999.999A1845.836
Y-0.008Z8000A1851.566
Y0.01A1857.295
Y-0.001A1863.025
Y-0.014Z8000.001A1868.754
Y0.004A1874.484
Y-0.008A1880.214
Y0.01Z8000.002A1885.943
Y-0.002A1891.673
Y-0.014A1897.402
Y0.004Z8000.003A1903.132
Y-0.008A1908.861
Y0.01A1914.591
Y-0.001A1920.321
Y-0.014A1926.05
Y0.004A1931.78
Y-0.007A1937.509
Y0.01A1943.239
Y-0.001A1948.969
Y-0.013Z8000.002A1954.698
Y0.004Z8000.003A1960.428
Y-0.007A1966.157
Y0.01A1971.887
Y-0.001Z8000.004A1977.616
Y-0.013A1983.346
Y0.004A1989.076
Y-0.007Z8000.003A1994.805
Y0.01A2000.535
Y-0.001Z8000.004A2006.264
Y-0.014A2011.994
Y0.003Z8000.003A2017.723
Y-0.008Z8000.004A2023.453
Y0.009A2029.183
Y-0.002A2034.912
Y-0.014Z8000.005A2040.642
Y0.003A2046.371
Y-0.008A2052.101
Y0.009A2057.831
Y-0.002A2063.56
Y-0.014Z8000.004A2069.29
Y0.003A2075.019
Y-0.008A2080.749
Y0.009A2086.478
Y-0.002A2092.208
Y-0.014Z8000.005A2097.937
Y0.004A2103.667
Y-0.007A2109.397
Y0.01A2115.126
Y-0.001A2120.856
Y-0.013A2126.585
Y0.004Z8000.006A2132.315
Y-0.007A2138.045
Y0.01Z8000.007A2143.774
Y-0.001Z8000.005A2149.504
Y-0.013A2155.233
G1Y-0.004Z8000A1799.999
G0X-38000Y0A2160
Y-0.011A2165.729
Y0.006A2171.459
Y-0.005A2177.188
Y0.012A2182.918
Y0A2188.647
Y-0.011A2194.377
Y0.006A2200.107
Y-0.005Z7999.999A2205.836
Y0.012Z8000A2211.566
Y0A2217.295
Y-0.012A2223.025
Y0.006A2228.754
Y-0.005Z8000.001A2234.484
Y0.012Z8000.002A2240.214
Y0A2245.943
Y-0.012A2251.673
Y0.005A2257.402
Y-0.006Z8000.003A2263.132
Y0.012A2268.862
Y0A2274.591
Y-0.011A2280.321
Y0.006Z8000.002A2286.05
Y-0.006Z8000.003A2291.78
Y0.012A2297.509
Y0A2303.239
Y-0.011A2308.968
Y0.006A2314.698
Y-0.005A2320.428
Y0.012A2326.157
Y0A2331.887
Y-0.011Z8000.004A2337.616
Y0.006Z8000.003A2343.346
Y-0.005A2349.076
Y0.012A2354.805
Y0Z8000.004A2360.535
Y-0.011A2366.264
Y0.006A2371.994
Y-0.006Z8000.003A2377.723
Y0.012A2383.453
Y0Z8000.004A2389.183
Y-0.012A2394.912
Y0.005Z8000.005A2400.642
Y-0.006Z8000.004A2406.371
Y0.011Z8000.005A2412.101
Y0A2417.831
Y-0.012A2423.56
Y0.005Z8000.004A2429.29
Y-0.006A2435.019
Y0.011A2440.749
Y0Z8000.003A2446.478
Y-0.012Z8000.004A2452.208
Y0.006Z8000.005A2457.938
Y-0.005A2463.667
Y0.012A2469.397
Y0A2475.126
Y-0.011A2480.856
Y0.006Z8000.006A2486.585
Y-0.005A2492.315
Y0.012A2498.045
Y0A2503.774
Y-0.011A2509.504
Y0.006Z8000.005A2515.233
G1Y0Z8000A2160
G0X-36000Y-0.009A2519.999
Y0.008A2525.729
Y-0.003A2531.459
Y0.014Z7999.999A2537.188
Y0.002Z8000A2542.918
Y-0.009A2548.647
Y0.008A2554.377
Y-0.003A2560.107
Y0.014Z7999.999A2565.836
Y0.002Z8000A2571.566
Y-0.01A2577.295
Y0.008A2583.025
Y-0.003Z8000.001A2588.754
Y0.014A2594.484
Y0.002Z8000.002A2600.214
Y-0.01A2605.943
Y0.008A2611.673
Y-0.004A2617.402
Y0.014Z8000.003A2623.132
Y0.002A2628.862
Y-0.01A2634.591
Y0.008Z8000.002A2640.321
Y-0.003Z8000.003A2646.05
Y0.014A2651.78
Y0.002A2657.509
Y-0.009A2663.239
Y0.008A2668.969
Y-0.002A2674.698
Y0.015A2680.428
Y0.002A2686.157
Y-0.009A2691.887
Y0.008Z8000.004A2697.616
Y-0.003Z8000.003A2703.346
Y0.014A2709.076
Y0.002A2714.805
Y-0.009A2720.535
Y0.009Z8000.004A2726.264
Y-0.003A2731.994
Y0.014A2737.724
Y0.002A2743.453
Y-0.01A2749.183
Y0.008A2754.912
Y-0.004Z8000.005A2760.642
Y0.014A2766.371
Y0.001A2772.101
Y-0.01A2777.83
Y0.007A2783.56
Y-0.004Z8000.004A2789.29
Y0.014A2795.019
Y0.001A2800.749
Y-0.01Z8000.003A2806.478
Y0.008Z8000.005A2812.208
Y-0.003A2817.938
Y0.014A2823.667
Y0.002A2829.397
Y-0.009A2835.126
Y0.008A2840.856
Y-0.003A2846.585
Y0.014Z8000.006A2852.315
Y0.002A2858.045
Y-0.009A2863.774
Y0.009Z8000.005A2869.504
Y-0.003Z8000.004A2875.233
G1Y-0.009Z8000A2519.999
G0X-34000Y0.011A2880
Y-0.001A2885.729
Y-0.013A2891.459
Y0.004Z7999.999A2897.188
Y-0.007Z8000A2902.918
Y0.01A2908.647
Y-0.001A2914.377
Y-0.013A2920.106
Y0.005A2925.836
Y-0.007A2931.566
Y0.01A2937.295
Y-0.001A2943.025
Y-0.013A2948.754
Y0.004Z8000.001A2954.484
Y-0.007A2960.214
Y0.01Z8000.002A2965.943
Y-0.001A2971.673
Y-0.013A2977.402
Y0.004Z8000.003A2983.132
Y-0.007A2988.861
Y0.01A2994.591
Y-0.001A3000.321
Y-0.013Z8000.002A3006.05
Y0.004Z8000.003A3011.78
Y-0.007A3017.509
Y0.01A3023.239
Y-0A3028.969
Y-0.012A3034.698
Y0.005A3040.428
Y-0.007A3046.157
Y0.011A3051.887
Y-0.001Z8000.004A3057.616
Y-0.013A3063.346
Y0.004A3069.076
Y-0.007Z8000.003A3074.805
Y0.01A3080.535
Y-0Z8000.004A3086.264
Y-0.013Z8000.003A3091.994
Y0.003A3097.723
Y-0.007A3103.453
Y0.01Z8000.004A3109.183
Y-0.001A3114.912
Y-0.014A3120.642
Y0.004Z8000.005A3126.371
Y-0.008A3132.101
Y0.01A3137.831
Y-0.002A3143.56
Y-0.014Z8000.004A3149.29
Y0.003A3155.019
Y-0.008A3160.749
Y0.01A3166.478
Y-0.002Z8000.005A3172.208
Y-0.014A3177.937
Y0.004A3183.667
Y-0.007A3189.397
Y0.01A3195.126
Y-0.001A3200.856
Y-0.013A3206.585
Y0.004Z8000.006A3212.315
Y-0.007A3218.045
Y0.011A3223.774
Y-0Z8000.005A3229.504
Y-0.013A3235.233
Y0.011Z8000A2880
X-32000Y0.001A3240
Y-0.011A3245.729
Y0.007A3251.459
Y-0.005A3257.188
Y0.013A3262.918
Y0A3268.647
Y-0.011A3274.377
Y0.006A3280.107
Y-0.005Z7999.999A3285.836
Y0.012Z8000A3291.566
Y0A3297.295
Y-0.011A3303.025
Y0.006Z8000.001A3308.754
Y-0.005A3314.484
Y0.012Z8000.002A3320.214
Y0A3325.943
Y-0.011A3331.673
Y0.006A3337.402
Y-0.005A3343.132
Y0.012Z8000.003A3348.862
Y0A3354.591
Y-0.011A3360.321
Y0.006A3366.05
Y-0.005A3371.78
Y0.012A3377.509
Y0A3383.239
Y-0.01A3388.968
Y0.007A3394.698
Y-0.005A3400.428
Y0.013Z8000.004A3406.157
Y0Z8000.003A3411.887
Y-0.011Z8000.004A3417.616
Y0.007Z8000.003A3423.346
Y-0.005A3429.076
Y0.012A3434.805
Y0A3440.535
Y-0.01Z8000.004A3446.264
Y0.006Z8000.003A3451.994
Y-0.005A3457.723
Y0.012Z8000.004A3463.453
Y0A3469.183
Y-0.011A3474.912
Y0.006Z8000.005A3480.642
Y-0.005A3486.371
Y0.012A3492.101
Y0Z8000.004A3497.831
Y-0.012Z8000.005A3503.56
Y0.006Z8000.004A3509.29
Y-0.006A3515.019
Y0.012A3520.749
Y0Z8000.003A3526.478
Y-0.012Z8000.004A3532.208
Y0.006Z8000.005A3537.938
Y-0.005A3543.667
Y0.012A3549.397
Y0A3555.126
Y-0.011A3560.856
Y0.006Z8000.006A3566.585
Y-0.005A3572.315
Y0.013A3578.045
Y0A3583.774
Y-0.011Z8000.005A3589.504
Y0.007A3595.233
G1Y0.001Z8000A3240
G0X-30000Y-0.008A3599.999
Y0.009A3605.729
Y-0.002A3611.459
Y-0.015Z7999.999A3617.188
Y0.002Z8000A3622.918
Y-0.009A3628.647
Y0.008A3634.377
Y-0.002A3640.107
Y-0.015Z7999.999A3645.836
Y0.002Z8000A3651.566
Y-0.009A3657.295
Y0.008A3663.025
Y-0.003Z8000.001A3668.754
Y-0.015A3674.484
Y-0.027A3680.213
Y0.02Z8000.002A3685.943
Y0.008A3691.673
Y-0.003A3697.402
Y-0.015A3703.132
Y-0.027Z8000.003A3708.861
Y0.02A3714.591
Y0.008A3720.321
Y-0.002A3726.05
Y-0.015A3731.78
Y-0.027A3737.509
Y0.021A3743.239
Y0.009A3748.969
Y-0.002A3754.698
Y-0.015A3760.428
Y-0.027Z8000.004A3766.157
Y0.021Z8000.003A3771.887
Y0.009Z8000.004A3777.616
Y-0.003Z8000.003A3783.346
Y-0.015A3789.075
Y-0.027A3794.805
Y0.021A3800.535
Y0.009Z8000.004A3806.264
Y-0.003A3811.994
Y-0.015Z8000.003A3817.723
Y-0.027A3823.453
Y0.02Z8000.004A3829.183
Y0.008A3834.912
Y-0.004Z8000.005A3840.642
Y-0.015A3846.371
Y-0.028A3852.101
Y0.02A3857.831
Y0.008A3863.56
Y-0.003Z8000.003A3869.29
Y-0.016Z8000.005A3875.019
Y-0.028Z8000.004A3880.749
Y0.02A3886.479
Y0.008A3892.208
Y-0.003A3897.938
Y-0.015Z8000.005A3903.667
Y-0.027A3909.397
Y0.021A3915.126
Y0.009A3920.856
Y-0.003A3926.585
Y-0.015Z8000.006A3932.315
Y-0.027A3938.044
Y0.021A3943.774
Y0.009Z8000.005A3949.504
Y-0.002A3955.233
G1Y-0.008Z8000A3599.999
G0X-28000Y-0.018A3959.999
Y0.029A3965.729
Y0.017A3971.459
Y0.005A3977.188
Y-0.007A3982.918
Y-0.019A3988.647
Y0.029A3994.377
Y0.017A4000.107
Y0.005A4005.836
Y-0.007A4011.566
Y-0.019A4017.295
Y0.029A4023.025
Y0.016A4028.755
Y0.005Z8000.001A4034.484
Y-0.007Z8000.002A4040.214
Y-0.019A4045.943
Y0.029A4051.673
Y0.016A4057.402
Y0.004Z8000.003A4063.132
Y-0.007A4068.861
Y-0.019A4074.591
Y0.029A4080.321
Y0.017A4086.05
Y0.004A4091.78
Y-0.007A4097.509
Y-0.018A4103.239
Y0.03A4108.969
Y0.017Z8000.002A4114.698
Y0.005Z8000.003A4120.428
Y-0.007A4126.157
Y-0.019A4131.887
Y0.029Z8000.004A4137.617
Y0.017A4143.346
Y0.005A4149.076
Y-0.007Z8000.003A4154.805
Y-0.019A4160.535
Y0.03Z8000.004A4166.265
Y0.017A4171.994
Y0.004Z8000.003A4177.724
Y-0.007A4183.453
Y-0.02Z8000.004A4189.182
Y0.029A4194.912
Y0.016Z8000.005A4200.642
Y0.004A4206.371
Y-0.008A4212.101
Y-0.02A4217.83
Y0.028A4223.56
Y0.016Z8000.004A4229.29
Y0.004A4235.019
Y-0.007A4240.749
Y-0.02A4246.478
Y0.029A4252.208
Y0.016Z8000.005A4257.938
Y0.005A4263.667
Y-0.006Z8000.006A4269.397
Y-0.019Z8000.005A4275.126
Y0.029A4280.856
Y0.017A4286.586
Y0.005Z8000.006A4292.315
Y-0.006A4298.045
Y-0.019A4303.774
Y0.029Z8000.005A4309.504
Y0.017A4315.233
Y-0.018Z8000A3959.999
X-26000Y0.001A4320
Y-0.01A4325.729
Y-0.023A4331.458
Y0.025A4337.188
Y0.013A4342.918
Y0A4348.647
Y-0.011A4354.377
Y-0.023A4360.106
Y0.025Z7999.999A4365.836
Y0.013Z8000A4371.566
Y0A4377.295
Y-0.011A4383.025
Y-0.023Z8000.001A4388.754
Y0.025A4394.484
Y0.013Z8000.002A4400.214
Y0A4405.943
Y-0.011A4411.673
Y-0.023A4417.402
Y0.025Z8000.003A4423.132
Y0.013A4428.862
Y0A4434.591
Y-0.01A4440.321
Y-0.022A4446.05
Y0.025A4451.78
Y0.013A4457.509
Y0.001A4463.239
Y-0.01A4468.968
Y-0.022A4474.698
Y0.025A4480.428
Y0.013Z8000.004A4486.157
Y0.001Z8000.003A4491.887
Y-0.01Z8000.004A4497.616
Y-0.023A4503.346
Y0.025A4509.076
Y0.013A4514.805
Y0Z8000.003A4520.535
Y-0.01Z8000.004A4526.264
Y-0.023A4531.994
Y0.025A4537.724
Y0.012A4543.453
Y0A4549.183
Y-0.011A4554.912
Y-0.023Z8000.005A4560.642
Y0.025A4566.372
Y0.012A4572.101
Y0A4577.831
Y-0.011A4583.56
Y-0.024Z8000.004A4589.29
Y0.024A4595.019
Y0.012A4600.749
Y0A4606.478
Y-0.011A4612.208
Y-0.023Z8000.005A4617.937
Y0.025A4623.667
Y0.013A4629.397
Y0.001A4635.126
Y-0.01A4640.856
Y-0.023A4646.585
Y0.025Z8000.006A4652.315
Y0.013A4658.045
Y0.001A4663.774
Y-0.01Z8000.005A4669.504
Y-0.022A4675.233
Y0.001Z8000A4320
X-24000Y0.021A4680
Y0.009A4685.729
Y-0.002A4691.459
Y-0.015A4697.188
Y-0.026A4702.918
Y0.021A4708.648
Y0.009A4714.377
Y-0.002A4720.107
Y-0.015A4725.836
Y-0.027A4731.566
Y0.021A4737.295
Y0.009A4743.025
Y-0.002Z8000.001A4748.754
Y-0.015A4754.484
Y-0.027A4760.213
Y0.021Z8000.002A4765.943
Y0.009A4771.673
Y-0.003A4777.402
Y-0.015Z8000.003A4783.132
Y-0.027A4788.861
Y0.021A4794.591
Y0.009A4800.321
Y-0.002A4806.05
Y-0.015A4811.78
Y-0.027A4817.509
Y0.021A4823.239
Y0.01A4828.969
Y-0.002Z8000.002A4834.698
Y-0.014Z8000.003A4840.428
Y-0.027Z8000.004A4846.157
Y0.021Z8000.003A4851.887
Y0.009Z8000.004A4857.616
Y-0.002Z8000.003A4863.346
Y-0.014A4869.075
Y-0.027A4874.805
Y0.021A4880.535
Y0.01Z8000.004A4886.264
Y-0.002Z8000.003A4891.994
Y-0.015Z8000.004A4897.723
Y-0.027A4903.453
Y0.02A4909.183
Y0.009Z8000.005A4914.912
Y-0.003A4920.642
Y-0.015A4926.371
Y-0.028A4932.101
Y0.02A4937.831
Y0.008A4943.56
Y-0.003Z8000.003A4949.29
Y-0.015Z8000.004A4955.019
Y-0.028A4960.749
Y0.02A4966.479
Y0.008Z8000.005A4972.208
Y-0.002A4977.938
Y-0.015A4983.667
Y-0.026A4989.397
Y0.021A4995.126
Y0.009A5000.856
Y-0.003Z8000.006A5006.585
Y-0.015A5012.315
Y-0.026A5018.044
Y0.021A5023.774
Y0.009Z8000.005A5029.504
Y-0.002A5035.233
Y0.021Z8000A4680
X-22000Y-0.018A5039.999
Y0.03A5045.729
Y0.018A5051.459
Y0.005A5057.188
Y-0.006A5062.918
Y-0.019A5068.647
Y0.029A5074.377
Y0.017Z7999.999A5080.107
Y0.005Z8000A5085.836
Y-0.007A5091.566
Y-0.019A5097.295
Y0.029A5103.025
Y0.017Z8000.001A5108.755
Y0.005A5114.484
Y-0.006Z8000.002A5120.214
Y-0.019A5125.943
Y0.029A5131.673
Y0.017A5137.402
Y0.005Z8000.003A5143.132
Y-0.006A5148.861
Y-0.019A5154.591
Y0.029A5160.321
Y0.017A5166.05
Y0.005A5171.78
Y-0.006A5177.509
Y-0.018A5183.239
Y0.03A5188.969
Y0.018A5194.698
Y0.005A5200.428
Y-0.006Z8000.004A5206.157
Y-0.018Z8000.003A5211.887
Y0.03Z8000.004A5217.617
Y0.017A5223.346
Y0.005Z8000.003A5229.076
Y-0.006A5234.805
Y-0.019Z8000.004A5240.535
Y0.03A5246.265
Y0.017Z8000.003A5251.994
Y0.004A5257.724
Y-0.006Z8000.004A5263.453
Y-0.02A5269.182
Y0.029A5274.912
Y0.017Z8000.005A5280.642
Y0.005A5286.371
Y-0.007A5292.101
Y-0.019A5297.83
Y0.029A5303.56
Y0.016Z8000.004A5309.29
Y0.004A5315.019
Y-0.007A5320.749
Y-0.019A5326.478
Y0.029Z8000.005A5332.208
Y0.017A5337.938
Y0.005A5343.667
Y-0.006A5349.397
Y-0.019A5355.126
Y0.029A5360.856
Y0.017Z8000.006A5366.586
Y0.005A5372.315
Y-0.006A5378.045
Y-0.018A5383.774
Y0.03Z8000.005A5389.504
Y0.018A5395.233
Y-0.018Z8000A5039.999
X-20000Y0.001A5400
Y-0.01A5405.729
Y-0.022A5411.458
Y0.025Z7999.999A5417.188
Y0.013Z8000A5422.918
Y0.001A5428.647
Y-0.01A5434.377
Y-0.022A5440.106
Y0.026Z7999.999A5445.836
Y0.013Z8000A5451.566
Y0.001A5457.295
Y-0.01A5463.025
Y-0.022Z8000.001A5468.754
Y0.025A5474.484
Y0.013Z8000.002A5480.214
Y0.001A5485.943
Y-0.011A5491.673
Y-0.023A5497.402
Y0.025Z8000.003A5503.132
Y0.013A5508.862
Y0.001A5514.591
Y-0.01A5520.321
Y-0.022A5526.05
Y0.025A5531.78
Y0.013A5537.509
Y0.001A5543.239
Y-0.009A5548.968
Y-0.022Z8000.002A5554.698
Y0.026Z8000.003A5560.428
Y0.013Z8000.004A5566.157
Y0.001Z8000.003A5571.887
Y-0.01Z8000.004A5577.616
Y-0.022A5583.346
Y0.025A5589.076
Y0.013A5594.805
Y0.001A5600.535
Y-0.01A5606.264
Y-0.022Z8000.003A5611.994
Y0.025A5617.724
Y0.013Z8000.004A5623.453
Y0A5629.183
Y-0.011A5634.912
Y-0.023Z8000.005A5640.642
Y0.025A5646.372
Y0.012A5652.101
Y0A5657.831
Y-0.011A5663.56
Y-0.023Z8000.004A5669.29
Y0.025A5675.019
Y0.012A5680.749
Y0A5686.478
Y-0.011A5692.208
Y-0.023Z8000.005A5697.937
Y0.026A5703.667
Y0.013A5709.397
Y0.001A5715.126
Y-0.01A5720.856
Y-0.022Z8000.006A5726.585
Y0.025A5732.315
Y0.014A5738.045
Y0.001A5743.774
Y-0.01Z8000.005A5749.504
Y-0.022A5755.233
Y0.001Z8000A5400
X-18000Y0.022A5760
Y0.01A5765.729
Y-0.002A5771.459
Y-0.014Z7999.999A5777.188
Y-0.026Z8000A5782.918
Y0.022A5788.648
Y0.009A5794.377
Y-0.002A5800.107
Y-0.014Z7999.999A5805.836
Y-0.026Z8000A5811.566
Y0.021A5817.295
Y0.009A5823.025
Y-0.002Z8000.001A5828.754
Y-0.014A5834.484
Y-0.027Z8000.002A5840.213
Y0.021A5845.943
Y0.009A5851.673
Y-0.002A5857.402
Y-0.015Z8000.003A5863.132
Y-0.026A5868.861
Y0.021A5874.591
Y0.01A5880.321
Y-0.002A5886.05
Y-0.015A5891.78
Y-0.027A5897.509
Y0.022A5903.239
Y0.01A5908.969
Y-0.001A5914.698
Y-0.014A5920.428
Y-0.026Z8000.004A5926.157
Y0.022Z8000.003A5931.887
Y0.009Z8000.004A5937.616
Y-0.002Z8000.003A5943.346
Y-0.014A5949.075
Y-0.027A5954.805
Y0.021Z8000.004A5960.535
Y0.01A5966.264
Y-0.002A5971.994
Y-0.015Z8000.003A5977.723
Y-0.027Z8000.004A5983.453
Y0.021A5989.183
Y0.009A5994.912
Y-0.003Z8000.005A6000.642
Y-0.015A6006.371
Y-0.027A6012.101
Y0.021A6017.831
Y0.009A6023.56
Y-0.003Z8000.003A6029.29
Y-0.015Z8000.004A6035.019
Y-0.027A6040.749
Y0.021A6046.479
Y0.009Z8000.005A6052.208
Y-0.002A6057.938
Y-0.014A6063.667
Y-0.026A6069.397
Y0.022A6075.126
Y0.01A6080.856
Y-0.002A6086.585
Y-0.014Z8000.006A6092.315
Y-0.026A6098.044
Y0.022A6103.774
Y0.01Z8000.005A6109.504
Y-0.002A6115.233
Y0.022Z8000A5760
X-16000Y-0.018A6119.999
Y-0.03A6125.729
Y0.018A6131.459
Y0.005A6137.188
Y-0.006A6142.918
Y-0.018A6148.647
Y-0.03A6154.377
Y0.018A6160.107
Y0.005A6165.836
Y-0.006A6171.566
Y-0.019A6177.295
Y-0.031A6183.025
Y0.017Z8000.001A6188.755
Y0.005A6194.484
Y-0.006Z8000.002A6200.214
Y-0.018A6205.943
Y-0.031A6211.673
Y0.017A6217.402
Y0.005Z8000.003A6223.132
Y-0.006A6228.861
Y-0.018A6234.591
Y-0.03A6240.32
Y0.018A6246.05
Y0.005A6251.78
Y-0.006A6257.509
Y-0.018A6263.239
Y-0.03A6268.968
Y0.018Z8000.002A6274.698
Y0.006Z8000.003A6280.428
Y-0.006Z8000.004A6286.157
Y-0.018Z8000.003A6291.887
Y-0.03Z8000.004A6297.616
Y0.018A6303.346
Y0.005Z8000.003A6309.076
Y-0.006A6314.805
Y-0.018A6320.535
Y-0.03Z8000.005A6326.264
Y0.017Z8000.004A6331.994
Y0.005Z8000.003A6337.724
Y-0.006Z8000.004A6343.453
Y-0.019A6349.182
Y-0.031A6354.912
Y0.017Z8000.005A6360.642
Y0.005A6366.371
Y-0.007A6372.101
Y-0.019A6377.83
Y-0.031Z8000.004A6383.56
Y0.017A6389.29
Y0.005Z8000.005A6395.019
Y-0.007Z8000.004A6400.749
Y-0.019A6406.478
Y-0.031A6412.208
Y0.017Z8000.005A6417.938
Y0.005A6423.667
Y-0.006A6429.397
Y-0.018A6435.126
Y-0.03A6440.856
Y0.018Z8000.006A6446.586
Y0.005A6452.315
Y-0.005A6458.045
Y-0.018A6463.774
Y-0.03Z8000.005A6469.504
Y0.018A6475.233
Y-0.018Z8000A6119.999
X-14000Y0.002A6480
Y-0.009A6485.729
Y-0.022A6491.458
Y0.026Z7999.999A6497.188
Y0.014Z8000A6502.918
Y0.001A6508.647
Y-0.01A6514.377
Y-0.022A6520.106
Y0.026Z7999.999A6525.836
Y0.014Z8000A6531.566
Y0.001A6537.295
Y-0.01A6543.025
Y-0.022Z8000.001A6548.754
Y0.026A6554.484
Y0.013A6560.214
Y0.001Z8000.002A6565.943
Y-0.01A6571.673
Y-0.023A6577.402
Y0.026Z8000.003A6583.132
Y0.014A6588.862
Y0.001A6594.591
Y-0.01A6600.321
Y-0.022A6606.05
Y0.025A6611.78
Y0.014A6617.509
Y0.001A6623.239
Y-0.009A6628.968
Y-0.021A6634.698
Y0.026A6640.428
Y0.014Z8000.004A6646.157
Y0.002Z8000.003A6651.887
Y-0.01Z8000.004A6657.616
Y-0.022A6663.346
Y0.026A6669.076
Y0.013Z8000.003A6674.805
Y0.001A6680.535
Y-0.009Z8000.004A6686.264
Y-0.022A6691.994
Y0.025Z8000.003A6697.724
Y0.013A6703.453
Y0Z8000.004A6709.183
Y-0.01A6714.912
Y-0.023Z8000.005A6720.642
Y0.025A6726.372
Y0.013A6732.101
Y0.001A6737.831
Y-0.011A6743.56
Y-0.023Z8000.004A6749.29
Y0.025A6755.019
Y0.013A6760.749
Y0.001A6766.478
Y-0.011A6772.208
Y-0.022Z8000.005A6777.937
Y0.026A6783.667
Y0.014A6789.397
Y0.001A6795.126
Y-0.01A6800.856
Y-0.022Z8000.006A6806.585
Y0.026A6812.315
Y0.014A6818.045
Y0.002A6823.774
Y-0.01Z8000.005A6829.504
Y-0.022A6835.233
Y0.002Z8000A6480
X-12000Y0.022A6840
Y0.01A6845.729
Y-0.001A6851.459
Y-0.014Z7999.999A6857.188
Y-0.026Z8000A6862.918
Y0.022A6868.648
Y0.01A6874.377
Y-0.001A6880.107
Y-0.014A6885.836
Y-0.026A6891.566
Y0.022A6897.295
Y0.009A6903.025
Y-0.002Z8000.001A6908.754
Y-0.014A6914.484
Y-0.026Z8000.002A6920.213
Y0.022A6925.943
Y0.009A6931.673
Y-0.002A6937.402
Y-0.014Z8000.003A6943.132
Y-0.026A6948.861
Y0.022A6954.591
Y0.01A6960.321
Y-0.001A6966.05
Y-0.014A6971.78
Y-0.026A6977.509
Y0.022A6983.239
Y0.01A6988.969
Y-0.001A6994.698
Y-0.013A7000.428
Y-0.026Z8000.004A7006.157
Y0.022Z8000.003A7011.887
Y0.01Z8000.004A7017.616
Y-0.001Z8000.003A7023.346
Y-0.014Z8000.004A7029.075
Y-0.026Z8000.003A7034.805
Y0.022A7040.535
Y0.01Z8000.004A7046.264
Y-0.002Z8000.003A7051.994
Y-0.014A7057.723
Y-0.026Z8000.004A7063.453
Y0.021A7069.183
Y0.01A7074.912
Y-0.002Z8000.005A7080.642
Y-0.015A7086.371
Y-0.027A7092.101
Y0.021A7097.831
Y0.009A7103.56
Y-0.002Z8000.003A7109.29
Y-0.015Z8000.004A7115.019
Y-0.027A7120.749
Y0.021A7126.479
Y0.009Z8000.005A7132.208
Y-0.002A7137.938
Y-0.014A7143.667
Y-0.026A7149.397
Y0.022A7155.126
Y0.01A7160.856
Y-0.001Z8000.006A7166.585
Y-0.014A7172.315
Y-0.026A7178.044
Y0.022A7183.774
Y0.01Z8000.005A7189.504
Y-0.001A7195.233
Y0.022Z8000A6840
X-10000Y-0.017A7199.999
Y-0.03A7205.729
Y0.018A7211.459
Y0.006A7217.188
Y-0.005A7222.918
Y-0.018A7228.647
Y-0.03A7234.377
Y0.018A7240.107
Y0.006Z7999.999A7245.836
Y-0.006Z8000A7251.566
Y-0.018A7257.295
Y-0.03A7263.025
Y0.018Z8000.001A7268.755
Y0.006A7274.484
Y-0.006A7280.214
Y-0.018Z8000.002A7285.943
Y-0.03A7291.673
Y0.017A7297.402
Y0.005Z8000.003A7303.132
Y-129.324Z8004.441A7308.635
Y-0.007Z9347.946A7308.861
Y-0.021Z9627.216A7314.591
Y-0.037Z9840.27A7320.32
Y0.022Z9984.99A7326.05
Y0.008Z10000.002A7331.78
Y-0.007Z10000.003A7337.509
G1Y0.052Z9998.072A7343.239
Y-0.036Z9861.956A7348.968
Y0.022Z9657.255A7354.698
Y-0.064Z9386.072A7360.427
Y132.834Z8004.547A7360.661
G0Y-0.005Z8000.004A7366.157
Y0.043Z8000.003A7371.887
Y-0.03Z8000.004A7377.616
Y0.018A7383.346
Y-0.054Z8000.003A7389.075
Y-0.006A7394.805
Y0.042A7400.535
Y-0.029Z8000.004A7406.264
Y0.018A7411.994
Y-0.055Z8000.003A7417.723
Y-0.006Z8000.004A7423.453
Y0.041A7429.183
Y-0.03A7434.912
Y0.017Z8000.005A7440.642
Y-0.055A7446.371
Y-0.006A7452.101
Y0.042A7457.831
Y-0.031A7463.56
Y0.017Z8000.004A7469.29
Y-0.055A7475.019
Y-0.006A7480.749
Y0.041Z8000.003A7486.479
Y-0.031Z8000.004A7492.208
Y0.018Z8000.005A7497.938
Y-0.054A7503.667
Y-0.005A7509.397
Y0.043A7515.127
Y-0.03A7520.856
Y0.018A7526.586
Y-0.054Z8000.006A7532.315
Y-0.005A7538.045
Y0.043A7543.774
Y-0.029Z8000.005A7549.504
Y0.018A7555.233
Y-0.017Z8000A7199.999
X-8000Y-0.058A7559.999
Y-0.009A7565.729
Y0.039A7571.459
Y-0.034A7577.188
Y0.014A7582.918
Y-0.058A7588.647
Y-0.01A7594.377
Y0.038Z7999.999A7600.107
Y-0.034A7605.836
Y0.014Z8000A7611.566
Y-0.058A7617.295
Y-0.01A7623.025
Y0.038A7628.755
Y-0.034Z8000.001A7634.484
Y0.014A7640.214
Y-0.059Z8000.002A7645.943
Y-14.354Z8000.537A7651.647
Y-0.01Z8143.86A7651.673
Y0.041Z8602.566A7657.403
Y-0.039Z9005.23A7663.132
Y0.016Z9347.953A7668.862
Y-0.071Z9627.202A7674.591
Y-0.012Z9840.274A7680.321
Y0.048Z9984.992A7686.05
Y-0.043Z10000.003A7691.78
Y0.017A7697.509
G1Y-0.072Z9998.085A7703.239
Y-0.011Z9861.951A7708.968
Y0.047Z9657.247A7714.698
Y-0.04Z9386.066A7720.427
Y0.016Z9051.029A7726.157
Y-0.063Z8655.591A7731.886
Y-0.01Z8203.584A7737.616
Y20.254Z8000.757A7737.652
G0Y0.039Z8000.003A7743.346
Y-0.034Z8000.004A7749.075
Y0.014Z8000.003A7754.805
Y-0.058A7760.534
Y-0.009Z8000.004A7766.264
Y0.038Z8000.003A7771.994
Y-0.034Z8000.004A7777.723
Y0.014A7783.453
Y-0.059A7789.182
Y-0.01A7794.912
Y0.038A7800.642
Y-0.034A7806.371
Y0.013Z8000.005A7812.101
Y-0.059A7817.83
Y-0.01A7823.56
Y0.038Z8000.003A7829.29
Y-0.035Z8000.004A7835.019
Y0.013A7840.749
Y-0.059A7846.478
Y-0.01A7852.208
Y0.038Z8000.005A7857.938
Y-0.034A7863.667
Y0.014A7869.397
Y-0.058A7875.126
Y-0.009A7880.856
Y0.038Z8000.006A7886.586
Y-0.034A7892.315
Y0.014A7898.045
Y-0.058A7903.774
Y-0.009Z8000.005A7909.504
Y0.039A7915.234
Y-0.058Z8000A7559.999
X-6000Y-0.037A7919.999
Y0.01A7925.729
Y0.059A7931.459
Y-0.013Z7999.999A7937.188
Y0.035Z8000A7942.918
Y-0.038A7948.647
Y0.01A7954.377
Y0.059A7960.107
Y-0.013Z7999.999A7965.836
Y0.034Z8000A7971.566
Y-0.038A7977.295
Y0.01A7983.025
Y0.059A7988.755
Y-0.014Z8000.001A7994.484
Y0.034Z8000.002A8000.214
Y-0.038A8005.943
G1Y-10.386Z7992.13A8010.057
G0Y0.01Z8143.872A8011.673
Y0.063Z8602.577A8017.403
Y-0.015Z9005.241A8023.132
Y0.04Z9347.962A8028.862
Y-0.045Z9627.21A8034.591
Y0.012Z9840.279A8040.321
Y0.073Z9984.994A8046.051
Y-0.017Z10000.003A8051.78
Y0.043A8057.51
G1Y-0.047Z9998.083A8063.239
Y0.013Z9861.948A8068.969
Y0.072Z9657.241A8074.699
Y-0.015Z9386.057A8080.428
Y0.039Z9051.02A8086.158
Y-0.041Z8655.583A8091.887
Y0.01Z8203.572A8097.616
Y12.202Z7990.492A8099.931
G0Y0.059Z8000.004A8103.346
Y-0.013A8109.075
Y0.034Z8000.003A8114.805
Y-0.038A8120.534
Y0.01Z8000.004A8126.264
Y0.059A8131.994
Y-0.014Z8000.003A8137.723
Y0.034A8143.453
Y-0.038Z8000.004A8149.182
Y0.01A8154.912
Y0.058Z8000.005A8160.642
Y-0.014A8166.371
Y0.034A8172.101
Y-0.038A8177.83
Y0.009A8183.56
Y0.058Z8000.004A8189.29
Y-0.014A8195.019
Y0.034A8200.749
Y-0.039A8206.478
Y0.009A8212.208
Y0.059Z8000.005A8217.938
Y-0.013A8223.667
Y0.035A8229.397
Y-0.038A8235.126
Y0.01A8240.856
Y0.059Z8000.006A8246.586
Y-0.013A8252.315
Y0.035A8258.045
Y-0.037A8263.774
Y0.01Z8000.005A8269.504
Y0.059A8275.234
Y-0.037Z8000A7919.999
X-4000Y-0.017A8279.999
Y0.031A8285.729
Y-0.041A8291.458
Y0.006A8297.188
Y0.055A8302.918
Y-0.017A8308.647
Y0.03A8314.377
Y-0.042A8320.106
Y0.006Z7999.999A8325.836
Y0.055Z8000A8331.566
Y-0.017A8337.295
Y0.03A8343.025
Y-0.042A8348.754
Y0.006Z8000.001A8354.484
Y0.055Z8000.002A8360.214
Y-0.018A8365.943
G1Y-10.469Z7992.13A8370.056
G0Y0.031Z8143.883A8371.673
Y-0.045Z8602.522A8377.402
Y0.007Z9005.251A8383.132
Y0.064Z9347.968A8388.862
Y-0.021Z9627.216A8394.591
Y0.037Z9840.283A8400.321
Y-0.053Z9984.98A8406.05
Y0.007Z10000.003A8411.78
Y0.069A8417.51
G1Y-0.021Z9998.081A8423.239
Y0.038Z9861.943A8428.969
Y-0.049Z9657.272A8434.698
Y0.007Z9386.05A8440.428
Y0.062Z9051.012A8446.158
Y-0.018Z8655.57A8451.887
Y0.032Z8203.558A8457.617
Y12.191Z7990.492A8459.931
G0Y-0.042Z8000.003A8463.346
Y0.006A8469.076
Y0.055A8474.806
Y-0.017A8480.535
Y0.031Z8000.004A8486.265
Y-0.042A8491.994
Y0.006A8497.724
Y0.054A8503.453
Y-0.018A8509.182
Y0.03A8514.912
Y-0.042Z8000.005A8520.641
Y0.006A8526.371
Y0.054A8532.101
Y-0.018A8537.83
Y0.03A8543.56
Y-0.042Z8000.004A8549.289
Y0.005Z8000.005A8555.019
Y0.054Z8000.004A8560.749
Y-0.018A8566.478
Y0.03A8572.208
Y-0.042Z8000.005A8577.937
Y0.006A8583.667
Y0.055A8589.397
Y-0.017A8595.126
Y0.03A8600.856
Y-0.042A8606.585
Y0.006Z8000.006A8612.315
Y0.055A8618.045
Y-0.017A8623.774
Y0.031Z8000.005A8629.504
Y-0.041A8635.233
Y-0.017Z8000A8279.999
X-2000Y0.003A8640
Y0.051A8645.729
Y-0.021A8651.459
Y0.027A8657.188
Y-0.046A8662.917
Y0.002A8668.647
Y0.051A8674.377
Y-0.021A8680.106
Y0.026A8685.836
Y-0.046A8691.565
Y0.002A8697.295
Y0.051A8703.025
Y-0.021Z8000.001A8708.754
Y0.027A8714.484
Y-0.046Z8000.002A8720.213
Y0.002A8725.943
Y-14.295Z8000.535A8731.648
Y0.052Z8143.897A8731.673
Y-0.023Z8602.534A8737.402
Y0.03Z9005.261A8743.132
Y-0.054Z9347.93A8748.861
Y0.002Z9627.222A8754.591
Y0.062Z9840.288A8760.321
Y-0.028Z9984.984A8766.05
Y0.033Z10000.003A8771.78
Y-0.058A8777.509
G1Y0.003Z9998.078A8783.239
Y0.063Z9861.938A8788.969
Y-0.026Z9657.266A8794.698
Y0.031Z9386.041A8800.428
Y-0.051Z9051.057A8806.157
Y0.003Z8655.56A8811.887
Y0.052Z8203.547A8817.617
Y20.191Z8000.757A8817.652
G0Y-0.021Z8000.004A8823.346
Y0.027Z8000.003A8829.076
Y-0.046A8834.805
Y0.002A8840.535
Y0.051Z8000.004A8846.265
Y-0.021Z8000.003A8851.994
Y0.026A8857.724
Y-0.046Z8000.004A8863.453
Y0.002A8869.183
Y0.051A8874.913
Y-0.022Z8000.005A8880.642
Y0.026A8886.372
Y-0.046A8892.101
Y0.001A8897.831
Y0.05A8903.56
Y-0.022Z8000.004A8909.29
Y0.026A8915.019
Y-0.047A8920.748
Y0.001A8926.478
Y0.05Z8000.005A8932.208
Y-0.021A8937.937
Y0.027A8943.667
Y-0.046A8949.396
Y0.002A8955.126
Y0.051A8960.856
Y-0.021A8966.585
Y0.027Z8000.006A8972.315
Y-0.046A8978.044
Y0.002A8983.774
Y0.051Z8000.005A8989.504
Y-0.021A8995.233
Y0.003Z8000A8640
X0Y0.023A9000
Y-0.049A9005.729
Y-0A9011.459
Y0.047A9017.189
Y-0.025A9022.918
Y0.023A9028.648
Y-0.05A9034.377
Y-0.001A9040.107
Y0.047Z7999.999A9045.836
Y-0.025Z8000A9051.566
Y0.022A9057.295
Y-0.05A9063.025
Y-0.001A9068.754
Y0.047Z8000.001A9074.484
Y-0.025A9080.213
Y0.022Z8000.002A9085.943
Y-0.05A9091.672
Y-0.001A9097.402
Y0.047Z8000.003A9103.132
Y-129.282Z8004.44A9108.635
Y-0.03Z9347.937A9108.861
Y0.027Z9627.227A9114.591
Y-0.061Z9840.265A9120.32
Y-0Z9984.987A9126.05
Y0.058Z10000.003A9131.78
Y-0.033A9137.509
G1Y0.03Z9998.074A9143.239
Y-0.061Z9861.961A9148.968
Y-0Z9657.259A9154.698
Y0.055Z9386.033A9160.428
Y132.812Z8004.548A9160.661
G0Y-0.025Z8000.003A9166.157
Y0.023A9171.887
Y-0.049Z8000.004A9177.616
Y-0.001Z8000.003A9183.346
Y0.047Z8000.004A9189.076
Y-0.025Z8000.003A9194.805
Y0.022Z8000.004A9200.535
Y-0.049A9206.264
Y-0A9211.994
Y0.046A9217.724
Y-0.025A9223.453
Y0.022A9229.183
Y-0.05A9234.912
Y-0.001Z8000.005A9240.642
Y0.046Z8000.004A9246.372
Y-0.026Z8000.005A9252.101
Y0.022A9257.831
Y-0.05A9263.56
Y-0.002Z8000.003A9269.29
Y0.046Z8000.004A9275.02
Y-0.026A9280.749
Y0.022A9286.479
Y-0.05A9292.208
Y-0.001Z8000.005A9297.938
Y0.047A9303.667
Y-0.025A9309.397
Y0.023A9315.126
Y-0.05A9320.856
Y-0.001A9326.585
Y0.047Z8000.006A9332.315
Y-0.025A9338.044
Y0.023A9343.774
Y-0.049Z8000.005A9349.503
Y-0A9355.233
Y0.023Z8000A9000
X2000Y0.043A9360
Y-0.029A9365.729
Y0.019A9371.459
Y-0.054A9377.188
Y-0.005A9382.918
Y0.043A9388.648
Y-0.03A9394.377
Y0.019A9400.107
Y-0.053A9405.836
Y-0.005A9411.566
Y0.043A9417.296
Y-0.029A9423.025
Y0.019A9428.755
Y-0.053Z8000.001A9434.484
Y-0.005A9440.214
Y0.043Z8000.002A9445.943
Y-0.029A9451.673
Y0.018A9457.402
Y-0.054Z8000.003A9463.132
Y-0.005A9468.861
Y0.043A9474.591
Y-0.03A9480.32
Y0.019A9486.05
Y-0.054A9491.779
Y-0.005A9497.509
Y0.043A9503.239
Y-0.028A9508.968
Y0.019A9514.698
Y-0.053A9520.427
Y-0.005A9526.157
Y0.043A9531.887
Y-0.029Z8000.004A9537.616
Y0.019A9543.346
Y-0.053A9549.075
Y-0.005Z8000.003A9554.805
Y0.043Z8000.004A9560.535
Y-0.029Z8000.005A9566.264
Y0.019Z8000.004A9571.994
Y-0.054Z8000.003A9577.723
Y-0.005Z8000.004A9583.453
Y0.042A9589.183
Y-0.03A9594.912
Y0.018Z8000.005A9600.642
Y-0.054A9606.371
Y-0.005A9612.101
Y0.042A9617.831
Y-0.03A9623.56
Y0.018Z8000.004A9629.29
Y-0.054Z8000.005A9635.019
Y-0.006Z8000.004A9640.749
Y0.042A9646.479
Y-0.03A9652.208
Y0.018Z8000.005A9657.938
Y-0.054A9663.667
Y-0.005A9669.397
Y0.043A9675.127
Y-0.029A9680.856
Y0.019A9686.586
Y-0.054Z8000.006A9692.315
Y-0.005A9698.045
Y0.043A9703.774
Y-0.029Z8000.005A9709.504
Y0.019A9715.233
Y0.043Z8000A9360
X4000Y-0.057A9719.999
Y-0.008A9725.729
Y0.039A9731.459
Y-0.033A9737.188
Y0.015A9742.918
Y-0.057A9748.647
Y-0.009A9754.377
Y0.039A9760.107
Y-0.033A9765.836
Y0.015A9771.566
Y-0.058A9777.295
Y-0.009A9783.025
Y0.039A9788.755
Y-0.033Z8000.001A9794.484
Y0.014Z8000.002A9800.214
Y-0.058A9805.943
Y-0.009A9811.673
Y0.039A9817.403
Y-0.033Z8000.003A9823.132
Y0.015A9828.862
Y-0.058A9834.591
Y-0.009A9840.321
Y0.039Z8000.002A9846.051
Y-0.033Z8000.003A9851.78
Y0.015A9857.509
Y-0.057A9863.239
Y-0.008A9868.968
Y0.04A9874.698
Y-0.033A9880.427
Y0.015Z8000.004A9886.157
Y-0.057Z8000.003A9891.886
Y-0.008Z8000.004A9897.616
Y0.039Z8000.003A9903.346
Y-0.033A9909.075
Y0.015Z8000.004A9914.805
Y-0.057Z8000.003A9920.534
Y-0.008Z8000.005A9926.264
Y0.039Z8000.004A9931.994
Y-0.034A9937.723
Y0.014A9943.453
Y-0.058A9949.182
Y-0.009A9954.912
Y0.038Z8000.005A9960.642
Y-0.034A9966.371
Y0.014A9972.101
Y-0.058A9977.83
Y-0.009A9983.56
Y0.038Z8000.004A9989.29
Y-0.034A9995.019
Y0.014A10000.749
Y-0.058A10006.478
Y-0.01Z8000.005A10012.208
Y0.039Z8000.004A10017.938
Y-0.033Z8000.005A10023.667
Y0.015A10029.397
Y-0.057A10035.126
Y-0.009A10040.856
Y0.039Z8000.006A10046.586
Y-0.033A10052.315
Y0.015A10058.045
Y-0.057A10063.774
Y-0.008A10069.504
Y0.04Z8000.005A10075.234
Y-0.057Z8000A9719.999
X6000Y-0.037A10079.999
Y0.011A10085.729
Y0.06A10091.459
Y-0.013A10097.188
Y0.035A10102.918
Y-0.037A10108.647
Y0.011A10114.377
Y0.059A10120.107
Y-0.012A10125.836
Y0.035A10131.566
Y-0.037A10137.295
Y0.011A10143.025
Y0.06A10148.755
Y-0.013Z8000.001A10154.484
Y0.035Z8000.002A10160.214
Y-0.037A10165.943
Y0.01A10171.673
Y0.059A10177.403
Y-0.013Z8000.003A10183.132
Y0.035A10188.862
Y-0.037A10194.591
Y0.01A10200.321
Y0.06A10206.051
Y-0.013A10211.78
Y0.035A10217.51
Y-0.037A10223.239
Y0.011A10228.969
Y0.06A10234.699
Y-0.012A10240.428
Y0.035Z8000.004A10246.158
Y-0.037Z8000.003A10251.887
Y0.011Z8000.004A10257.617
Y0.06A10263.346
Y-0.012A10269.075
Y0.035Z8000.003A10274.805
Y-0.037A10280.534
Y0.011Z8000.005A10286.264
Y0.06Z8000.004A10291.994
Y-0.013Z8000.003A10297.723
Y0.035A10303.453
Y-0.038Z8000.004A10309.182
Y0.01A10314.912
Y0.059Z8000.005A10320.642
Y-0.013A10326.371
Y0.034A10332.101
Y-0.038A10337.83
Y0.01A10343.56
Y0.059Z8000.004A10349.29
Y-0.013A10355.019
Y0.034A10360.749
Y-0.038A10366.478
Y0.01Z8000.005A10372.208
Y0.059A10377.938
Y-0.012A10383.667
Y0.035A10389.397
Y-0.037A10395.126
Y0.011A10400.856
Y0.06Z8000.006A10406.586
Y-0.012A10412.315
Y0.035A10418.045
Y-0.037A10423.774
Y0.011Z8000.005A10429.504
Y0.06A10435.234
Y-0.037Z8000A10079.999
X8000Y-0.016A10439.999
Y0.032A10445.729
Y-0.041A10451.458
Y0.007A10457.188
Y0.056A10462.918
Y-0.017A10468.647
Y0.031A10474.377
Y-0.041A10480.106
Y0.007Z7999.999A10485.836
Y0.056Z8000A10491.566
Y-0.017A10497.295
Y0.031A10503.025
Y-0.041Z8000.001A10508.754
Y0.007A10514.484
Y0.056Z8000.002A10520.214
Y-0.017A10525.943
Y0.031A10531.673
Y-0.042A10537.402
Y0.007Z8000.003A10543.132
Y0.056A10548.862
Y-0.017A10554.591
Y0.031A10560.321
Y-0.041A10566.05
Y0.006A10571.78
Y0.056A10577.51
Y-0.016A10583.239
Y0.032Z8000.002A10588.969
Y-0.04Z8000.003A10594.698
Y0.007A10600.428
Y0.056A10606.158
Y-0.016A10611.887
Y0.031Z8000.004A10617.617
Y-0.041A10623.346
Y0.007A10629.076
Y0.056Z8000.003A10634.806
Y-0.016A10640.535
Y0.032Z8000.004A10646.265
Y-0.041A10651.994
Y0.006Z8000.003A10657.724
Y0.056Z8000.004A10663.453
Y-0.017A10669.182
Y0.031A10674.912
Y-0.042Z8000.005A10680.641
Y0.006Z8000.004A10686.371
Y0.055Z8000.005A10692.101
Y-0.017A10697.83
Y0.031A10703.56
Y-0.042Z8000.003A10709.289
Y0.006Z8000.004A10715.019
Y0.055A10720.749
Y-0.017A10726.478
Y0.03A10732.208
Y-0.041Z8000.005A10737.937
Y0.007A10743.667
Y0.056A10749.397
Y-0.016A10755.126
Y0.031A10760.856
Y-0.041A10766.585
Y0.007Z8000.006A10772.315
Y0.056A10778.045
Y-0.016A10783.774
Y0.032Z8000.005A10789.504
Y-0.041A10795.233
Y-0.016Z8000A10439.999
X10000Y0.003A10800
Y0.052A10805.729
Y-0.02A10811.459
Y0.027Z7999.999A10817.188
Y-0.045Z8000A10822.917
Y0.003A10828.647
Y0.052A10834.377
Y-0.02A10840.106
Y0.027Z7999.999A10845.836
Y-0.045Z8000A10851.565
Y0.003A10857.295
Y0.052A10863.025
Y-0.021A10868.754
Y0.027Z8000.001A10874.484
Y-0.045A10880.213
Y0.003Z8000.002A10885.943
Y0.051A10891.673
Y-0.021A10897.402
Y0.027Z8000.003A10903.132
Y-0.045A10908.861
Y0.002A10914.591
Y0.051A10920.321
Y-0.021A10926.05
Y0.027A10931.78
Y-0.045A10937.509
Y0.003A10943.239
Y0.052A10948.969
Y-0.02A10954.698
Y0.028A10960.428
Y-0.045Z8000.004A10966.157
Y0.003Z8000.003A10971.887
Y0.052Z8000.004A10977.617
Y-0.02A10983.346
Y0.028Z8000.003A10989.076
Y-0.045A10994.805
Y0.003A11000.535
Y0.052Z8000.004A11006.265
Y-0.02Z8000.003A11011.994
Y0.027A11017.724
Y-0.045Z8000.004A11023.453
Y0.002A11029.183
Y0.051A11034.913
Y-0.021Z8000.005A11040.642
Y0.027A11046.372
Y-0.046A11052.101
Y0.002A11057.831
Y0.051A11063.56
Y-0.021Z8000.004A11069.29
Y0.027Z8000.005A11075.019
Y-0.046Z8000.004A11080.748
Y0.002A11086.478
Y0.051A11092.208
Y-0.021Z8000.005A11097.937
Y0.027A11103.667
Y-0.045A11109.396
Y0.003A11115.126
Y0.052A11120.856
Y-0.02A11126.585
Y0.027Z8000.006A11132.315
Y-0.045A11138.044
Y0.003A11143.774
Y0.052Z8000.005A11149.504
Y-0.02A11155.233
Y0.003Z8000A10800
X12000Y0.024A11160
Y-0.049A11165.729
Y0A11171.459
Y0.048Z7999.999A11177.189
Y-0.024Z8000A11182.918
Y0.024A11188.648
Y-0.049A11194.377
Y-0A11200.107
Y0.048Z7999.999A11205.836
Y-0.025Z8000A11211.566
Y0.023A11217.295
Y-0.049A11223.025
Y0A11228.754
Y0.048Z8000.001A11234.484
Y-0.025A11240.213
Y0.023Z8000.002A11245.943
Y-0.049A11251.672
Y-0A11257.402
Y0.048Z8000.003A11263.132
Y-0.025A11268.861
Y0.023A11274.591
Y-0.049A11280.32
Y0Z8000.002A11286.05
Y0.047Z8000.003A11291.78
Y-0.025A11297.509
Y0.024A11303.239
Y-0.048A11308.968
Y0A11314.698
Y0.048A11320.428
Y-0.024Z8000.004A11326.157
Y0.024Z8000.003A11331.887
Y-0.049Z8000.004A11337.616
Y0A11343.346
Y0.048Z8000.003A11349.076
Y-0.025A11354.805
Y0.023A11360.535
Y-0.048Z8000.004A11366.264
Y-0A11371.994
Y0.047A11377.724
Y-0.025A11383.453
Y0.022A11389.183
Y-0.05Z8000.005A11394.912
Y-0.001A11400.642
Y0.047A11406.372
Y-0.025A11412.101
Y0.023A11417.831
Y-0.05A11423.56
Y-0.001Z8000.003A11429.29
Y0.047Z8000.004A11435.02
Y-0.025A11440.749
Y0.023A11446.479
Y-0.05A11452.208
Y-0Z8000.005A11457.938
Y0.048A11463.667
Y-0.024A11469.397
Y0.024A11475.126
Y-0.049A11480.856
Y0Z8000.006A11486.585
Y0.048A11492.315
Y-0.024A11498.044
Y0.024A11503.774
Y-0.048Z8000.005A11509.503
Y0A11515.233
Y0.024Z8000A11160
X14000Y0.044A11520
Y-0.028A11525.729
Y0.02A11531.459
Y-0.053Z7999.999A11537.188
Y-0.004Z8000A11542.918
Y0.044A11548.648
Y-0.029A11554.377
Y0.019A11560.107
Y-0.053A11565.836
Y-0.004A11571.566
Y0.043A11577.296
Y-0.029A11583.025
Y0.02A11588.755
Y-0.053Z8000.001A11594.484
Y-0.004Z8000.002A11600.214
Y0.044A11605.943
Y-0.029A11611.673
Y0.019A11617.402
Y-0.053Z8000.003A11623.132
Y-0.004A11628.861
Y0.043A11634.591
Y-0.028A11640.32
Y0.02A11646.05
Y-0.053A11651.779
Y-0.004A11657.509
Y0.044A11663.239
Y-0.028A11668.968
Y0.02A11674.698
Y-0.052A11680.427
Y-0.004Z8000.004A11686.157
Y0.044Z8000.003A11691.887
Y-0.028Z8000.004A11697.616
Y0.02A11703.346
Y-0.053A11709.075
Y-0.004Z8000.003A11714.805
Y0.044A11720.535
Y-0.028Z8000.004A11726.264
Y0.02A11731.994
Y-0.054Z8000.003A11737.723
Y-0.005A11743.453
Y0.043Z8000.004A11749.183
Y-0.029A11754.912
Y0.019Z8000.005A11760.642
Y-0.053A11766.371
Y-0.005A11772.101
Y0.043A11777.831
Y-0.029A11783.56
Y0.019Z8000.004A11789.29
Y-0.054Z8000.005A11795.019
Y-0.005Z8000.004A11800.749
Y0.043A11806.479
Y-0.029A11812.208
Y0.019Z8000.005A11817.938
Y-0.052A11823.667
Y-0.004A11829.397
Y0.044A11835.127
Y-0.028A11840.856
Y0.019Z8000.006A11846.586
Y-0.053A11852.315
Y-0.004A11858.045
Y0.044A11863.774
Y-0.028Z8000.005A11869.504
Y0.02A11875.233
Y0.044Z8000A11520
X16000Y-0.056A11879.999
Y-0.008A11885.729
Y0.04A11891.459
Y-0.032A11897.188
Y0.016A11902.918
Y-0.057A11908.647
Y-0.008A11914.377
Y0.04A11920.107
Y-0.032A11925.836
Y0.015A11931.566
Y-0.057A11937.295
Y-0.008A11943.025
Y0.04A11948.755
Y-0.032Z8000.001A11954.484
Y0.015Z8000.002A11960.214
Y-0.057A11965.943
Y-0.008A11971.673
Y0.039A11977.403
Y-0.033Z8000.003A11983.132
Y0.015A11988.862
Y-0.057A11994.591
Y-0.008A12000.321
Y0.04Z8000.002A12006.051
Y-0.033Z8000.003A12011.78
Y0.015A12017.509
Y-0.057A12023.239
Y-0.007A12028.968
Y0.041Z8000.002A12034.698
Y-0.032Z8000.003A12040.427
Y0.016Z8000.004A12046.157
Y-0.056Z8000.003A12051.886
Y-0.008Z8000.004A12057.616
Y0.04A12063.346
Y-0.032Z8000.003A12069.075
Y0.015A12074.805
Y-0.057A12080.534
Y-0.008Z8000.004A12086.264
Y0.04A12091.994
Y-0.033Z8000.003A12097.723
Y0.015Z8000.004A12103.453
Y-0.057A12109.182
Y-0.008A12114.912
Y0.039Z8000.005A12120.642
Y-0.033A12126.371
Y0.015A12132.101
Y-0.058A12137.83
Y-0.009A12143.56
Y0.039Z8000.004A12149.29
Y-0.033A12155.019
Y0.015A12160.749
Y-0.058Z8000.003A12166.478
Y-0.009Z8000.004A12172.208
Y0.04A12177.938
Y-0.032Z8000.005A12183.667
Y0.015A12189.397
Y-0.056A12195.126
Y-0.008A12200.856
Y0.04Z8000.006A12206.586
Y-0.032A12212.315
Y0.016A12218.045
Y-0.056A12223.774
Y-0.007Z8000.005A12229.504
Y0.04A12235.234
Y-0.056Z8000A11879.999
X18000Y-0.036A12239.999
Y0.012A12245.729
Y-0.06A12251.458
Y-0.012Z7999.999A12257.188
Y0.036Z8000A12262.918
Y-0.036A12268.647
Y0.011A12274.377
Y-0.061A12280.106
Y-0.012A12285.836
Y0.036A12291.566
Y-0.037A12297.295
Y0.011A12303.025
Y-0.061Z8000.001A12308.754
Y-0.012A12314.484
Y0.036Z8000.002A12320.214
Y-0.037A12325.943
Y0.011A12331.673
Y-0.061Z8000.001A12337.402
Y-0.012Z8000.003A12343.132
Y0.036A12348.862
Y-0.037A12354.591
Y0.012A12360.321
Y-0.061A12366.05
Y-0.012A12371.78
Y0.036A12377.51
Y-0.036A12383.239
Y0.012Z8000.002A12388.969
Y-0.06Z8000.003A12394.698
Y-0.011A12400.428
Y0.036Z8000.004A12406.158
Y-0.036Z8000.003A12411.887
Y0.012Z8000.004A12417.617
Y-0.061A12423.346
Y-0.012Z8000.003A12429.075
Y0.036A12434.805
Y-0.036A12440.534
Y0.012Z8000.004A12446.264
Y-0.061Z8000.003A12451.993
Y-0.012A12457.723
Y0.036Z8000.004A12463.453
Y-0.037A12469.182
Y0.011A12474.912
Y-0.061Z8000.005A12480.641
Y-0.012A12486.371
Y0.035A12492.101
Y-0.037A12497.83
Y0.011A12503.56
Y-0.061Z8000.004A12509.289
Y-0.013A12515.019
Y0.035A12520.749
Y-0.037A12526.478
Y0.011Z8000.005A12532.208
Y-0.061A12537.937
Y-0.012A12543.667
Y0.036A12549.397
Y-0.036A12555.126
Y0.012A12560.856
Y-0.061A12566.585
Y-0.012Z8000.006A12572.315
Y0.036A12578.045
Y-0.036A12583.774
Y0.012Z8000.005A12589.504
Y-0.06Z8000.004A12595.233
Y-0.036Z8000A12239.999
X20000Y-0.015A12599.999
Y0.032A12605.729
Y-0.04A12611.458
Y0.008Z7999.999A12617.188
Y0.057Z8000A12622.918
Y-0.016A12628.647
Y0.032A12634.377
Y-0.04A12640.106
Y0.008A12645.836
Y0.056A12651.566
Y-0.016A12657.295
Y0.032A12663.025
Y-0.04A12668.754
Y0.008Z8000.001A12674.484
Y0.056A12680.214
Y-0.016Z8000.002A12685.943
Y0.032A12691.673
Y-0.041A12697.402
Y0.007Z8000.003A12703.132
Y0.056A12708.862
Y-0.016A12714.591
Y0.032A12720.321
Y-0.04A12726.05
Y0.007A12731.78
Y0.056A12737.51
Y-0.015A12743.239
Y0.032A12748.969
Y-0.04Z8000.002A12754.698
Y0.008Z8000.003A12760.428
Y0.057Z8000.004A12766.158
Y-0.015Z8000.003A12771.887
Y0.032Z8000.004A12777.617
Y-0.04A12783.346
Y0.008A12789.076
Y0.056Z8000.003A12794.806
Y-0.016A12800.535
Y0.033Z8000.004A12806.265
Y-0.04A12811.994
Y0.007Z8000.003A12817.724
Y0.056Z8000.004A12823.453
Y-0.016A12829.183
Y0.032Z8000.005A12834.912
Y-0.041A12840.641
Y0.007A12846.371
Y0.056A12852.101
Y-0.017A12857.83
Y0.031A12863.56
Y-0.041Z8000.003A12869.289
Y0.007Z8000.004A12875.019
Y0.055A12880.749
Y-0.017A12886.478
Y0.031Z8000.005A12892.208
Y-0.041A12897.937
Y0.008A12903.667
Y0.056A12909.397
Y-0.016A12915.126
Y0.032A12920.856
Y-0.04A12926.585
Y0.008Z8000.006A12932.315
Y0.057A12938.045
Y-0.015A12943.774
Y0.033Z8000.005A12949.504
Y-0.04A12955.233
Y-0.015Z8000A12599.999
X22000Y0.004A12960
Y0.053A12965.729
Y-0.019A12971.459
Y0.028A12977.188
Y-0.044A12982.917
Y0.004A12988.647
Y0.052A12994.377
Y-0.02Z7999.999A13000.106
Y0.028A13005.836
Y-0.044Z8000A13011.565
Y0.004A13017.295
Y0.052A13023.025
Y-0.02Z8000.001A13028.754
Y0.028A13034.484
Y-0.044A13040.213
Y0.003Z8000.002A13045.943
Y0.052A13051.673
Y-0.02A13057.402
Y0.028Z8000.003A13063.132
Y-0.044A13068.861
Y0.003A13074.591
Y0.052A13080.321
Y-0.02A13086.05
Y0.028A13091.78
Y-0.044A13097.509
Y0.004A13103.239
Y0.053A13108.969
Y-0.019A13114.698
Y0.028A13120.428
Y-0.044Z8000.004A13126.157
Y0.004Z8000.003A13131.887
Y0.053Z8000.004A13137.617
Y-0.02A13143.346
Y0.028A13149.076
Y-0.044Z8000.003A13154.805
Y0.004Z8000.004A13160.535
Y0.053A13166.265
Y-0.02Z8000.003A13171.994
Y0.028Z8000.004A13177.724
Y-0.044A13183.453
Y0.003A13189.183
Y0.052A13194.913
Y-0.02Z8000.005A13200.642
Y0.028A13206.372
Y-0.045A13212.101
Y0.003A13217.831
Y0.052A13223.56
Y-0.02Z8000.004A13229.29
Y0.027A13235.019
Y-0.045A13240.749
Y0.003A13246.478
Y0.052Z8000.005A13252.208
Y-0.02Z8000.004A13257.937
Y0.028Z8000.005A13263.667
Y-0.044A13269.396
Y0.004A13275.126
Y0.053A13280.856
Y-0.02A13286.585
Y0.028Z8000.006A13292.315
Y-0.044A13298.044
Y0.004A13303.774
Y0.053Z8000.005A13309.504
Y-0.019A13315.233
Y0.004Z8000A12960
X24000Y0.025A13320
Y-0.048A13325.729
Y0A13331.459
Y0.049A13337.189
Y-0.024A13342.918
Y0.024A13348.648
Y-0.048A13354.377
Y0A13360.107
Y0.048A13365.836
Y-0.024A13371.566
Y0.024A13377.295
Y-0.048A13383.025
Y0A13388.754
Y0.049Z8000.001A13394.484
Y-0.024Z8000.002A13400.213
Y0.024A13405.943
Y-0.048A13411.672
Y0A13417.402
Y0.048A13423.132
Y-0.024Z8000.003A13428.861
Y0.024A13434.591
Y-0.048A13440.32
Y0A13446.05
Y0.048A13451.78
Y-0.024A13457.509
Y0.025A13463.239
Y-0.047A13468.968
Y0A13474.698
Y0.049A13480.428
Y-0.023A13486.157
Y0.024A13491.887
Y-0.048Z8000.004A13497.616
Y0A13503.346
Y0.049Z8000.003A13509.076
Y-0.024A13514.805
Y0.024Z8000.004A13520.535
Y-0.047A13526.264
Y0A13531.994
Y0.048Z8000.003A13537.724
Y-0.024Z8000.004A13543.453
Y0.024Z8000.003A13549.183
Y-0.048Z8000.004A13554.912
Y0Z8000.005A13560.642
Y0.048Z8000.004A13566.372
Y-0.025Z8000.005A13572.101
Y0.023A13577.831
Y-0.049A13583.56
Y-0Z8000.003A13589.29
Y0.048Z8000.004A13595.02
Y-0.025A13600.749
Y0.023A13606.479
Y-0.049A13612.208
Y0Z8000.005A13617.938
Y0.049A13623.667
Y-0.024A13629.397
Y0.024A13635.126
Y-0.048A13640.856
Y0A13646.585
Y0.048Z8000.006A13652.315
Y-0.024A13658.044
Y0.025A13663.774
Y-0.048Z8000.005A13669.503
Y0A13675.233
Y0.025Z8000A13320
X26000Y0.045A13680
Y-0.027A13685.729
Y0.021A13691.459
Y-0.052Z7999.999A13697.188
Y-0.003Z8000A13702.918
Y0.045A13708.648
Y-0.028A13714.377
Y0.02A13720.107
Y-0.052A13725.836
Y-0.004A13731.566
Y0.044A13737.296
Y-0.028A13743.025
Y0.02A13748.755
Y-0.052Z8000.001A13754.484
Y-0.003Z8000.002A13760.214
Y0.044A13765.943
Y-0.028A13771.673
Y0.02A13777.402
Y-0.052Z8000.003A13783.132
Y-0.003A13788.861
Y0.044A13794.591
Y-0.028A13800.32
Y0.02Z8000.002A13806.05
Y-0.052Z8000.003A13811.779
Y-0.003A13817.509
Y0.045A13823.239
Y-0.027A13828.968
Y0.021A13834.698
Y-0.052A13840.427
Y-0.003A13846.157
Y0.045A13851.887
Y-0.027Z8000.004A13857.616
Y0.02A13863.346
Y-0.052A13869.075
Y-0.003Z8000.003A13874.805
Y0.045Z8000.004A13880.535
Y-0.027A13886.264
Y0.02A13891.994
Y-0.052A13897.723
Y-0.004A13903.453
Y0.044A13909.183
Y-0.028A13914.912
Y0.02Z8000.005A13920.642
Y-0.052A13926.371
Y-0.004A13932.101
Y0.044A13937.831
Y-0.028A13943.56
Y0.019Z8000.004A13949.29
Y-0.053A13955.019
Y-0.004A13960.749
Y0.044A13966.479
Y-0.028A13972.208
Y0.02Z8000.005A13977.938
Y-0.052A13983.667
Y-0.003A13989.397
Y0.045A13995.127
Y-0.027A14000.856
Y0.02A14006.586
Y-0.052Z8000.006A14012.315
Y-0.003A14018.045
Y0.045A14023.775
Y-0.027Z8000.005A14029.504
Y0.021A14035.233
Y0.045Z8000A13680
X28000Y-0.056A14039.999
Y-0.007A14045.729
Y0.041A14051.459
Y-0.031A14057.188
Y0.016A14062.918
Y-0.056A14068.647
Y-0.007A14074.377
Y0.041A14080.107
Y-0.031A14085.836
Y0.016A14091.566
Y-0.056A14097.295
Y-0.007A14103.025
Y0.041A14108.755
Y-0.031Z8000.001A14114.484
Y0.016Z8000.002A14120.214
Y-0.056A14125.943
Y-0.007A14131.673
Y0.04A14137.403
Y-0.032Z8000.003A14143.132
Y0.016A14148.862
Y-0.056A14154.591
Y-0.007A14160.321
Y0.041Z8000.002A14166.051
Y-0.032Z8000.003A14171.78
Y0.016A14177.509
Y-0.056A14183.239
Y-0.007A14188.968
Y0.041A14194.698
Y-0.031A14200.427
Y0.016A14206.157
Y-0.056A14211.886
Y-0.007Z8000.004A14217.616
Y0.041A14223.346
Y-0.031A14229.075
Y0.016Z8000.003A14234.805
Y-0.056A14240.534
Y-0.007Z8000.004A14246.264
Y0.041A14251.994
Y-0.032Z8000.003A14257.723
Y0.016Z8000.004A14263.453
Y-0.056A14269.182
Y-0.008A14274.912
Y0.04Z8000.005A14280.642
Y-0.032A14286.371
Y0.016A14292.101
Y-0.057A14297.83
Y-0.008A14303.56
Y0.04Z8000.004A14309.29
Y-0.032Z8000.005A14315.019
Y0.015Z8000.004A14320.749
Y-0.057A14326.478
Y-0.008Z8000.005A14332.208
Y0.041A14337.938
Y-0.031A14343.667
Y0.016A14349.397
Y-0.056A14355.126
Y-0.007A14360.856
Y0.041A14366.586
Y-0.032Z8000.006A14372.315
Y0.016A14378.045
Y-0.056A14383.774
Y-0.007Z8000.005A14389.504
Y0.041A14395.234
Y-0.056Z8000A14039.999
X30000Y-0.035A14399.999
Y0.013A14405.729
Y-0.06A14411.458
Y-0.011A14417.188
Y0.037A14422.918
Y-0.035A14428.647
Y0.013A14434.377
Y-0.06A14440.106
Y-0.011A14445.836
Y0.036A14451.566
Y-0.036A14457.295
Y0.012A14463.025
Y-0.06A14468.754
Y-0.011Z8000.001A14474.484
Y0.036A14480.214
Y-0.036Z8000.002A14485.943
Y0.012A14491.673
Y-0.06A14497.402
Y-0.011A14503.132
Y0.037Z8000.003A14508.862
Y-0.036A14514.591
Y0.012A14520.321
Y-0.06A14526.05
Y-0.012A14531.78
Y0.037A14537.51
Y-0.035A14543.239
Y0.013A14548.969
Y-0.059A14554.698
Y-0.011A14560.428
Y0.037Z8000.004A14566.158
Y-0.035Z8000.003A14571.887
Y0.012Z8000.004A14577.617
Y-0.06Z8000.003A14583.346
Y-0.011A14589.075
Y0.037A14594.805
Y-0.036A14600.534
Y0.013Z8000.004A14606.264
Y-0.06A14611.993
Y-0.012A14617.723
Y0.036A14623.453
Y-0.036A14629.182
Y0.012A14634.912
Y-0.061Z8000.005A14640.641
Y-0.012A14646.371
Y0.036A14652.101
Y-0.036A14657.83
Y0.012A14663.56
Y-0.061Z8000.004A14669.289
Y-0.012A14675.019
Y0.036A14680.749
Y0.085A14686.479
Y-0.109Z8000.005A14692.207
Y-0.061A14697.937
Y-0.011A14703.667
Y0.036A14709.397
Y0.086A14715.127
Y-0.109A14720.855
Y-0.06A14726.585
Y-0.011Z8000.006A14732.315
Y0.037A14738.045
Y0.086A14743.775
Y-0.108Z8000.005A14749.503
Y-0.059A14755.233
Y-0.035Z8000A14399.999
X32000Y-0.015A14759.999
Y0.033A14765.729
Y0.082A14771.459
Y-0.113A14777.187
Y-0.064A14782.917
Y-0.015A14788.647
Y0.033A14794.377
Y0.082A14800.107
Y-0.113A14805.835
Y-0.064A14811.565
Y-0.015A14817.295
Y0.032A14823.025
Y0.082A14828.755
Y-0.113Z8000.001A14834.483
Y-0.064A14840.213
Y-0.015Z8000.002A14845.943
Y0.032A14851.673
Y0.081A14857.403
Y-0.113Z8000.003A14863.131
Y-0.064A14868.861
Y-0.015A14874.591
Y0.033A14880.321
Y0.082A14886.051
Y-0.113A14891.779
Y-0.064A14897.509
Y-0.015A14903.239
Y0.033A14908.969
Y0.082A14914.699
Y-0.113A14920.427
Y-0.064Z8000.004A14926.157
Y-0.015Z8000.003A14931.887
Y0.033Z8000.004A14937.617
Y0.082A14943.347
Y-0.113Z8000.003A14949.075
Y-0.064A14954.805
Y-0.015A14960.535
Y0.033Z8000.004A14966.265
Y0.082A14971.994
Y-0.113A14977.723
Y-0.064A14983.453
Y-0.016A14989.183
Y0.032A14994.912
Y0.081Z8000.005A15000.642
Y-0.113A15006.371
Y-0.065A15012.1
Y-0.016A15017.83
Y0.032A15023.56
Y0.081Z8000.004A15029.29
Y-0.113Z8000.005A15035.018
Y-0.065Z8000.004A15040.748
Y-0.016A15046.478
Y0.032A15052.208
Y0.082A15057.938
Y-0.113Z8000.005A15063.666
Y-0.064A15069.396
Y-0.015A15075.126
Y0.033A15080.856
Y0.082Z8000.006A15086.586
Y-0.113A15092.314
Y-0.064A15098.044
Y-0.015A15103.774
Y0.033Z8000.005A15109.504
Y0.082A15115.234
Y-0.015Z8000A14759.999
X34000Y-0.116A15119.999
Y-0.067A15125.729
Y-0.019A15131.459
Y0.029A15137.188
Y0.078A15142.918
Y-0.117A15148.647
Y-0.068A15154.376
Y-0.019A15160.106
Y0.029A15165.836
Y0.077A15171.566
Y-0.117A15177.294
Y-0.068A15183.024
Y-0.019A15188.754
Y0.029Z8000.001A15194.484
Y0.077A15200.214
Y-0.117Z8000.002A15205.942
Y-0.068A15211.672
Y-0.02A15217.402
Y0.029Z8000.003A15223.132
Y0.077A15228.862
Y-0.117A15234.59
Y-0.068A15240.32
Y-0.019Z8000.002A15246.05
Y0.028Z8000.003A15251.78
Y0.078A15257.51
Y-0.116A15263.238
Y-0.067A15268.968
Y-0.018A15274.698
Y0.029A15280.428
Y0.078Z8000.004A15286.158
Y-0.116Z8000.003A15291.886
Y-0.068Z8000.004A15297.616
Y-0.019Z8000.003A15303.346
Y0.029Z8000.004A15309.076
Y0.078Z8000.003A15314.806
Y-0.117A15320.534
Y-0.067Z8000.004A15326.264
Y-0.019Z8000.003A15331.994
Y0.028A15337.724
Y0.077Z8000.004A15343.454
Y-0.117A15349.182
Y-0.068A15354.912
Y-0.02Z8000.005A15360.642
Y0.028A15366.372
Y0.077A15372.101
Y-0.118A15377.83
Y-0.068A15383.56
Y-0.02Z8000.004A15389.29
Y0.028A15395.019
Y0.077A15400.749
Y-0.118A15406.478
Y-0.068Z8000.005A15412.207
Y-0.019A15417.937
Y0.029A15423.667
Y0.078A15429.397
Y-0.116A15435.125
Y-0.068A15440.855
Y-0.019Z8000.006A15446.585
Y0.029A15452.315
Y0.078A15458.045
Y-0.116A15463.773
Y-0.067Z8000.005A15469.503
Y-0.019A15475.233
Y-0.116Z8000A15119.999
X36000Y0.025A15480
Y0.074A15485.73
Y-0.12A15491.458
Y-0.072A15497.188
Y-0.023A15502.918
Y0.025A15508.648
Y0.074A15514.378
Y-0.121A15520.106
Y-0.072A15525.836
Y-0.023A15531.566
Y0.025A15537.295
Y0.074A15543.025
Y-0.121A15548.754
Y-0.072Z8000.002A15554.483
Y-0.023A15560.213
Y0.025A15565.943
Y0.073A15571.673
Y-0.121Z8000.001A15577.401
Y-0.072Z8000.003A15583.131
Y-0.023A15588.861
Y0.025A15594.591
Y0.073A15600.321
Y-0.121A15606.049
Y-0.072A15611.779
Y-0.023A15617.509
Y0.025A15623.239
Y0.074A15628.969
Y-0.12Z8000.002A15634.697
Y-0.072Z8000.003A15640.427
Y-0.023A15646.157
Y0.025A15651.887
Y0.074Z8000.004A15657.617
Y-0.12A15663.345
Y-0.072A15669.075
Y-0.023Z8000.003A15674.805
Y0.025A15680.535
Y0.074Z8000.004A15686.265
Y-0.121A15691.993
Y-0.072Z8000.003A15697.723
Y-0.023A15703.453
Y0.024Z8000.004A15709.183
Y0.074A15714.913
Y-0.121Z8000.005A15720.641
Y-0.072A15726.371
Y-0.024A15732.101
Y0.024A15737.831
Y0.073A15743.561
Y-0.121Z8000.004A15749.289
Y-0.073A15755.019
Y-0.024A15760.749
Y0.024Z8000.003A15766.479
Y0.073Z8000.004A15772.209
Y-0.121Z8000.005A15777.937
Y-0.072A15783.667
Y-0.023A15789.397
Y0.025A15795.126
Y0.074A15800.856
Y-0.121A15806.585
Y-0.072Z8000.006A15812.315
Y-0.023A15818.044
Y0.025A15823.774
Y0.074Z8000.005A15829.504
Y-0.12A15835.232
Y0.025Z8000A15480
X38000Y-0.075A15839.999
Y-0.027A15845.729
Y0.021A15851.459
Y0.07A15857.189
Y0.119A15862.919
Y-0.075A15868.647
Y-0.027A15874.377
Y0.021A15880.107
Y0.07Z7999.999A15885.837
Y0.119Z8000A15891.567
Y-0.076A15897.295
Y-0.027A15903.025
Y0.021A15908.755
Y0.07Z8000.001A15914.485
Y0.118Z8000.002A15920.214
Y-0.076A15925.943
Y-0.027A15931.673
Y0.02A15937.402
Y0.07A15943.132
Y0.118Z8000.003A15948.862
Y-0.076A15954.591
Y-0.027A15960.32
Y0.021A15966.05
Y0.069A15971.78
Y0.118A15977.51
Y-0.076A15983.238
Y-0.026A15988.968
Y0.022A15994.698
Y0.07A16000.428
Y0.119Z8000.004A16006.158
Y-0.075Z8000.003A16011.886
Y-0.027Z8000.004A16017.616
Y0.021Z8000.003A16023.346
Y0.07A16029.076
Y0.118A16034.806
Y-0.076A16040.534
Y-0.026Z8000.005A16046.264
Y0.021Z8000.003A16051.994
Y0.069A16057.724
Y0.118A16063.454
Y-0.076Z8000.004A16069.182
Y-0.027A16074.912
Y0.02Z8000.005A16080.642
Y0.069A16086.372
Y0.118A16092.102
Y-0.077A16097.83
Y-0.028A16103.56
Y0.02Z8000.004A16109.29
Y0.069A16115.02
Y0.118A16120.75
Y-0.077A16126.478
Y-0.027Z8000.005A16132.208
Y0.021A16137.938
Y0.07A16143.668
Y0.118A16149.398
Y-0.075A16155.126
Y-0.027A16160.856
Y0.021A16166.586
Y0.07Z8000.006A16172.316
Y0.119A16178.045
Y-0.076A16183.774
Y-0.026Z8000.005A16189.504
Y0.021A16195.233
Y-0.075Z8000A15839.999
X40000Y0.066A16200
Y0.115A16205.73
Y-0.079A16211.458
Y-0.031A16217.188
Y0.017A16222.918
Y0.066A16228.648
Y0.115A16234.378
Y-0.08Z7999.999A16240.106
Y-0.03A16245.836
Y0.017Z8000A16251.566
Y0.066A16257.296
Y0.114A16263.026
Y-0.08A16268.754
Y-0.031Z8000.001A16274.484
Y0.017A16280.214
Y0.066Z8000.002A16285.944
Y0.114A16291.674
Y-0.08Z8000.001A16297.402
Y-0.031Z8000.003A16303.132
Y0.017A16308.862
Y0.066A16314.592
Y0.114A16320.321
Y-0.08A16326.05
Y-0.031A16331.78
Y0.017A16337.509
Y0.066A16343.239
Y0.115A16348.969
Y-0.079A16354.698
Y-0.03A16360.427
Y0.017Z8000.004A16366.157
Y0.066Z8000.003A16371.887
Y0.115Z8000.004A16377.617
Y-0.079A16383.345
Y-0.031A16389.075
Y0.017Z8000.003A16394.805
Y0.066A16400.535
Y0.115Z8000.004A16406.265
Y-0.079A16411.993
Y-0.031Z8000.003A16417.723
Y0.017Z8000.004A16423.453
Y0.065A16429.183
Y0.114A16434.913
Y-0.08Z8000.005A16440.641
Y-0.031A16446.371
Y0.016A16452.101
Y0.065A16457.831
Y0.114A16463.561
Y-0.08Z8000.003A16469.289
Y-0.032Z8000.004A16475.019
Y0.016A16480.749
Y0.065A16486.479
Y0.114A16492.209
Y-0.08Z8000.005A16497.937
Y-0.031A16503.667
Y0.017A16509.397
Y0.066A16515.127
Y0.115A16520.857
Y-0.08Z8000.006A16526.585
Y-0.031A16532.315
Y0.017A16538.045
Y0.066A16543.775
Y0.115Z8000.005A16549.505
Y-0.079A16555.233
Y0.066Z8000A16200
X42000Y-0.034A16559.999
Y0.013A16565.729
Y0.062A16571.459
Y0.111Z7999.999A16577.189
Y-0.083Z8000A16582.917
Y-0.035A16588.647
Y0.013A16594.377
Y0.062A16600.107
Y0.111Z7999.999A16605.837
Y-0.084Z8000A16611.565
Y-0.035A16617.295
Y0.013Z8000.001A16623.025
Y0.062Z8000A16628.755
Y0.111Z8000.001A16634.485
Y-0.084A16640.213
Y-0.035Z8000.002A16645.943
Y0.013A16651.673
Y0.061A16657.403
Y0.11Z8000.003A16663.133
Y-0.084A16668.861
Y-0.035A16674.591
Y0.013A16680.321
Y0.062Z8000.002A16686.051
Y0.11A16691.781
Y-0.084Z8000.003A16697.509
Y-0.034A16703.239
Y0.014A16708.969
Y0.062A16714.699
Y0.111A16720.428
Y-0.083Z8000.004A16726.157
Y-0.035Z8000.003A16731.887
Y0.013Z8000.004A16737.617
Y0.062Z8000.003A16743.346
Y0.111A16749.076
Y-0.084A16754.805
Y-0.035A16760.534
Y0.014Z8000.005A16766.264
Y0.062Z8000.004A16771.994
Y0.11Z8000.003A16777.724
Y-0.084Z8000.004A16783.452
Y-0.036A16789.182
Y0.013Z8000.005A16794.912
Y0.061A16800.642
Y0.11A16806.372
Y-0.084A16812.1
Y-0.036A16817.83
Y0.012A16823.56
Y0.061Z8000.004A16829.29
Y0.11A16835.02
Y-0.084A16840.748
Y-0.036A16846.478
Y0.012Z8000.005A16852.208
Y0.062A16857.938
Y0.111A16863.668
Y-0.083A16869.396
Y-0.035A16875.126
Y0.013A16880.856
Y0.062A16886.586
Y0.111Z8000.006A16892.316
Y-0.083A16898.044
Y-0.034A16903.774
Y0.014Z8000.005A16909.504
Y0.062A16915.234
Y-0.034Z8000A16559.999
X44000Y0.107A16920
Y-0.087A16925.728
Y-0.038A16931.458
Y0.009Z7999.999A16937.188
Y0.058Z8000A16942.918
Y0.107A16948.648
Y-0.088A16954.376
Y-0.039A16960.106
Y0.009A16965.836
Y0.058A16971.566
Y0.107A16977.296
Y-0.088A16983.024
Y-0.039A16988.754
Y0.009Z8000.001A16994.484
Y0.058Z8000.002A17000.214
Y0.106A17005.944
Y-0.088A17011.672
Y-0.039Z8000.001A17017.402
Y0.009Z8000.003A17023.132
Y0.058A17028.862
Y0.107A17034.592
Y-0.087A17040.32
Y-0.039A17046.05
Y0.009A17051.78
Y0.058A17057.51
Y0.107A17063.24
Y-0.087A17068.968
Y-0.038A17074.698
Y0.01A17080.428
Y0.058A17086.158
Y0.107A17091.888
Y-0.087Z8000.004A17097.616
Y-0.039A17103.346
Y0.009Z8000.003A17109.076
Y0.058A17114.806
Y0.107Z8000.004A17120.536
Y-0.087A17126.264
Y-0.039A17131.994
Y0.009A17137.724
Y0.058Z8000.003A17143.453
Y0.106Z8000.004A17149.183
Y-0.088A17154.912
Y-0.039Z8000.005A17160.641
Y0.009A17166.371
Y0.057A17172.101
Y0.106A17177.831
Y-0.088A17183.559
Y-0.039Z8000.003A17189.289
Y0.008Z8000.004A17195.019
Y0.057A17200.749
Y0.106A17206.479
Y-0.088A17212.207
Y-0.039Z8000.005A17217.937
Y0.01A17223.667
Y0.058A17229.397
Y0.107A17235.127
Y-0.087A17240.855
Y-0.039Z8000.006A17246.585
Y0.009A17252.315
Y0.058A17258.045
Y0.107A17263.775
Y-0.087Z8000.005A17269.503
Y-0.038A17275.233
Y0.107Z8000A16920
X46000Y0.006A17280
Y0.054A17285.729
Y0.103A17291.459
Y-0.091Z7999.999A17297.188
Y-0.043Z8000A17302.918
Y0.005A17308.647
Y0.054A17314.377
Y0.103A17320.107
Y-0.092Z7999.999A17325.835
Y-0.043Z8000A17331.565
Y0.005A17337.295
Y0.054A17343.025
Y0.103A17348.755
Y-0.091Z8000.001A17354.483
Y-0.043Z8000.002A17360.213
Y0.005A17365.943
Y0.054A17371.673
Y0.102A17377.403
Y-0.092Z8000.003A17383.131
Y-0.043A17388.861
Y0.005A17394.591
Y0.054A17400.321
Y0.103A17406.051
Y-0.092A17411.779
Y-0.043A17417.509
Y0.005A17423.239
Y0.055A17428.969
Y0.103A17434.699
Y-0.091A17440.427
Y-0.043Z8000.004A17446.157
Y0.005Z8000.003A17451.887
Y0.054Z8000.004A17457.617
Y0.103Z8000.003A17463.347
Y-0.091A17469.075
Y-0.043A17474.805
Y0.005Z8000.004A17480.535
Y0.055Z8000.005A17486.265
Y0.103Z8000.003A17491.995
Y-0.092A17497.723
Y-0.043Z8000.004A17503.453
Y0.004A17509.183
Y0.054A17514.913
Y0.102Z8000.005A17520.643
Y-0.092A17526.371
Y-0.043A17532.101
Y0.005A17537.831
Y0.053A17543.56
Y0.102Z8000.004A17549.29
Y-0.092Z8000.005A17555.019
Y-0.044Z8000.004A17560.749
Y0.004A17566.478
Y0.053A17572.208
Y0.102Z8000.005A17577.938
Y-0.091A17583.666
Y-0.043A17589.396
Y0.006A17595.126
Y0.054A17600.856
Y0.103A17606.586
Y-0.091Z8000.006A17612.314
Y-0.042A17618.044
Y0.005A17623.774
Y0.054Z8000.005A17629.504
Y0.103A17635.234
Y0.006Z8000A17280
X48000Y-0.095A17639.999
Y-0.046A17645.729
Y0.002A17651.459
Y0.05A17657.189
Y0.099A17662.919
Y-0.095A17668.647
Y-0.046A17674.377
Y0.001A17680.107
Y0.05A17685.836
Y0.099A17691.566
Y-15.413Z7996.492A17692.009
Y-0.12Z10000A17697.295
Y-0.059Z10000.001A17703.025
Y0.002A17708.754
Y0.063A17714.484
G1Y0.122Z9910.823A17720.214
Y77.19Z7989.632A17723.629
G0Y-0.096Z8000.002A17725.942
Y-78.589Z7989.621A17728.195
Y-0.059Z10000.003A17731.672
Y0.001Z10000.002A17737.402
G1Y141.769Z7994.728A17739.067
G0Y0.05Z8000.003A17743.132
Y0.099A17748.862
Y-0.096A17754.59
Y-0.046A17760.32
Y0.001A17766.05
Y0.05A17771.78
Y0.099A17777.51
Y-0.095A17783.238
Y-0.046A17788.968
Y0.002A17794.698
Y0.051A17800.428
Y0.099Z8000.004A17806.158
Y-0.095Z8000.003A17811.886
Y-0.046Z8000.004A17817.616
Y0.001A17823.346
Y0.05A17829.076
Y0.099Z8000.003A17834.806
Y-0.096A17840.534
Y-0.046Z8000.004A17846.264
Y0.001A17851.994
Y0.05Z8000.003A17857.724
Y0.099Z8000.004A17863.454
Y-0.096A17869.182
Y-76.613Z7989.655A17871.382
Y-0.059Z10000.004A17874.912
Y0.001Z10000.003A17880.642
Y0.062Z10000.004A17886.372
Y0.123Z10000.005A17892.102
Y-0.12A17897.83
G1Y20.646Z7995.445A17902.962
G0Y-0.047Z8000.005A17903.56
Y0.001Z8000.004A17909.29
Y0.049A17915.02
Y0.098A17920.75
Y-0.096Z8000.003A17926.478
Y-0.047Z8000.004A17932.208
Y0.001Z8000.005A17937.938
Y0.05A17943.667
Y0.099A17949.397
Y-0.095A17955.126
Y-0.047A17960.856
Y0.001A17966.585
Y0.05Z8000.006A17972.315
Y0.099A17978.045
Y-0.095A17983.773
Y-0.046Z8000.005A17989.503
Y0.002A17995.233
Y-0.095Z8000A17639.999
X50000Y0.047A18000
Y0.095A18005.73
Y-0.099A18011.458
Y-0.051Z7999.999A18017.188
Y-0.002Z8000A18022.918
Y0.046A18028.648
Y0.095A18034.378
Y-0.099A18040.106
Y-0.05Z7999.999A18045.836
Y-36.427Z7992.868A18046.883
Y-0.002Z10000A18051.566
Y0.058A18057.296
Y0.119Z10000.001A18063.026
Y-0.124A18068.754
Y-0.063A18074.484
Y-0.002Z10000.002A18080.214
G1Y0.052Z8995.418A18085.944
Y56.766Z7990.59A18088.411
G0Y0.095Z8000.002A18091.673
Y-0.1A18097.402
Y-0.051Z8000.003A18103.132
Y-0.002A18108.861
Y0.046A18114.591
Y0.095A18120.321
Y-0.099A18126.05
Y-0.051A18131.779
Y-0.002A18137.509
Y0.047A18143.239
Y0.095A18148.969
Y-0.099A18154.697
Y-0.05A18160.427
Y-0.001Z8000.004A18166.157
Y0.046Z8000.003A18171.887
Y0.095Z8000.004A18177.617
Y-0.099Z8000.003A18183.345
Y-0.05Z8000.004A18189.075
Y-0.002Z8000.003A18194.805
Y0.046Z8000.004A18200.535
Y0.095Z8000.005A18206.265
Y-0.099Z8000.004A18211.993
Y-0.051Z8000.003A18217.723
Y-0.002Z8000.004A18223.453
Y-57.878Z7990.357A18226.581
Y0.051Z9062.229A18229.183
Y0.118Z10000.003A18234.913
Y-0.125Z10000.005A18240.641
Y-0.064Z10000.004A18246.371
Y-0.003Z10000.005A18252.101
Y0.057A18257.831
Y0.118Z10000.004A18263.561
G1Y39.669Z7992.443A18268.152
G0Y-0.1Z8000.004A18269.289
Y-0.051A18275.019
Y-0.003A18280.749
Y0.045A18286.479
Y0.094Z8000.005A18292.209
Y-0.1Z8000.004A18297.937
Y-0.05Z8000.005A18303.667
Y-0.001A18309.397
Y0.046A18315.127
Y0.095A18320.857
Y-0.099A18326.585
Y-0.05Z8000.006A18332.315
Y-0.001A18338.045
Y0.046A18343.775
Y0.095Z8000.005A18349.504
Y-0.099A18355.233
Y0.047Z8000A18000
Y0.058Z10000
X-50000Y0A0
G1Z6000
G0A5.729
A11.459
A17.188
A22.918
G1A28.647
G0A34.377
G1A40.107
G0A45.836
A51.566
A57.295
A63.025
Z6000.001A68.754
Y-97.378Z5991.974A70.152
Y-0.001Z10000.001A74.484
G1Y-0Z7800.655A80.214
G0Z10000.002A85.943
A91.673
Y0A97.402
Y-0.001Z10000.003A103.132
Y-0A108.861
Y0A114.591
Y-0.001A120.321
G1Y46.827Z7992.336A122.097
Y0Z6492.372A126.05
Y32.039Z5993.656A128.057
G0Y-0Z6000.003A131.78
Y0A137.509
A143.239
A148.969
A154.698
A160.428
Z6000.004A166.157
G1Z6000.003A171.887
G0Y-0Z6000.004A177.616
Y0A183.346
A189.076
G1A194.805
Z6000.003A200.535
G0Z6000.005A206.264
G1Z6000.004A211.994
G0Y-0.001A217.723
Y0A223.453
Y-0A229.183
Y-0.001A234.912
Z6000.005A240.642
Y0A246.371
A252.101
Y-37.104Z5992.432A254.4
Y-0Z6926.284A257.831
Y-60.812Z7989.779A260.311
Y-0.002Z10000.004A263.56
G1Y-0.003Z10000.003A269.29
G0Y0Z10000.004A275.019
G1Z10000.003A280.749
G0Y-0.001Z10000.005A286.478
Y-0.002A292.208
A297.938
G1Y53.201Z7990.939A302.138
Y0.001Z7272.195A303.667
Y29.885Z5993.808A308.045
G0Y0Z6000.006A309.397
G1Z6000.005A315.126
G0A320.856
Y-0Z6000.006A326.585
Y0.001A332.315
A338.045
Y0A343.774
A349.504
G1Y-0Z6000.005A355.233
Y0Z6000A0
G0X-48000Y0.001A360
Y0A365.729
A371.459
Y-0A377.188
Y-0.001A382.918
Y0A388.647
A394.377
G1A400.107
Y-0Z5999.999A405.836
G0Y-0.001Z6000A411.566
Y0A417.295
A423.025
Z6000.001A428.754
Y-0.001A434.484
A440.214
Y-17.027Z5997.105A440.665
Y-15.84Z7997.999A445.529
Y0Z10000.002A445.943
A451.673
Y-0A457.402
Y-0.001A463.132
Y0.001Z10000.003A468.861
Y-0.003A474.591
G1Y73.908Z7990.147A477.356
Y0Z6467.888A480.321
Y33.414Z5994.572A481.967
G0Y0.002Z6000.003A486.05
Y-0.001A491.78
Y0A497.509
Y-0.001A503.239
Y0A508.969
Y0.002A514.698
Y-0A520.428
Y0.001Z6000.004A526.157
Y-0.001Z6000.003A531.887
Y0Z6000.004A537.616
Y0.002A543.346
Y-0A549.076
Y0.001A554.805
Y-0.002A560.535
Y0Z6000.005A566.264
Y0.002Z6000.004A571.994
Y-0.001A577.723
Y0.001A583.453
Y-0.002A589.183
Y0A594.912
Y0.001Z6000.005A600.642
Y-0.001A606.371
Y0A612.101
Y-132.764Z5991.122A614.005
Y-0.004Z10000.005A617.83
G1Y-0Z7010.989A623.56
G0Y0.003Z10000.004A629.29
Y-0.002A635.019
Y0.001A640.749
Y-0.004A646.478
Y0Z10000.005A652.208
G1Y0.002Z7458.843A657.938
Y41.364Z5993.008A662.038
G0Y-0Z6000.005A663.667
Y0.002Z6000.006A669.397
Y-0.001Z6000.005A675.126
Y0A680.856
Y0.002Z6000.006A686.585
Y0A692.315
Y0.001A698.045
Y-0.001A703.774
Y0.001Z6000.005A709.504
Y0.003A715.233
G1Y0.001Z6000A360
G0X-46000Y0.002A720
Y-0.001A725.729
Y0A731.459
Y-0.002A737.188
Y0A742.918
Y0.001A748.647
Y-0.001A754.377
Y0A760.107
Y-0.003A765.836
Y-0A771.566
Y0.001A777.295
Y-0.001A783.025
Y0Z6000.001A788.754
Y-0.002Z6000.002A794.484
Y-0A800.214
Y0.001A805.943
Y-0.001A811.673
Y0A817.402
Y-0.003Z6000.003A823.132
Y-0A828.861
Y0.001A834.591
Y-0.001A840.321
Y0Z6000.002A846.05
Y-0.002Z6000.003A851.78
Y-0A857.509
Y0.001A863.239
Y-0.001A868.969
Y0.001A874.698
Y-0.002A880.428
Y0Z6000.004A886.157
G1Y0.002Z6000.003A891.887
G0Y-0.001Z6000.004A897.616
Y0A903.346
Y-0.002A909.076
Y0A914.805
Y-0.004A920.535
Y-0A926.264
Y0A931.994
Y0.002A937.723
Y0.005A943.453
Y-0.004A949.183
Y-0.002A954.912
Y0Z6000.005A960.642
Y0.002Z6000.004A966.371
Y0.004Z6000.005A972.101
Y-0.004A977.83
Y-0.002A983.56
Y0Z6000.004A989.29
Y0.002Z6000.005A995.019
Y0.004Z6000.004A1000.749
Y-0.004A1006.478
Y-0.002A1012.208
Y0Z6000.005A1017.938
Y0.003Z6000.006A1023.667
Y0.005Z6000.005A1029.397
Y-0.003Z6000.006A1035.126
Y-0Z6000.005A1040.856
Y0A1046.585
Y0.003Z6000.006A1052.315
Y0.005A1058.045
Y-0.003A1063.774
Y-0Z6000.005A1069.504
Y0.001A1075.233
G1Y0.002Z6000A720
G0X-44000Y0A1080
Y0.002A1085.729
Y0.004A1091.459
Y-0.004A1097.188
Y-0.001A1102.918
Y0A1108.647
Y0.002A1114.377
Y0.004A1120.107
Y-0.005A1125.836
Y-0.002A1131.566
Y0A1137.295
Y0.002A1143.025
Y0.004Z6000.001A1148.754
Y-0.004A1154.484
Y-0.002A1160.214
Y0Z6000.003A1165.943
Y0.001Z6000.002A1171.673
Y0.004A1177.402
Y-0.004Z6000.003A1183.132
Y-0.002A1188.861
Y0Z6000.004A1194.591
Y0.001Z6000.003A1200.321
Y0.004A1206.05
Y-0.004A1211.78
Y-0.002A1217.509
Y0A1223.239
Y0.002A1228.969
Y0.004A1234.698
Y-0.004A1240.428
Y-0.002Z6000.004A1246.157
Y0Z6000.003A1251.887
Y0.002Z6000.004A1257.616
Y0.004A1263.346
Y-0.004A1269.076
Y-0.002A1274.805
Y0A1280.535
Y0.002A1286.264
Y0.004A1291.994
Y-0.004Z6000.003A1297.723
Y-0.002Z6000.004A1303.453
Y-0A1309.183
Y0.001A1314.912
Y0.004Z6000.005A1320.642
Y-0.005A1326.371
Y-0.002A1332.101
Y-0A1337.831
Y0.001A1343.56
Y0.003Z6000.004A1349.29
Y-0.005Z6000.005A1355.019
Y-0.003Z6000.004A1360.749
Y-0A1366.478
Y0.001Z6000.005A1372.208
Y0.004A1377.938
Y-0.004A1383.667
Y-0.001A1389.397
Y0A1395.126
Y0.003A1400.856
Y0.005Z6000.006A1406.585
Y-0.004A1412.315
Y-0.001A1418.045
Y0A1423.774
Y0.003Z6000.005A1429.504
Y0.005A1435.233
G1Y0Z6000A1080
G0X-42000Y0.004A1440
Y-0.005A1445.729
Y-0.002A1451.459
Y-0A1457.188
Y0.001A1462.918
Y0.003A1468.647
Y-0.005A1474.377
Y-0.002A1480.107
Y-0Z5999.999A1485.836
Y0.001Z6000A1491.566
Y0.003A1497.295
Y-0.005A1503.025
Y-0.003Z6000.001A1508.754
Y-0A1514.484
Y0.001Z6000.002A1520.214
Y0.003A1525.943
Y-0.005A1531.673
Y-0.003A1537.402
Y-0Z6000.003A1543.132
Y0.001A1548.861
Y0.003A1554.591
Y-0.005A1560.321
Y-0.003Z6000.002A1566.05
Y-0Z6000.003A1571.78
Y0A1577.509
Y0.004A1583.239
Y-0.004A1588.968
Y-0.002A1594.698
Y0A1600.428
Y0.001Z6000.004A1606.157
Y0.004Z6000.003A1611.887
Y-0.005Z6000.004A1617.616
Y-0.002Z6000.005A1623.346
Y-0Z6000.004A1629.076
Y0.001A1634.805
Y0.003Z6000.003A1640.535
Y-0.004Z6000.005A1646.264
Y-0.002Z6000.004A1651.994
Y-0.001A1657.723
Y0.001Z6000.003A1663.453
Y0.003Z6000.004A1669.183
Y-0.005A1674.912
Y-0.003Z6000.005A1680.642
Y-0.001A1686.371
Y0A1692.101
Y0.003A1697.831
Y-0.005A1703.56
Y-0.003Z6000.004A1709.29
Y-0.001Z6000.005A1715.019
Y0A1720.749
Y0.003Z6000.004A1726.478
Y-0.005Z6000.005A1732.208
Y-0.003A1737.938
Y0A1743.667
Y0.002Z6000.006A1749.397
Y0.004Z6000.005A1755.126
Y-0.004A1760.856
Y-0.002Z6000.006A1766.585
Y0A1772.315
Y0.002A1778.045
Y0.004A1783.774
Y-0.004Z6000.005A1789.504
Y-0.002Z6000.004A1795.233
G1Y0.004Z6000A1440
G0X-40000Y-0.003A1799.999
Y-0.001A1805.729
Y0.001A1811.459
Y0.003A1817.188
Y-0.005A1822.918
Y-0.003A1828.647
Y-0.001A1834.377
Y-0.01A1840.106
Y0.002A1845.836
Y-0.006A1851.566
Y0.007A1857.295
Y-0.001A1863.025
Y-0.01Z6000.001A1868.754
Y0.003A1874.484
Y-0.006Z6000.002A1880.214
Y0.007A1885.943
Y-0.001A1891.673
Y-0.011A1897.402
Y0.002Z6000.003A1903.132
Y-0.005A1908.861
Y0.007Z6000.004A1914.591
Y-0.001Z6000.003A1920.321
Y-0.01Z6000.002A1926.05
Y0.002Z6000.003A1931.78
Y-0.006A1937.509
Y0.008A1943.239
Y-0A1948.969
Y-0.01A1954.698
Y0.003A1960.428
Y-0.005Z6000.004A1966.157
Y0.007Z6000.003A1971.887
Y-0.001Z6000.004A1977.616
Y-0.01A1983.346
Y0.003A1989.076
Y-0.005A1994.805
Y0.007A2000.535
Y-0A2006.264
Y-0.01A2011.994
Y0.002A2017.723
Y-0.006Z6000.003A2023.453
Y0.007Z6000.004A2029.183
Y-0.001A2034.912
Y-0.01Z6000.005A2040.642
Y0.002A2046.371
Y-0.006A2052.101
Y0.007A2057.831
Y-0.002A2063.56
Y-0.011Z6000.004A2069.29
Y0.002Z6000.005A2075.019
Y-0.006Z6000.004A2080.749
Y0.007A2086.478
Y-0.001A2092.208
Y-0.01Z6000.005A2097.937
Y0.003A2103.667
Y-0.005A2109.397
Y0.008A2115.126
Y-0A2120.856
Y-0.01A2126.585
Y0.003Z6000.006A2132.315
Y-0.005A2138.045
Y0.008A2143.774
Y-0Z6000.005A2149.504
Y-0.009Z6000.004A2155.233
G1Y-0.003Z6000A1799.999
G0X-38000Y0A2160
Y-0.008A2165.729
Y0.005A2171.459
Y-0.004A2177.188
Y0.009A2182.918
Y0A2188.647
Y-0.008A2194.377
Y0.004A2200.107
Y-0.004A2205.836
Y0.009A2211.566
Y0A2217.295
Y-0.009A2223.025
Y0.004Z6000.001A2228.754
Y-0.004A2234.484
Y0.009Z6000.002A2240.214
Y0Z6000.003A2245.943
Y-0.009Z6000.002A2251.673
Y0.004A2257.402
Y-0.004Z6000.003A2263.132
Y0.009A2268.862
Y0Z6000.004A2274.591
Y-0.009Z6000.003A2280.321
Y0.004Z6000.002A2286.05
Y-0.004Z6000.003A2291.78
Y0.008A2297.509
Y0A2303.239
Y-0.008A2308.968
Y0.005A2314.698
Y-0.003A2320.428
Y0.009Z6000.004A2326.157
Y0Z6000.003A2331.887
Y-0.008Z6000.004A2337.616
Y0.004A2343.346
Y-0.004A2349.076
Y0.009A2354.805
Y0A2360.535
Y-0.008A2366.264
Y0.005A2371.994
Y-0.004Z6000.003A2377.723
Y0.009A2383.453
Y0Z6000.004A2389.183
Y-0.009A2394.912
Y0.004Z6000.005A2400.642
Y-0.005A2406.371
Y0.008A2412.101
Y0A2417.831
Y-0.009A2423.56
Y0.004Z6000.004A2429.29
Y-0.004Z6000.005A2435.019
Y0.008A2440.749
Y0Z6000.004A2446.478
Y-0.009Z6000.005A2452.208
Y0.004A2457.938
Y-0.003A2463.667
Y0.01A2469.397
Y0A2475.126
Y-0.008A2480.856
Y0.005A2486.585
Y-0.003Z6000.006A2492.315
Y0.01A2498.045
Y0A2503.774
Y-0.007A2509.504
Y0.005Z6000.005A2515.233
G1Y0Z6000A2160
G0X-36000Y-0.006A2519.999
Y0.006A2525.729
Y-0.002A2531.459
Y0.011A2537.188
Y0.002A2542.918
Y-0.007A2548.647
Y0.006A2554.377
Y-0.002A2560.107
Y0.01Z5999.999A2565.836
Y0.001Z6000A2571.566
Y-0.007A2577.295
Y0.006A2583.025
Y-0.002Z6000.001A2588.754
Y0.01A2594.484
Y0.001Z6000.002A2600.214
Y-0.007A2605.943
Y0.006A2611.673
Y-0.003A2617.402
Y0.01Z6000.003A2623.132
Y0.001A2628.862
Y-0.007A2634.591
Y0.006A2640.321
Y-0.003Z6000.002A2646.05
Y0.01Z6000.003A2651.78
Y0.001A2657.509
Y-0.006A2663.239
Y0.006A2668.969
Y-0.002A2674.698
Y0.011A2680.428
Y0.002Z6000.004A2686.157
Y-0.007Z6000.003A2691.887
Y0.006Z6000.004A2697.616
Y-0.002A2703.346
Y0.011Z6000.003A2709.076
Y0.001Z6000.004A2714.805
Y-0.007A2720.535
Y0.006A2726.264
Y-0.002A2731.994
Y0.01Z6000.003A2737.724
Y0.001Z6000.004A2743.453
Y-0.007A2749.183
Y0.006A2754.912
Y-0.003Z6000.005A2760.642
Y0.01A2766.371
Y0.001A2772.101
Y-0.007A2777.83
Y0.005A2783.56
Y-0.003Z6000.004A2789.29
Y0.01Z6000.005A2795.019
Y0.001A2800.749
Y-0.007Z6000.004A2806.478
Y0.005Z6000.005A2812.208
Y-0.002A2817.938
Y0.011A2823.667
Y0.002Z6000.006A2829.397
Y-0.006Z6000.005A2835.126
Y0.007A2840.856
Y-0.002Z6000.006A2846.585
Y0.011A2852.315
Y0.002A2858.045
Y-0.006A2863.774
Y0.007Z6000.005A2869.504
Y-0.001Z6000.004A2875.233
G1Y-0.006Z6000A2519.999
G0X-34000Y0.008A2880
Y-0A2885.729
Y-0.01A2891.459
Y0.003A2897.188
Y-0.005A2902.918
Y0.008A2908.647
Y-0A2914.377
Y-0.01A2920.106
Y0.003A2925.836
Y-0.005Z5999.999A2931.566
Y0.007Z6000A2937.295
Y-0.001A2943.025
Y-0.01Z6000.001A2948.754
Y0.003A2954.484
Y-0.005A2960.214
Y0.007Z6000.002A2965.943
Y-0.001A2971.673
Y-0.01A2977.402
Y0.003Z6000.003A2983.132
Y-0.005A2988.861
Y0.007Z6000.004A2994.591
Y-0.001Z6000.003A3000.321
Y-0.01Z6000.002A3006.05
Y0.003Z6000.003A3011.78
Y-0.005A3017.509
Y0.008A3023.239
Y0A3028.969
Y-0.009A3034.698
Y0.003A3040.428
Y-0.005Z6000.004A3046.157
Y0.008Z6000.003A3051.887
Y-0Z6000.004A3057.616
Y-0.01A3063.346
Y0.003A3069.076
Y-0.005A3074.805
Y0.007A3080.535
Y0Z6000.005A3086.264
Y-0.01Z6000.004A3091.994
Y0.002A3097.723
Y-0.005A3103.453
Y0.007A3109.183
Y-0.001A3114.912
Y-0.01Z6000.005A3120.642
Y0.003A3126.371
Y-0.006A3132.101
Y0.007A3137.831
Y-0.001A3143.56
Y-0.01Z6000.004A3149.29
Y0.002Z6000.005A3155.019
Y-0.006Z6000.004A3160.749
Y0.007A3166.478
Y-0.001Z6000.005A3172.208
Y-0.01A3177.937
Y0.003A3183.667
Y-0.005A3189.397
Y0.008A3195.126
Y0A3200.856
Y-0.009A3206.585
Y0.004Z6000.006A3212.315
Y-0.005A3218.045
Y0.008A3223.774
Y0A3229.504
Y-0.009Z6000.004A3235.233
Y0.008Z6000A2880
X-32000Y0A3240
Y-0.008A3245.729
Y0.005A3251.459
Y-0.004A3257.188
Y0.01A3262.918
Y0A3268.647
Y-0.008A3274.377
Y0.005A3280.107
Y-0.004A3285.836
Y0.009A3291.566
Y0A3297.295
Y-0.008A3303.025
Y0.005Z6000.001A3308.754
Y-0.004A3314.484
Y0.009Z6000.002A3320.214
Y0Z6000.003A3325.943
Y-0.008Z6000.002A3331.673
Y0.004A3337.402
Y-0.004Z6000.003A3343.132
Y0.009A3348.862
Y0A3354.591
Y-0.008A3360.321
Y0.005A3366.05
Y-0.004A3371.78
Y0.009A3377.509
Y0A3383.239
Y-0.008A3388.968
Y0.005A3394.698
Y-0.003A3400.428
Y0.01Z6000.004A3406.157
Y0Z6000.003A3411.887
Y-0.008Z6000.004A3417.616
Y0.005A3423.346
Y-0.003A3429.076
Y0.009A3434.805
Y0Z6000.003A3440.535
Y-0.007Z6000.004A3446.264
Y0.005A3451.994
Y-0.004A3457.723
Y0.009A3463.453
Y0A3469.183
Y-0.008A3474.912
Y0.004Z6000.005A3480.642
Y-0.004A3486.371
Y0.009A3492.101
Y0A3497.831
Y-0.009A3503.56
Y0.004Z6000.004A3509.29
Y-0.004Z6000.005A3515.019
Y0.008Z6000.004A3520.749
Y0A3526.478
Y-0.009Z6000.005A3532.208
Y0.005A3537.938
Y-0.003A3543.667
Y0.01Z6000.006A3549.397
Y0.001A3555.126
Y-0.007Z6000.005A3560.856
Y0.005A3566.585
Y-0.003Z6000.006A3572.315
Y0.01A3578.045
Y0.001A3583.774
Y-0.007A3589.504
Y0.005Z6000.005A3595.233
G1Y0Z6000A3240
G0X-30000Y-0.006A3599.999
Y0.006A3605.729
Y-0.002A3611.459
Y-0.011A3617.188
Y0.002A3622.918
Y-0.006A3628.647
Y0.006A3634.377
Y-0.002A3640.107
Y-0.011A3645.836
Y0.001A3651.566
Y-0.007A3657.295
Y0.006A3663.025
Y-0.002Z6000.001A3668.754
Y-0.011A3674.484
Y-0.02Z6000.002A3680.213
Y0.015A3685.943
Y0.006A3691.673
Y-0.002A3697.402
Y-0.011Z6000.003A3703.132
Y-0.02A3708.861
Y0.015A3714.591
Y0.006A3720.321
Y-0.002Z6000.002A3726.05
Y-0.011Z6000.003A3731.78
Y-0.021A3737.509
Y0.016A3743.239
Y0.007A3748.969
Y-0.002A3754.698
Y-0.011A3760.428
Y-0.02Z6000.004A3766.157
Y0.016Z6000.003A3771.887
Y0.006Z6000.004A3777.616
Y-0.002A3783.346
Y-0.011A3789.075
Y-0.02A3794.805
Y0.015A3800.535
Y0.007A3806.264
Y-0.002A3811.994
Y-0.011Z6000.003A3817.723
Y-0.02Z6000.004A3823.453
Y0.015A3829.183
Y0.006A3834.912
Y-0.002Z6000.005A3840.642
Y-0.012Z6000.004A3846.371
Y-0.021Z6000.005A3852.101
Y0.015A3857.831
Y0.006A3863.56
Y-0.003Z6000.004A3869.29
Y-0.012Z6000.005A3875.019
Y-0.021Z6000.004A3880.749
Y0.015A3886.479
Y0.006A3892.208
Y-0.002Z6000.005A3897.938
Y-0.01A3903.667
Y-0.02A3909.397
Y0.016A3915.126
Y0.007A3920.856
Y-0.001A3926.585
Y-0.01Z6000.006A3932.315
Y-0.02A3938.044
Y0.016A3943.774
Y0.007A3949.504
Y-0.001Z6000.005A3955.233
G1Y-0.006Z6000A3599.999
G0X-28000Y-0.014A3959.999
Y0.022A3965.729
Y0.013A3971.459
Y0.003A3977.188
Y-0.005A3982.918
Y-0.014A3988.647
Y0.022A3994.377
Y0.012A4000.107
Y0.003A4005.836
Y-0.005A4011.566
Y-0.015A4017.295
Y0.021A4023.025
Y0.012Z6000.001A4028.755
Y0.003A4034.484
Y-0.005Z6000.002A4040.214
Y-0.014A4045.943
Y0.021A4051.673
Y0.012Z6000.003A4057.402
Y0.003A4063.132
Y-0.005A4068.861
Y-0.014A4074.591
Y0.021Z6000.002A4080.321
Y0.012A4086.05
Y0.003Z6000.003A4091.78
Y-0.005A4097.509
Y-0.014A4103.239
Y0.022A4108.969
Y0.013A4114.698
Y0.004A4120.428
Y-0.005Z6000.004A4126.157
Y-0.014Z6000.003A4131.887
Y0.022Z6000.004A4137.617
Y0.013A4143.346
Y0.003A4149.076
Y-0.005A4154.805
Y-0.014A4160.535
Y0.022Z6000.005A4166.265
Y0.013Z6000.004A4171.994
Y0.003Z6000.003A4177.724
Y-0.005Z6000.004A4183.453
Y-0.015A4189.182
Y0.021A4194.912
Y0.012Z6000.005A4200.642
Y0.003A4206.371
Y-0.005A4212.101
Y-0.015A4217.83
Y0.021A4223.56
Y0.012Z6000.004A4229.29
Y0.003Z6000.005A4235.019
Y-0.006Z6000.004A4240.749
Y-0.015A4246.478
Y0.021Z6000.005A4252.208
Y0.012A4257.938
Y0.004A4263.667
Y-0.004Z6000.006A4269.397
Y-0.014A4275.126
Y0.022Z6000.005A4280.856
Y0.013A4286.586
Y0.004Z6000.006A4292.315
Y-0.004A4298.045
Y-0.013A4303.774
Y0.022Z6000.005A4309.504
Y0.013Z6000.004A4315.233
Y-0.014Z6000A3959.999
X-26000Y0.001A4320
Y-0.008A4325.729
Y-0.017A4331.458
Y0.019A4337.188
Y0.01A4342.918
Y0A4348.647
Y-0.008A4354.377
Y-0.017A4360.106
Y0.019A4365.836
Y0.009A4371.566
Y0A4377.295
Y-0.008A4383.025
Y-0.017Z6000.001A4388.754
Y0.019A4394.484
Y0.009Z6000.002A4400.214
Y0Z6000.003A4405.943
Y-0.008Z6000.002A4411.673
Y-0.018A4417.402
Y0.018Z6000.003A4423.132
Y0.009A4428.862
Y0Z6000.004A4434.591
Y-0.008Z6000.002A4440.321
Y-0.017Z6000.003A4446.05
Y0.018A4451.78
Y0.009A4457.509
Y0.001A4463.239
Y-0.007A4468.968
Y-0.016A4474.698
Y0.019A4480.428
Y0.01Z6000.004A4486.157
Y0Z6000.003A4491.887
Y-0.008Z6000.004A4497.616
Y-0.017A4503.346
Y0.019A4509.076
Y0.009A4514.805
Y0Z6000.003A4520.535
Y-0.007Z6000.005A4526.264
Y-0.017Z6000.004A4531.994
Y0.018Z6000.003A4537.724
Y0.009A4543.453
Y0Z6000.004A4549.183
Y-0.008A4554.912
Y-0.017Z6000.005A4560.642
Y0.018A4566.372
Y0.009A4572.101
Y0A4577.831
Y-0.008A4583.56
Y-0.018Z6000.004A4589.29
Y0.018A4595.019
Y0.009A4600.749
Y0A4606.478
Y-0.008A4612.208
Y-0.017Z6000.005A4617.937
Y0.019A4623.667
Y0.01Z6000.006A4629.397
Y0.001Z6000.005A4635.126
Y-0.007A4640.856
Y-0.016Z6000.006A4646.585
Y0.019A4652.315
Y0.01A4658.045
Y0.001A4663.774
Y-0.007A4669.504
Y-0.016Z6000.005A4675.233
Y0.001Z6000A4320
X-24000Y0.016A4680
Y0.007A4685.729
Y-0.001A4691.459
Y-0.011A4697.188
Y-0.02A4702.918
Y0.016A4708.648
Y0.007A4714.377
Y-0.002A4720.107
Y-0.011A4725.836
Y-0.02A4731.566
Y0.015A4737.295
Y0.006A4743.025
Y-0.002Z6000.001A4748.754
Y-0.011A4754.484
Y-0.02Z6000.002A4760.213
Y0.015A4765.943
Y0.006A4771.673
Y-0.002A4777.402
Y-0.011Z6000.003A4783.132
Y-0.02A4788.861
Y0.016Z6000.004A4794.591
Y0.006Z6000.003A4800.321
Y-0.002Z6000.002A4806.05
Y-0.011Z6000.003A4811.78
Y-0.02A4817.509
Y0.016A4823.239
Y0.007A4828.969
Y-0.001A4834.698
Y-0.011A4840.428
Y-0.02Z6000.004A4846.157
Y0.016Z6000.003A4851.887
Y0.007Z6000.004A4857.616
Y-0.001A4863.346
Y-0.011A4869.075
Y-0.02Z6000.003A4874.805
Y0.015Z6000.004A4880.535
Y0.007A4886.264
Y-0.001A4891.994
Y-0.011Z6000.003A4897.723
Y-0.02Z6000.004A4903.453
Y0.015A4909.183
Y0.006A4914.912
Y-0.002Z6000.005A4920.642
Y-0.011A4926.371
Y-0.021A4932.101
Y0.015A4937.831
Y0.006A4943.56
Y-0.002Z6000.004A4949.29
Y-0.011A4955.019
Y-0.021A4960.749
Y0.015A4966.479
Y0.006Z6000.005A4972.208
Y-0.002A4977.938
Y-0.01A4983.667
Y-0.019A4989.397
Y0.016A4995.126
Y0.007A5000.856
Y-0.001Z6000.006A5006.585
Y-0.01A5012.315
Y-0.019A5018.044
Y0.016A5023.774
Y0.007A5029.504
Y-0.001Z6000.005A5035.233
Y0.016Z6000A4680
X-22000Y-0.013A5039.999
Y0.022A5045.729
Y0.013A5051.459
Y0.004A5057.188
Y-0.004A5062.918
Y-0.014A5068.647
Y0.022A5074.377
Y0.013A5080.107
Y0.003A5085.836
Y-0.005Z5999.999A5091.566
Y-0.014Z6000A5097.295
Y0.022A5103.025
Y0.013Z6000.001A5108.755
Y0.003A5114.484
Y-0.005Z6000.002A5120.214
Y-0.014A5125.943
Y0.022A5131.673
Y0.012Z6000.003A5137.402
Y0.003A5143.132
Y-0.005A5148.861
Y-0.014Z6000.004A5154.591
Y0.022Z6000.002A5160.321
Y0.012Z6000.003A5166.05
Y0.003A5171.78
Y-0.005A5177.509
Y-0.014A5183.239
Y0.022A5188.969
Y0.013A5194.698
Y0.004A5200.428
Y-0.004Z6000.004A5206.157
Y-0.014Z6000.003A5211.887
Y0.022Z6000.004A5217.617
Y0.013A5223.346
Y0.004A5229.076
Y-0.005A5234.805
Y-0.014A5240.535
Y0.022Z6000.005A5246.265
Y0.013Z6000.004A5251.994
Y0.003A5257.724
Y-0.005A5263.453
Y-0.015A5269.182
Y0.021A5274.912
Y0.012Z6000.005A5280.642
Y0.003A5286.371
Y-0.005A5292.101
Y-0.014A5297.83
Y0.021A5303.56
Y0.012Z6000.004A5309.29
Y0.003Z6000.005A5315.019
Y-0.005Z6000.004A5320.749
Y-0.014A5326.478
Y0.021Z6000.005A5332.208
Y0.013A5337.938
Y0.004A5343.667
Y-0.004A5349.397
Y-0.013A5355.126
Y0.022A5360.856
Y0.013Z6000.006A5366.586
Y0.004A5372.315
Y-0.004A5378.045
Y-0.013A5383.774
Y0.023Z6000.005A5389.504
Y0.014Z6000.004A5395.233
Y-0.013Z6000A5039.999
X-20000Y0.001A5400
Y-0.007A5405.729
Y-0.016A5411.458
Y0.019A5417.188
Y0.01A5422.918
Y0.001A5428.647
Y-0.007A5434.377
Y-0.017A5440.106
Y0.019A5445.836
Y0.009A5451.566
Y0A5457.295
Y-0.008Z6000.001A5463.025
Y-0.017A5468.754
Y0.019A5474.484
Y0.01Z6000.002A5480.214
Y0A5485.943
Y-0.008A5491.673
Y-0.017A5497.402
Y0.019Z6000.003A5503.132
Y0.01A5508.862
Y0Z6000.004A5514.591
Y-0.008Z6000.002A5520.321
Y-0.017Z6000.003A5526.05
Y0.019A5531.78
Y0.009A5537.509
Y0.001A5543.239
Y-0.007A5548.968
Y-0.016A5554.698
Y0.019A5560.428
Y0.01Z6000.004A5566.157
Y0.001Z6000.003A5571.887
Y-0.007Z6000.004A5577.616
Y-0.017A5583.346
Y0.019A5589.076
Y0.01A5594.805
Y0Z6000.003A5600.535
Y-0.007Z6000.005A5606.264
Y-0.017Z6000.004A5611.994
Y0.019Z6000.003A5617.724
Y0.01Z6000.004A5623.453
Y0A5629.183
Y-0.008A5634.912
Y-0.017Z6000.005A5640.642
Y0.019Z6000.004A5646.372
Y0.009Z6000.005A5652.101
Y0A5657.831
Y-0.008A5663.56
Y-0.017Z6000.004A5669.29
Y0.018Z6000.005A5675.019
Y0.009Z6000.004A5680.749
Y0A5686.478
Y-0.008A5692.208
Y-0.017Z6000.005A5697.937
Y0.019A5703.667
Y0.01Z6000.006A5709.397
Y0.001A5715.126
Y-0.006Z6000.005A5720.856
Y-0.016Z6000.006A5726.585
Y0.02A5732.315
Y0.01A5738.045
Y0.001A5743.774
Y-0.007Z6000.005A5749.504
Y-0.016A5755.233
Y0.001Z6000A5400
X-18000Y0.016A5760
Y0.007A5765.729
Y-0.001A5771.459
Y-0.01A5777.188
Y-0.02A5782.918
Y0.016A5788.648
Y0.007A5794.377
Y-0.001A5800.107
Y-0.011Z5999.999A5805.836
Y-0.02Z6000A5811.566
Y0.016A5817.295
Y0.007A5823.025
Y-0.001Z6000.001A5828.754
Y-0.011A5834.484
Y-0.02Z6000.002A5840.213
Y0.016A5845.943
Y0.006A5851.673
Y-0.002A5857.402
Y-0.011Z6000.003A5863.132
Y-0.02A5868.861
Y0.016Z6000.004A5874.591
Y0.007Z6000.003A5880.321
Y-0.001Z6000.002A5886.05
Y-0.011Z6000.003A5891.78
Y-0.02A5897.509
Y0.016A5903.239
Y0.007A5908.969
Y-0.001A5914.698
Y-0.01A5920.428
Y-0.019Z6000.004A5926.157
Y0.016Z6000.003A5931.887
Y0.007Z6000.004A5937.616
Y-0.001A5943.346
Y-0.01A5949.075
Y-0.02Z6000.003A5954.805
Y0.016Z6000.004A5960.535
Y0.007A5966.264
Y-0.001A5971.994
Y-0.011Z6000.003A5977.723
Y-0.02Z6000.004A5983.453
Y0.015A5989.183
Y0.006A5994.912
Y-0.002Z6000.005A6000.642
Y-0.011A6006.371
Y-0.02A6012.101
Y0.015A6017.831
Y0.006A6023.56
Y-0.002Z6000.004A6029.29
Y-0.011A6035.019
Y-0.02A6040.749
Y0.015A6046.479
Y0.006Z6000.005A6052.208
Y-0.001A6057.938
Y-0.01A6063.667
Y-0.019Z6000.006A6069.397
Y0.017Z6000.005A6075.126
Y0.008A6080.856
Y-0.001Z6000.006A6086.585
Y-0.01A6092.315
Y-0.019A6098.044
Y0.017A6103.774
Y0.008A6109.504
Y-0.001Z6000.005A6115.233
Y0.016Z6000A5760
X-16000Y-0.013A6119.999
Y-0.022A6125.729
Y0.013A6131.459
Y0.004A6137.188
Y-0.004A6142.918
Y-0.013A6148.647
Y-0.023A6154.377
Y0.013A6160.107
Y0.003A6165.836
Y-0.005A6171.566
Y-0.014A6177.295
Y-0.023A6183.025
Y0.013Z6000.001A6188.755
Y0.004A6194.484
Y-0.005Z6000.002A6200.214
Y-0.014A6205.943
Y-0.023A6211.673
Y0.012Z6000.003A6217.402
Y0.004A6223.132
Y-0.004A6228.861
Y-0.014Z6000.004A6234.591
Y-0.023Z6000.003A6240.32
Y0.013A6246.05
Y0.003A6251.78
Y-0.005A6257.509
Y-0.013A6263.239
Y-0.022A6268.968
Y0.014A6274.698
Y0.004A6280.428
Y-0.004Z6000.004A6286.157
Y-0.013Z6000.003A6291.887
Y-0.022Z6000.004A6297.616
Y0.013A6303.346
Y0.004A6309.076
Y-0.004Z6000.003A6314.805
Y-0.013A6320.535
Y-0.022Z6000.004A6326.264
Y0.013A6331.994
Y0.003Z6000.003A6337.724
Y-0.005Z6000.004A6343.453
Y-0.014A6349.182
Y-0.023A6354.912
Y0.013Z6000.005A6360.642
Y0.003A6366.371
Y-0.005A6372.101
Y-0.014A6377.83
Y-0.023A6383.56
Y0.012Z6000.004A6389.29
Y0.003Z6000.005A6395.019
Y-0.005Z6000.004A6400.749
Y-0.014A6406.478
Y-0.023A6412.208
Y0.013Z6000.005A6417.938
Y0.005A6423.667
Y-0.004Z6000.006A6429.397
Y-0.013Z6000.005A6435.126
Y-0.022A6440.856
Y0.014Z6000.006A6446.586
Y0.005A6452.315
Y-0.004A6458.045
Y-0.013A6463.774
Y-0.022Z6000.005A6469.504
Y0.014Z6000.004A6475.233
Y-0.013Z6000A6119.999
X-14000Y0.001A6480
Y-0.007A6485.729
Y-0.016A6491.458
Y0.019A6497.188
Y0.01A6502.918
Y0.001A6508.647
Y-0.007A6514.377
Y-0.016A6520.106
Y0.019A6525.836
Y0.01A6531.566
Y0.001A6537.295
Y-0.007A6543.025
Y-0.016Z6000.001A6548.754
Y0.019A6554.484
Y0.01Z6000.002A6560.214
Y0.001A6565.943
Y-0.008A6571.673
Y-0.017Z6000.003A6577.402
Y0.019A6583.132
Y0.01A6588.862
Y0.001A6594.591
Y-0.007A6600.321
Y-0.016Z6000.002A6606.05
Y0.019Z6000.003A6611.78
Y0.01A6617.509
Y0.001A6623.239
Y-0.007A6628.968
Y-0.016A6634.698
Y0.019A6640.428
Y0.01Z6000.004A6646.157
Y0.001Z6000.003A6651.887
Y-0.007Z6000.004A6657.616
Y-0.016A6663.346
Y0.019A6669.076
Y0.01Z6000.003A6674.805
Y0.001Z6000.004A6680.535
Y-0.007Z6000.005A6686.264
Y-0.016Z6000.004A6691.994
Y0.019Z6000.003A6697.724
Y0.01Z6000.004A6703.453
Y0A6709.183
Y-0.008A6714.912
Y-0.017Z6000.005A6720.642
Y0.019Z6000.004A6726.372
Y0.01Z6000.005A6732.101
Y0A6737.831
Y-0.008A6743.56
Y-0.017Z6000.004A6749.29
Y0.019Z6000.005A6755.019
Y0.009Z6000.004A6760.749
Y0A6766.478
Y-0.008Z6000.005A6772.208
Y-0.016A6777.937
Y0.02A6783.667
Y0.011A6789.397
Y0.001A6795.126
Y-0.006A6800.856
Y-0.016A6806.585
Y0.02Z6000.006A6812.315
Y0.011A6818.045
Y0.002A6823.774
Y-0.006Z6000.005A6829.504
Y-0.016A6835.233
Y0.001Z6000A6480
X-12000Y0.017A6840
Y0.007A6845.729
Y-0.001A6851.459
Y-0.01A6857.188
Y-0.019A6862.918
Y0.016A6868.648
Y0.007A6874.377
Y-0.001A6880.107
Y-0.01A6885.836
Y-0.02A6891.566
Y0.016A6897.295
Y0.007A6903.025
Y-0.001Z6000.001A6908.754
Y-0.01A6914.484
Y-0.02A6920.213
Y0.016Z6000.002A6925.943
Y0.007A6931.673
Y-0.001A6937.402
Y-0.011Z6000.003A6943.132
Y-0.02A6948.861
Y0.016A6954.591
Y0.007A6960.321
Y-0.001A6966.05
Y-0.01A6971.78
Y-0.02A6977.509
Y0.017A6983.239
Y0.008A6988.969
Y-0A6994.698
Y-0.01A7000.428
Y-0.019Z6000.004A7006.157
Y0.016Z6000.003A7011.887
Y0.007Z6000.004A7017.616
Y-0.001A7023.346
Y-0.01A7029.075
Y-0.019A7034.805
Y0.016Z6000.003A7040.535
Y0.008Z6000.005A7046.264
Y-0.001Z6000.004A7051.994
Y-0.011Z6000.003A7057.723
Y-0.02Z6000.004A7063.453
Y0.016A7069.183
Y0.007A7074.912
Y-0.001Z6000.005A7080.642
Y-0.011A7086.371
Y-0.02A7092.101
Y0.016A7097.831
Y0.006A7103.56
Y-0.002Z6000.004A7109.29
Y-0.011A7115.019
Y-0.02A7120.749
Y0.015A7126.479
Y0.006Z6000.005A7132.208
Y-0.001A7137.938
Y-0.01A7143.667
Y-0.019A7149.397
Y0.017Z6000.006A7155.126
Y0.008Z6000.005A7160.856
Y-0Z6000.006A7166.585
Y-0.01A7172.315
Y-0.019A7178.044
Y0.017A7183.774
Y0.008A7189.504
Y-0Z6000.005A7195.233
Y0.017Z6000A6840
X-10000Y-0.013A7199.999
Y-0.022A7205.729
Y0.014A7211.459
Y0.004A7217.188
Y-0.004A7222.918
Y-0.013A7228.647
Y-0.022A7234.377
Y0.013A7240.107
Y0.004A7245.836
Y-0.004A7251.566
Y-0.014A7257.295
Y-0.022A7263.025
Y0.013Z6000.001A7268.755
Y0.004Z6000.002A7274.484
Y-0.004A7280.214
Y-0.014A7285.943
Y-0.023A7291.673
Y0.013Z6000.003A7297.402
Y0.004A7303.132
Y-301.586Z6009.462A7308.298
Y-129.324Z8004.441A7308.635
Y-0.007Z10000.003A7308.861
Y-0.022A7314.591
Y-0.038A7320.32
Y0.022A7326.05
Y0.007A7331.78
Y-0.007A7337.509
Y0.053A7343.239
Y-0.037A7348.968
Y0.023A7354.698
Y-0.068Z10000.002A7360.427
G1Y-0.004Z6000.004A7366.157
G0Y304.638Z6009.534A7360.996
Y132.834Z8004.547A7360.661
G1Y0.032Z6000.003A7371.887
G0Y-0.022Z6000.004A7377.616
Y0.013A7383.346
Y-0.04Z6000.003A7389.075
Y-0.004Z6000.004A7394.805
Y0.032A7400.535
Y-0.022A7406.264
Y0.013A7411.994
Y-0.041A7417.723
Y-0.004A7423.453
Y0.031A7429.183
Y-0.023A7434.912
Y0.013Z6000.005A7440.642
Y-0.041A7446.371
Y-0.005A7452.101
Y0.031A7457.831
Y-0.023A7463.56
Y0.013Z6000.004A7469.29
Y-0.041A7475.019
Y-0.005A7480.749
Y0.031A7486.479
Y-0.023Z6000.005A7492.208
Y0.013A7497.938
Y-0.04A7503.667
Y-0.003A7509.397
Y0.032Z6000.006A7515.127
Y-0.022Z6000.005A7520.856
Y0.014Z6000.006A7526.586
Y-0.04A7532.315
Y-0.003A7538.045
Y0.032A7543.774
Y-0.021Z6000.005A7549.504
Y0.014Z6000.004A7555.233
Y-0.013Z6000A7199.999
X-8000Y-0.043A7559.999
Y-0.007A7565.729
Y0.029A7571.459
Y-0.025A7577.188
Y0.011A7582.918
Y-0.044A7588.647
Y-0.007A7594.377
Y0.029A7600.107
Y-0.025A7605.836
Y0.01A7611.566
Y-0.044A7617.295
Y-0.007A7623.025
Y0.029Z6000.001A7628.755
Y-0.025A7634.484
Y0.01Z6000.002A7640.214
Y-0.044A7645.943
Y-200.152Z6006.881A7651.299
Y-14.354Z8000.537A7651.647
Y-0.012Z10000.002A7651.673
Y0.048A7657.403
Y-0.043Z10000.003A7663.132
Y0.017A7668.862
Y-0.073A7674.591
Y-0.012A7680.321
Y0.049A7686.05
Y-0.042A7691.78
Y0.017A7697.509
Y-0.072A7703.239
Y-0.011Z10000.002A7708.968
Y0.049Z10000.003A7714.698
Y-0.042A7720.427
Y0.018A7726.157
Y-0.073A7731.886
Y-0.012A7737.616
G1Y0.029Z6000.004A7743.346
G0Y205.401Z6007.028A7738
Y20.254Z8000.757A7737.652
G1Y-0.025Z6000.004A7749.075
G0Y0.01Z6000.003A7754.805
Y-0.044A7760.534
Y-0.007Z6000.005A7766.264
Y0.029Z6000.004A7771.994
Y-0.026A7777.723
Y0.01A7783.453
Y-0.044A7789.182
Y-0.008A7794.912
Y0.028Z6000.005A7800.642
Y-0.026Z6000.004A7806.371
Y0.01Z6000.005A7812.101
Y-0.044A7817.83
Y-0.008A7823.56
Y0.028Z6000.004A7829.29
Y-0.026A7835.019
Y0.01A7840.749
Y-0.044A7846.478
Y-0.007A7852.208
Y0.029Z6000.005A7857.938
Y-0.025A7863.667
Y0.011Z6000.006A7869.397
Y-0.043Z6000.005A7875.126
Y-0.006A7880.856
Y0.029Z6000.006A7886.586
Y-0.025A7892.315
Y0.011A7898.045
Y-0.043A7903.774
Y-0.006Z6000.005A7909.504
Y0.029A7915.234
Y-0.043Z6000A7559.999
X-6000Y-0.028A7919.999
Y0.008A7925.729
Y0.044A7931.459
Y-0.01A7937.188
Y0.026A7942.918
Y-0.028A7948.647
Y0.008A7954.377
Y0.044A7960.107
Y-0.01Z5999.999A7965.836
Y0.025Z6000A7971.566
Y-0.028A7977.295
Y0.007A7983.025
Y0.044Z6000.001A7988.755
Y-0.01A7994.484
Y-103.943Z6003.87A8000.02
Y0.03Z7077.438A8000.214
Y-0.036Z7633.763A8005.943
Y-10.386Z7992.13A8010.057
Y0.012Z10000.003A8011.673
Y0.073Z10000.002A8017.403
Y-0.017Z10000.003A8023.132
Y0.043A8028.862
Y-0.047A8034.591
Y0.013Z10000.002A8040.321
Y0.074Z10000.003A8046.051
Y-0.016A8051.78
Y0.043A8057.51
Y-0.047A8063.239
Y0.014A8068.969
Y0.074A8074.699
Y-0.016A8080.428
Y0.043Z10000.004A8086.158
Y-0.047Z10000.003A8091.887
Y0.013Z10000.004A8097.616
G1Y12.202Z7990.492A8099.931
Y0.057Z7699.564A8103.346
Y-0.012Z7148.679A8109.075
Y110.562Z6004.096A8109.282
G0Y0.026Z6000.003A8114.805
Y-0.028Z6000.004A8120.534
Y0.008Z6000.005A8126.264
Y0.044Z6000.004A8131.994
Y-0.01Z6000.003A8137.723
Y0.025Z6000.004A8143.453
Y-0.029A8149.182
Y0.007A8154.912
Y0.043Z6000.005A8160.642
Y-0.01Z6000.004A8166.371
Y0.025Z6000.005A8172.101
Y-0.029A8177.83
Y0.007A8183.56
Y0.043Z6000.004A8189.29
Y-0.01A8195.019
Y0.025A8200.749
Y-0.029A8206.478
Y0.007A8212.208
Y0.044Z6000.005A8217.938
Y-0.01A8223.667
Y0.026Z6000.006A8229.397
Y-0.028A8235.126
Y0.008Z6000.005A8240.856
Y0.044Z6000.006A8246.586
Y-0.01A8252.315
Y0.026A8258.045
Y-0.028A8263.774
Y0.008A8269.504
Y0.045Z6000.004A8275.234
Y-0.028Z6000A7919.999
X-4000Y-0.013A8279.999
Y0.023A8285.729
Y-0.031A8291.458
Y0.005A8297.188
Y0.041A8302.918
Y-0.013A8308.647
Y0.023A8314.377
Y-0.031A8320.106
Y0.004Z5999.999A8325.836
Y0.041Z6000A8331.566
Y-0.013A8337.295
Y0.022A8343.025
Y-0.031Z6000.001A8348.754
Y0.004A8354.484
Y-103.929Z6003.87A8360.02
Y0.048Z7077.453A8360.214
Y-0.017Z7633.778A8365.943
Y-10.469Z7992.13A8370.056
Y0.038Z10000.002A8371.673
Y-0.053A8377.402
Y0.007Z10000.003A8383.132
Y0.068A8388.862
Y-0.022A8394.591
Y0.038A8400.321
Y-0.052A8406.05
Y0.008A8411.78
Y0.069A8417.51
Y-0.021A8423.239
Y0.039A8428.969
Y-0.052Z10000.002A8434.698
Y0.008Z10000.003A8440.428
Y0.069Z10000.004A8446.158
Y-0.021A8451.887
Y0.039A8457.617
G1Y12.191Z7990.492A8459.931
Y-0.04Z7699.63A8463.346
Y0.006Z7148.666A8469.076
Y110.576Z6004.096A8469.282
G0Y0.041Z6000.003A8474.806
Y-0.013Z6000.004A8480.535
Y0.023Z6000.005A8486.265
Y-0.031Z6000.004A8491.994
Y0.004Z6000.003A8497.724
Y0.041Z6000.004A8503.453
Y-0.014A8509.182
Y0.022A8514.912
Y-0.031Z6000.005A8520.641
Y0.004A8526.371
Y0.041A8532.101
Y-0.013A8537.83
Y0.022A8543.56
Y-0.032Z6000.004A8549.289
Y0.004Z6000.005A8555.019
Y0.04Z6000.004A8560.749
Y-0.014A8566.478
Y0.022A8572.208
Y-0.031Z6000.005A8577.937
Y0.005A8583.667
Y0.042A8589.397
Y-0.012A8595.126
Y0.024A8600.856
Y-0.031Z6000.006A8606.585
Y0.005A8612.315
Y0.042A8618.045
Y-0.012A8623.774
Y0.023Z6000.005A8629.504
Y-0.03A8635.233
Y-0.013Z6000A8279.999
X-2000Y0.002A8640
Y0.038A8645.729
Y-0.016A8651.459
Y0.02A8657.188
Y-0.034A8662.917
Y0.002A8668.647
Y0.038A8674.377
Y-0.016A8680.106
Y0.02A8685.836
Y-0.034A8691.565
Y0.001A8697.295
Y0.038A8703.025
Y-0.016Z6000.001A8708.754
Y0.02A8714.484
Y-0.034Z6000.002A8720.213
Y0.001A8725.943
Y-200.2Z6006.881A8731.299
Y-14.295Z8000.535A8731.648
Y0.064Z10000.002A8731.673
Y-0.027A8737.402
Y0.033Z10000.003A8743.132
Y-0.057A8748.861
Y0.003A8754.591
Y0.063A8760.321
Y-0.027A8766.05
Y0.033A8771.78
Y-0.057A8777.509
Y0.003A8783.239
Y0.064A8788.969
Y-0.026A8794.698
Y0.033A8800.428
Y-0.057Z10000.004A8806.157
Y0.003Z10000.003A8811.887
Y0.064Z10000.004A8817.617
G1Y-0.016Z6000.004A8823.346
G0Y205.353Z6007.029A8818
Y20.191Z8000.757A8817.652
G1Y0.02Z6000.003A8829.076
G0Y-0.034Z6000.004A8834.805
Y0.001A8840.535
Y0.039Z6000.005A8846.265
Y-0.016Z6000.004A8851.994
Y0.02A8857.724
Y-0.034A8863.453
Y0.001A8869.183
Y0.038A8874.913
Y-0.016Z6000.005A8880.642
Y0.019A8886.372
Y-0.035A8892.101
Y0.001A8897.831
Y0.038A8903.56
Y-0.016Z6000.004A8909.29
Y0.019Z6000.005A8915.019
Y-0.035A8920.748
Y0.001Z6000.004A8926.478
Y0.038Z6000.005A8932.208
Y-0.016A8937.937
Y0.02A8943.667
Y-0.034A8949.396
Y0.002A8955.126
Y0.039A8960.856
Y-0.015Z6000.006A8966.585
Y0.02A8972.315
Y-0.033A8978.044
Y0.002A8983.774
Y0.039Z6000.005A8989.504
Y-0.015Z6000.004A8995.233
Y0.002Z6000A8640
X0Y0.017A9000
Y-0.037A9005.729
Y-0A9011.459
Y0.035A9017.189
Y-0.018A9022.918
Y0.017A9028.648
Y-0.037A9034.377
Y-0A9040.107
Y0.035A9045.836
Y-0.019A9051.566
Y0.016A9057.295
Y-0.037A9063.025
Y-0A9068.754
Y0.035Z6000.002A9074.484
Y-0.019Z6000.001A9080.213
Y0.016Z6000.002A9085.943
Y-0.037A9091.672
Y-0.001A9097.402
Y0.035Z6000.003A9103.132
Y-301.555Z6009.464A9108.298
Y-129.282Z8004.44A9108.635
Y-0.032Z10000.003A9108.861
Y0.028A9114.591
Y-0.062A9120.32
Y-0.001A9126.05
Y0.059A9131.78
Y-0.032A9137.509
Y0.029A9143.239
Y-0.061A9148.968
Y-0.001A9154.698
Y0.059A9160.428
G1Y-0.019Z6000.004A9166.157
G0Y304.713Z6009.53A9160.997
Y132.812Z8004.548A9160.661
G1Y0.017Z6000.003A9171.887
G0Y-0.037Z6000.004A9177.616
Y-0A9183.346
Y0.035A9189.076
Y-0.019A9194.805
Y0.017A9200.535
Y-0.036A9206.264
Y-0A9211.994
Y0.035A9217.724
Y-0.019A9223.453
Y0.016A9229.183
Y-0.038A9234.912
Y-0.001Z6000.005A9240.642
Y0.035A9246.372
Y-0.019A9252.101
Y0.016A9257.831
Y-0.038A9263.56
Y-0.001Z6000.004A9269.29
Y0.035Z6000.005A9275.02
Y-0.02Z6000.004A9280.749
Y0.016A9286.479
Y-0.038Z6000.005A9292.208
Y-0A9297.938
Y0.036A9303.667
Y-0.018A9309.397
Y0.018A9315.126
Y-0.036A9320.856
Y0Z6000.006A9326.585
Y0.036A9332.315
Y-0.018A9338.044
Y0.017A9343.774
Y-0.036A9349.503
Y0Z6000.005A9355.233
Y0.017Z6000A9000
X2000Y0.032A9360
Y-0.021A9365.729
Y0.014A9371.459
Y-0.04A9377.188
Y-0.003A9382.918
Y0.032A9388.648
Y-0.022A9394.377
Y0.014A9400.107
Y-0.041A9405.836
Y-0.004A9411.566
Y0.032A9417.296
Y-0.022Z6000.001A9423.025
Y0.014A9428.755
Y-0.04A9434.484
Y-0.004Z6000.002A9440.214
Y0.032A9445.943
Y-0.022A9451.673
Y0.013A9457.402
Y-0.04Z6000.003A9463.132
Y-0.003A9468.861
Y0.032Z6000.004A9474.591
Y-0.022Z6000.003A9480.32
Y0.014A9486.05
Y-0.04A9491.779
Y-0.004A9497.509
Y0.032A9503.239
Y-0.021A9508.968
Y0.014A9514.698
Y-0.04A9520.427
Y-0.003Z6000.004A9526.157
Y0.032Z6000.003A9531.887
Y-0.022Z6000.004A9537.616
Y0.014A9543.346
Y-0.04A9549.075
Y-0.004A9554.805
Y0.032A9560.535
Y-0.021Z6000.005A9566.264
Y0.014Z6000.004A9571.994
Y-0.041Z6000.003A9577.723
Y-0.004Z6000.004A9583.453
Y0.032A9589.183
Y-0.022A9594.912
Y0.013Z6000.005A9600.642
Y-0.041A9606.371
Y-0.004A9612.101
Y0.031A9617.831
Y-0.022A9623.56
Y0.013Z6000.004A9629.29
Y-0.041Z6000.005A9635.019
Y-0.004Z6000.004A9640.749
Y0.031A9646.479
Y-0.022Z6000.005A9652.208
Y0.014A9657.938
Y-0.04A9663.667
Y-0.003Z6000.006A9669.397
Y0.033A9675.127
Y-0.021Z6000.005A9680.856
Y0.014A9686.586
Y-0.04Z6000.006A9692.315
Y-0.003A9698.045
Y0.033A9703.774
Y-0.021Z6000.005A9709.504
Y0.015Z6000.004A9715.233
Y0.032Z6000A9360
X4000Y-0.043A9719.999
Y-0.006A9725.729
Y0.029A9731.459
Y-0.025A9737.188
Y0.011A9742.918
Y-0.043A9748.647
Y-0.006A9754.377
Y0.03A9760.107
Y-0.025A9765.836
Y0.011A9771.566
Y-0.043A9777.295
Y-0.007A9783.025
Y0.029Z6000.001A9788.755
Y-0.025A9794.484
Y0.011Z6000.002A9800.214
Y-0.043A9805.943
Y-0.007A9811.673
Y0.029A9817.403
Y-0.025Z6000.003A9823.132
Y0.011A9828.862
Y-0.043A9834.591
Y-0.007A9840.321
Y0.029Z6000.002A9846.051
Y-0.025Z6000.003A9851.78
Y0.011A9857.509
Y-0.043A9863.239
Y-0.006A9868.968
Y0.03A9874.698
Y-0.024A9880.427
Y0.011Z6000.004A9886.157
Y-0.043Z6000.003A9891.886
Y-0.006Z6000.004A9897.616
Y0.029A9903.346
Y-0.025A9909.075
Y0.011A9914.805
Y-0.043A9920.534
Y-0.006Z6000.005A9926.264
Y0.029Z6000.004A9931.994
Y-0.025A9937.723
Y0.011A9943.453
Y-0.044A9949.182
Y-0.007A9954.912
Y0.029Z6000.005A9960.642
Y-0.025A9966.371
Y0.01A9972.101
Y-0.044A9977.83
Y-0.007A9983.56
Y0.029Z6000.004A9989.29
Y-0.025A9995.019
Y0.01A10000.749
Y-0.044A10006.478
Y-0.007A10012.208
Y0.029Z6000.005A10017.938
Y-0.024A10023.667
Y0.012Z6000.006A10029.397
Y-0.042Z6000.005A10035.126
Y-0.005A10040.856
Y0.03A10046.586
Y-0.024Z6000.006A10052.315
Y0.012A10058.045
Y-0.042A10063.774
Y-0.006Z6000.005A10069.504
Y0.03Z6000.004A10075.234
Y-0.043Z6000A9719.999
X6000Y-0.027A10079.999
Y0.008A10085.729
Y0.045A10091.459
Y-0.009A10097.188
Y0.026A10102.918
Y-0.028A10108.647
Y0.008A10114.377
Y0.044A10120.107
Y-0.01A10125.836
Y0.026A10131.566
Y-0.028A10137.295
Y0.008A10143.025
Y0.044Z6000.001A10148.755
Y-0.01A10154.484
Y0.026Z6000.002A10160.214
Y-0.028A10165.943
Y0.008A10171.673
Y0.044A10177.403
Y-0.01Z6000.003A10183.132
Y0.026A10188.862
