; ============================================
; Standalone 4-Axis G-code Generator
; ============================================
; Post Processor: GRBL
; Feed Rate: 500.0 mm/min
; Plunge Rate: 250.0 mm/min
; Spindle: 12000 RPM CW
; Safe Z: 50.0 mm
;
; Start code
G21 ; Millimeters
G90 ; Absolute positioning
G17 ; XY plane
G54 ; Work coordinate system
M3 S12000 ; Spindle on
G0 Z50.0000 ; Safe height

; Toolpath
G1 F500.0
G0 X0.0000 Y28.0000 Z0.0000 A0.0000 ; Start
G1 X0.1389 Y27.5746 Z4.8621 A10.0000
G1 X0.2778 Y26.3114 Z9.5766 A20.0000
G1 X0.4167 Y24.2487 Z14.0000 A30.0000
G1 X0.5556 Y21.4492 Z17.9981 A40.0000
G1 X0.6944 Y17.9981 Z21.4492 A50.0000
G1 X0.8333 Y14.0000 Z24.2487 A60.0000
G1 X0.9722 Y9.5766 Z26.3114 A70.0000
G1 X1.1111 Y4.8621 Z27.5746 A80.0000
G1 X1.2500 Y0.0000 Z28.0000 A90.0000
G1 X1.3889 Y-4.8621 Z27.5746 A100.0000
G1 X1.5278 Y-9.5766 Z26.3114 A110.0000
G1 X1.6667 Y-14.0000 Z24.2487 A120.0000
G1 X1.8056 Y-17.9981 Z21.4492 A130.0000
G1 X1.9444 Y-21.4492 Z17.9981 A140.0000
G1 X2.0833 Y-24.2487 Z14.0000 A150.0000
G1 X2.2222 Y-26.3114 Z9.5766 A160.0000
G1 X2.3611 Y-27.5746 Z4.8621 A170.0000
G1 X2.5000 Y-28.0000 Z0.0000 A180.0000
G1 X2.6389 Y-27.5746 Z-4.8621 A190.0000
G1 X2.7778 Y-26.3114 Z-9.5766 A200.0000
G1 X2.9167 Y-24.2487 Z-14.0000 A210.0000
G1 X3.0556 Y-21.4492 Z-17.9981 A220.0000
G1 X3.1944 Y-17.9981 Z-21.4492 A230.0000
G1 X3.3333 Y-14.0000 Z-24.2487 A240.0000
G1 X3.4722 Y-9.5766 Z-26.3114 A250.0000
G1 X3.6111 Y-4.8621 Z-27.5746 A260.0000
G1 X3.7500 Y-0.0000 Z-28.0000 A270.0000
G1 X3.8889 Y4.8621 Z-27.5746 A280.0000
G1 X4.0278 Y9.5766 Z-26.3114 A290.0000
G1 X4.1667 Y14.0000 Z-24.2487 A300.0000
G1 X4.3056 Y17.9981 Z-21.4492 A310.0000
G1 X4.4444 Y21.4492 Z-17.9981 A320.0000
G1 X4.5833 Y24.2487 Z-14.0000 A330.0000
G1 X4.7222 Y26.3114 Z-9.5766 A340.0000
G1 X4.8611 Y27.5746 Z-4.8621 A350.0000
G1 X5.0000 Y28.0000 Z-0.0000 A360.0000
G1 X5.0000 Y28.0000 Z0.0000 A360.0000
G1 X5.1389 Y27.5746 Z4.8621 A370.0000
G1 X5.2778 Y26.3114 Z9.5766 A380.0000
G1 X5.4167 Y24.2487 Z14.0000 A390.0000
G1 X5.5556 Y21.4492 Z17.9981 A400.0000
G1 X5.6944 Y17.9981 Z21.4492 A410.0000
G1 X5.8333 Y14.0000 Z24.2487 A420.0000
G1 X5.9722 Y9.5766 Z26.3114 A430.0000
G1 X6.1111 Y4.8621 Z27.5746 A440.0000
G1 X6.2500 Y0.0000 Z28.0000 A450.0000
G1 X6.3889 Y-4.8621 Z27.5746 A460.0000
G1 X6.5278 Y-9.5766 Z26.3114 A470.0000
G1 X6.6667 Y-14.0000 Z24.2487 A480.0000
G1 X6.8056 Y-17.9981 Z21.4492 A490.0000
G1 X6.9444 Y-21.4492 Z17.9981 A500.0000
G1 X7.0833 Y-24.2487 Z14.0000 A510.0000
G1 X7.2222 Y-26.3114 Z9.5766 A520.0000
G1 X7.3611 Y-27.5746 Z4.8621 A530.0000
G1 X7.5000 Y-28.0000 Z0.0000 A540.0000
G1 X7.6389 Y-27.5746 Z-4.8621 A550.0000
G1 X7.7778 Y-26.3114 Z-9.5766 A560.0000
G1 X7.9167 Y-24.2487 Z-14.0000 A570.0000
G1 X8.0556 Y-21.4492 Z-17.9981 A580.0000
G1 X8.1944 Y-17.9981 Z-21.4492 A590.0000
G1 X8.3333 Y-14.0000 Z-24.2487 A600.0000
G1 X8.4722 Y-9.5766 Z-26.3114 A610.0000
G1 X8.6111 Y-4.8621 Z-27.5746 A620.0000
G1 X8.7500 Y-0.0000 Z-28.0000 A630.0000
G1 X8.8889 Y4.8621 Z-27.5746 A640.0000
G1 X9.0278 Y9.5766 Z-26.3114 A650.0000
G1 X9.1667 Y14.0000 Z-24.2487 A660.0000
G1 X9.3056 Y17.9981 Z-21.4492 A670.0000
G1 X9.4444 Y21.4492 Z-17.9981 A680.0000
G1 X9.5833 Y24.2487 Z-14.0000 A690.0000
G1 X9.7222 Y26.3114 Z-9.5766 A700.0000
G1 X9.8611 Y27.5746 Z-4.8621 A710.0000
G1 X10.0000 Y28.0000 Z-0.0000 A720.0000
G1 X10.0000 Y28.0000 Z0.0000 A720.0000
G1 X10.1389 Y27.5746 Z4.8621 A730.0000
G1 X10.2778 Y26.3114 Z9.5766 A740.0000
G1 X10.4167 Y24.2487 Z14.0000 A750.0000
G1 X10.5556 Y21.4492 Z17.9981 A760.0000
G1 X10.6944 Y17.9981 Z21.4492 A770.0000
G1 X10.8333 Y14.0000 Z24.2487 A780.0000
G1 X10.9722 Y9.5766 Z26.3114 A790.0000
G1 X11.1111 Y4.8621 Z27.5746 A800.0000
G1 X11.2500 Y0.0000 Z28.0000 A810.0000
G1 X11.3889 Y-4.8621 Z27.5746 A820.0000
G1 X11.5278 Y-9.5766 Z26.3114 A830.0000
G1 X11.6667 Y-14.0000 Z24.2487 A840.0000
G1 X11.8056 Y-17.9981 Z21.4492 A850.0000
G1 X11.9444 Y-21.4492 Z17.9981 A860.0000
G1 X12.0833 Y-24.2487 Z14.0000 A870.0000
G1 X12.2222 Y-26.3114 Z9.5766 A880.0000
G1 X12.3611 Y-27.5746 Z4.8621 A890.0000
G1 X12.5000 Y-28.0000 Z0.0000 A900.0000
G1 X12.6389 Y-27.5746 Z-4.8621 A910.0000
G1 X12.7778 Y-26.3114 Z-9.5766 A920.0000
G1 X12.9167 Y-24.2487 Z-14.0000 A930.0000
G1 X13.0556 Y-21.4492 Z-17.9981 A940.0000
G1 X13.1944 Y-17.9981 Z-21.4492 A950.0000
G1 X13.3333 Y-14.0000 Z-24.2487 A960.0000
G1 X13.4722 Y-9.5766 Z-26.3114 A970.0000
G1 X13.6111 Y-4.8621 Z-27.5746 A980.0000
G1 X13.7500 Y-0.0000 Z-28.0000 A990.0000
G1 X13.8889 Y4.8621 Z-27.5746 A1000.0000
G1 X14.0278 Y9.5766 Z-26.3114 A1010.0000
G1 X14.1667 Y14.0000 Z-24.2487 A1020.0000
G1 X14.3056 Y17.9981 Z-21.4492 A1030.0000
G1 X14.4444 Y21.4492 Z-17.9981 A1040.0000
G1 X14.5833 Y24.2487 Z-14.0000 A1050.0000
G1 X14.7222 Y26.3114 Z-9.5766 A1060.0000
G1 X14.8611 Y27.5746 Z-4.8621 A1070.0000
G1 X15.0000 Y28.0000 Z-0.0000 A1080.0000
G1 X15.0000 Y28.0000 Z0.0000 A1080.0000
G1 X15.1389 Y27.5746 Z4.8621 A1090.0000
G1 X15.2778 Y26.3114 Z9.5766 A1100.0000
G1 X15.4167 Y24.2487 Z14.0000 A1110.0000
G1 X15.5556 Y21.4492 Z17.9981 A1120.0000
G1 X15.6944 Y17.9981 Z21.4492 A1130.0000
G1 X15.8333 Y14.0000 Z24.2487 A1140.0000
G1 X15.9722 Y9.5766 Z26.3114 A1150.0000
G1 X16.1111 Y4.8621 Z27.5746 A1160.0000
G1 X16.2500 Y0.0000 Z28.0000 A1170.0000
G1 X16.3889 Y-4.8621 Z27.5746 A1180.0000
G1 X16.5278 Y-9.5766 Z26.3114 A1190.0000
G1 X16.6667 Y-14.0000 Z24.2487 A1200.0000
G1 X16.8056 Y-17.9981 Z21.4492 A1210.0000
G1 X16.9444 Y-21.4492 Z17.9981 A1220.0000
G1 X17.0833 Y-24.2487 Z14.0000 A1230.0000
G1 X17.2222 Y-26.3114 Z9.5766 A1240.0000
G1 X17.3611 Y-27.5746 Z4.8621 A1250.0000
G1 X17.5000 Y-28.0000 Z0.0000 A1260.0000
G1 X17.6389 Y-27.5746 Z-4.8621 A1270.0000
G1 X17.7778 Y-26.3114 Z-9.5766 A1280.0000
G1 X17.9167 Y-24.2487 Z-14.0000 A1290.0000
G1 X18.0556 Y-21.4492 Z-17.9981 A1300.0000
G1 X18.1944 Y-17.9981 Z-21.4492 A1310.0000
G1 X18.3333 Y-14.0000 Z-24.2487 A1320.0000
G1 X18.4722 Y-9.5766 Z-26.3114 A1330.0000
G1 X18.6111 Y-4.8621 Z-27.5746 A1340.0000
G1 X18.7500 Y-0.0000 Z-28.0000 A1350.0000
G1 X18.8889 Y4.8621 Z-27.5746 A1360.0000
G1 X19.0278 Y9.5766 Z-26.3114 A1370.0000
G1 X19.1667 Y14.0000 Z-24.2487 A1380.0000
G1 X19.3056 Y17.9981 Z-21.4492 A1390.0000
G1 X19.4444 Y21.4492 Z-17.9981 A1400.0000
G1 X19.5833 Y24.2487 Z-14.0000 A1410.0000
G1 X19.7222 Y26.3114 Z-9.5766 A1420.0000
G1 X19.8611 Y27.5746 Z-4.8621 A1430.0000
G1 X20.0000 Y28.0000 Z-0.0000 A1440.0000
G1 X20.0000 Y28.0000 Z0.0000 A1440.0000
G1 X20.1389 Y27.5746 Z4.8621 A1450.0000
G1 X20.2778 Y26.3114 Z9.5766 A1460.0000
G1 X20.4167 Y24.2487 Z14.0000 A1470.0000
G1 X20.5556 Y21.4492 Z17.9981 A1480.0000
G1 X20.6944 Y17.9981 Z21.4492 A1490.0000
G1 X20.8333 Y14.0000 Z24.2487 A1500.0000
G1 X20.9722 Y9.5766 Z26.3114 A1510.0000
G1 X21.1111 Y4.8621 Z27.5746 A1520.0000
G1 X21.2500 Y0.0000 Z28.0000 A1530.0000
G1 X21.3889 Y-4.8621 Z27.5746 A1540.0000
G1 X21.5278 Y-9.5766 Z26.3114 A1550.0000
G1 X21.6667 Y-14.0000 Z24.2487 A1560.0000
G1 X21.8056 Y-17.9981 Z21.4492 A1570.0000
G1 X21.9444 Y-21.4492 Z17.9981 A1580.0000
G1 X22.0833 Y-24.2487 Z14.0000 A1590.0000
G1 X22.2222 Y-26.3114 Z9.5766 A1600.0000
G1 X22.3611 Y-27.5746 Z4.8621 A1610.0000
G1 X22.5000 Y-28.0000 Z0.0000 A1620.0000
G1 X22.6389 Y-27.5746 Z-4.8621 A1630.0000
G1 X22.7778 Y-26.3114 Z-9.5766 A1640.0000
G1 X22.9167 Y-24.2487 Z-14.0000 A1650.0000
G1 X23.0556 Y-21.4492 Z-17.9981 A1660.0000
G1 X23.1944 Y-17.9981 Z-21.4492 A1670.0000
G1 X23.3333 Y-14.0000 Z-24.2487 A1680.0000
G1 X23.4722 Y-9.5766 Z-26.3114 A1690.0000
G1 X23.6111 Y-4.8621 Z-27.5746 A1700.0000
G1 X23.7500 Y-0.0000 Z-28.0000 A1710.0000
G1 X23.8889 Y4.8621 Z-27.5746 A1720.0000
G1 X24.0278 Y9.5766 Z-26.3114 A1730.0000
G1 X24.1667 Y14.0000 Z-24.2487 A1740.0000
G1 X24.3056 Y17.9981 Z-21.4492 A1750.0000
G1 X24.4444 Y21.4492 Z-17.9981 A1760.0000
G1 X24.5833 Y24.2487 Z-14.0000 A1770.0000
G1 X24.7222 Y26.3114 Z-9.5766 A1780.0000
G1 X24.8611 Y27.5746 Z-4.8621 A1790.0000
G1 X25.0000 Y28.0000 Z-0.0000 A1800.0000
G1 X25.0000 Y28.0000 Z0.0000 A1800.0000
G1 X25.1389 Y27.5746 Z4.8621 A1810.0000
G1 X25.2778 Y26.3114 Z9.5766 A1820.0000
G1 X25.4167 Y24.2487 Z14.0000 A1830.0000
G1 X25.5556 Y21.4492 Z17.9981 A1840.0000
G1 X25.6944 Y17.9981 Z21.4492 A1850.0000
G1 X25.8333 Y14.0000 Z24.2487 A1860.0000
G1 X25.9722 Y9.5766 Z26.3114 A1870.0000
G1 X26.1111 Y4.8621 Z27.5746 A1880.0000
G1 X26.2500 Y0.0000 Z28.0000 A1890.0000
G1 X26.3889 Y-4.8621 Z27.5746 A1900.0000
G1 X26.5278 Y-9.5766 Z26.3114 A1910.0000
G1 X26.6667 Y-14.0000 Z24.2487 A1920.0000
G1 X26.8056 Y-17.9981 Z21.4492 A1930.0000
G1 X26.9444 Y-21.4492 Z17.9981 A1940.0000
G1 X27.0833 Y-24.2487 Z14.0000 A1950.0000
G1 X27.2222 Y-26.3114 Z9.5766 A1960.0000
G1 X27.3611 Y-27.5746 Z4.8621 A1970.0000
G1 X27.5000 Y-28.0000 Z0.0000 A1980.0000
G1 X27.6389 Y-27.5746 Z-4.8621 A1990.0000
G1 X27.7778 Y-26.3114 Z-9.5766 A2000.0000
G1 X27.9167 Y-24.2487 Z-14.0000 A2010.0000
G1 X28.0556 Y-21.4492 Z-17.9981 A2020.0000
G1 X28.1944 Y-17.9981 Z-21.4492 A2030.0000
G1 X28.3333 Y-14.0000 Z-24.2487 A2040.0000
G1 X28.4722 Y-9.5766 Z-26.3114 A2050.0000
G1 X28.6111 Y-4.8621 Z-27.5746 A2060.0000
G1 X28.7500 Y-0.0000 Z-28.0000 A2070.0000
G1 X28.8889 Y4.8621 Z-27.5746 A2080.0000
G1 X29.0278 Y9.5766 Z-26.3114 A2090.0000
G1 X29.1667 Y14.0000 Z-24.2487 A2100.0000
G1 X29.3056 Y17.9981 Z-21.4492 A2110.0000
G1 X29.4444 Y21.4492 Z-17.9981 A2120.0000
G1 X29.5833 Y24.2487 Z-14.0000 A2130.0000
G1 X29.7222 Y26.3114 Z-9.5766 A2140.0000
G1 X29.8611 Y27.5746 Z-4.8621 A2150.0000
G1 X30.0000 Y28.0000 Z-0.0000 A2160.0000
G1 X30.0000 Y28.0000 Z0.0000 A2160.0000
G1 X30.1389 Y27.5746 Z4.8621 A2170.0000
G1 X30.2778 Y26.3114 Z9.5766 A2180.0000
G1 X30.4167 Y24.2487 Z14.0000 A2190.0000
G1 X30.5556 Y21.4492 Z17.9981 A2200.0000
G1 X30.6944 Y17.9981 Z21.4492 A2210.0000
G1 X30.8333 Y14.0000 Z24.2487 A2220.0000
G1 X30.9722 Y9.5766 Z26.3114 A2230.0000
G1 X31.1111 Y4.8621 Z27.5746 A2240.0000
G1 X31.2500 Y0.0000 Z28.0000 A2250.0000
G1 X31.3889 Y-4.8621 Z27.5746 A2260.0000
G1 X31.5278 Y-9.5766 Z26.3114 A2270.0000
G1 X31.6667 Y-14.0000 Z24.2487 A2280.0000
G1 X31.8056 Y-17.9981 Z21.4492 A2290.0000
G1 X31.9444 Y-21.4492 Z17.9981 A2300.0000
G1 X32.0833 Y-24.2487 Z14.0000 A2310.0000
G1 X32.2222 Y-26.3114 Z9.5766 A2320.0000
G1 X32.3611 Y-27.5746 Z4.8621 A2330.0000
G1 X32.5000 Y-28.0000 Z0.0000 A2340.0000
G1 X32.6389 Y-27.5746 Z-4.8621 A2350.0000
G1 X32.7778 Y-26.3114 Z-9.5766 A2360.0000
G1 X32.9167 Y-24.2487 Z-14.0000 A2370.0000
G1 X33.0556 Y-21.4492 Z-17.9981 A2380.0000
G1 X33.1944 Y-17.9981 Z-21.4492 A2390.0000
G1 X33.3333 Y-14.0000 Z-24.2487 A2400.0000
G1 X33.4722 Y-9.5766 Z-26.3114 A2410.0000
G1 X33.6111 Y-4.8621 Z-27.5746 A2420.0000
G1 X33.7500 Y-0.0000 Z-28.0000 A2430.0000
G1 X33.8889 Y4.8621 Z-27.5746 A2440.0000
G1 X34.0278 Y9.5766 Z-26.3114 A2450.0000
G1 X34.1667 Y14.0000 Z-24.2487 A2460.0000
G1 X34.3056 Y17.9981 Z-21.4492 A2470.0000
G1 X34.4444 Y21.4492 Z-17.9981 A2480.0000
G1 X34.5833 Y24.2487 Z-14.0000 A2490.0000
G1 X34.7222 Y26.3114 Z-9.5766 A2500.0000
G1 X34.8611 Y27.5746 Z-4.8621 A2510.0000
G1 X35.0000 Y28.0000 Z-0.0000 A2520.0000
G1 X35.0000 Y28.0000 Z0.0000 A2520.0000
G1 X35.1389 Y27.5746 Z4.8621 A2530.0000
G1 X35.2778 Y26.3114 Z9.5766 A2540.0000
G1 X35.4167 Y24.2487 Z14.0000 A2550.0000
G1 X35.5556 Y21.4492 Z17.9981 A2560.0000
G1 X35.6944 Y17.9981 Z21.4492 A2570.0000
G1 X35.8333 Y14.0000 Z24.2487 A2580.0000
G1 X35.9722 Y9.5766 Z26.3114 A2590.0000
G1 X36.1111 Y4.8621 Z27.5746 A2600.0000
G1 X36.2500 Y0.0000 Z28.0000 A2610.0000
G1 X36.3889 Y-4.8621 Z27.5746 A2620.0000
G1 X36.5278 Y-9.5766 Z26.3114 A2630.0000
G1 X36.6667 Y-14.0000 Z24.2487 A2640.0000
G1 X36.8056 Y-17.9981 Z21.4492 A2650.0000
G1 X36.9444 Y-21.4492 Z17.9981 A2660.0000
G1 X37.0833 Y-24.2487 Z14.0000 A2670.0000
G1 X37.2222 Y-26.3114 Z9.5766 A2680.0000
G1 X37.3611 Y-27.5746 Z4.8621 A2690.0000
G1 X37.5000 Y-28.0000 Z0.0000 A2700.0000
G1 X37.6389 Y-27.5746 Z-4.8621 A2710.0000
G1 X37.7778 Y-26.3114 Z-9.5766 A2720.0000
G1 X37.9167 Y-24.2487 Z-14.0000 A2730.0000
G1 X38.0556 Y-21.4492 Z-17.9981 A2740.0000
G1 X38.1944 Y-17.9981 Z-21.4492 A2750.0000
G1 X38.3333 Y-14.0000 Z-24.2487 A2760.0000
G1 X38.4722 Y-9.5766 Z-26.3114 A2770.0000
G1 X38.6111 Y-4.8621 Z-27.5746 A2780.0000
G1 X38.7500 Y-0.0000 Z-28.0000 A2790.0000
G1 X38.8889 Y4.8621 Z-27.5746 A2800.0000
G1 X39.0278 Y9.5766 Z-26.3114 A2810.0000
G1 X39.1667 Y14.0000 Z-24.2487 A2820.0000
G1 X39.3056 Y17.9981 Z-21.4492 A2830.0000
G1 X39.4444 Y21.4492 Z-17.9981 A2840.0000
G1 X39.5833 Y24.2487 Z-14.0000 A2850.0000
G1 X39.7222 Y26.3114 Z-9.5766 A2860.0000
G1 X39.8611 Y27.5746 Z-4.8621 A2870.0000
G1 X40.0000 Y28.0000 Z-0.0000 A2880.0000
G1 X40.0000 Y28.0000 Z0.0000 A2880.0000
G1 X40.1389 Y27.5746 Z4.8621 A2890.0000
G1 X40.2778 Y26.3114 Z9.5766 A2900.0000
G1 X40.4167 Y24.2487 Z14.0000 A2910.0000
G1 X40.5556 Y21.4492 Z17.9981 A2920.0000
G1 X40.6944 Y17.9981 Z21.4492 A2930.0000
G1 X40.8333 Y14.0000 Z24.2487 A2940.0000
G1 X40.9722 Y9.5766 Z26.3114 A2950.0000
G1 X41.1111 Y4.8621 Z27.5746 A2960.0000
G1 X41.2500 Y0.0000 Z28.0000 A2970.0000
G1 X41.3889 Y-4.8621 Z27.5746 A2980.0000
G1 X41.5278 Y-9.5766 Z26.3114 A2990.0000
G1 X41.6667 Y-14.0000 Z24.2487 A3000.0000
G1 X41.8056 Y-17.9981 Z21.4492 A3010.0000
G1 X41.9444 Y-21.4492 Z17.9981 A3020.0000
G1 X42.0833 Y-24.2487 Z14.0000 A3030.0000
G1 X42.2222 Y-26.3114 Z9.5766 A3040.0000
G1 X42.3611 Y-27.5746 Z4.8621 A3050.0000
G1 X42.5000 Y-28.0000 Z0.0000 A3060.0000
G1 X42.6389 Y-27.5746 Z-4.8621 A3070.0000
G1 X42.7778 Y-26.3114 Z-9.5766 A3080.0000
G1 X42.9167 Y-24.2487 Z-14.0000 A3090.0000
G1 X43.0556 Y-21.4492 Z-17.9981 A3100.0000
G1 X43.1944 Y-17.9981 Z-21.4492 A3110.0000
G1 X43.3333 Y-14.0000 Z-24.2487 A3120.0000
G1 X43.4722 Y-9.5766 Z-26.3114 A3130.0000
G1 X43.6111 Y-4.8621 Z-27.5746 A3140.0000
G1 X43.7500 Y-0.0000 Z-28.0000 A3150.0000
G1 X43.8889 Y4.8621 Z-27.5746 A3160.0000
G1 X44.0278 Y9.5766 Z-26.3114 A3170.0000
G1 X44.1667 Y14.0000 Z-24.2487 A3180.0000
G1 X44.3056 Y17.9981 Z-21.4492 A3190.0000
G1 X44.4444 Y21.4492 Z-17.9981 A3200.0000
G1 X44.5833 Y24.2487 Z-14.0000 A3210.0000
G1 X44.7222 Y26.3114 Z-9.5766 A3220.0000
G1 X44.8611 Y27.5746 Z-4.8621 A3230.0000
G1 X45.0000 Y28.0000 Z-0.0000 A3240.0000
G1 X45.0000 Y28.0000 Z0.0000 A3240.0000
G1 X45.1389 Y27.5746 Z4.8621 A3250.0000
G1 X45.2778 Y26.3114 Z9.5766 A3260.0000
G1 X45.4167 Y24.2487 Z14.0000 A3270.0000
G1 X45.5556 Y21.4492 Z17.9981 A3280.0000
G1 X45.6944 Y17.9981 Z21.4492 A3290.0000
G1 X45.8333 Y14.0000 Z24.2487 A3300.0000
G1 X45.9722 Y9.5766 Z26.3114 A3310.0000
G1 X46.1111 Y4.8621 Z27.5746 A3320.0000
G1 X46.2500 Y0.0000 Z28.0000 A3330.0000
G1 X46.3889 Y-4.8621 Z27.5746 A3340.0000
G1 X46.5278 Y-9.5766 Z26.3114 A3350.0000
G1 X46.6667 Y-14.0000 Z24.2487 A3360.0000
G1 X46.8056 Y-17.9981 Z21.4492 A3370.0000
G1 X46.9444 Y-21.4492 Z17.9981 A3380.0000
G1 X47.0833 Y-24.2487 Z14.0000 A3390.0000
G1 X47.2222 Y-26.3114 Z9.5766 A3400.0000
G1 X47.3611 Y-27.5746 Z4.8621 A3410.0000
G1 X47.5000 Y-28.0000 Z0.0000 A3420.0000
G1 X47.6389 Y-27.5746 Z-4.8621 A3430.0000
G1 X47.7778 Y-26.3114 Z-9.5766 A3440.0000
G1 X47.9167 Y-24.2487 Z-14.0000 A3450.0000
G1 X48.0556 Y-21.4492 Z-17.9981 A3460.0000
G1 X48.1944 Y-17.9981 Z-21.4492 A3470.0000
G1 X48.3333 Y-14.0000 Z-24.2487 A3480.0000
G1 X48.4722 Y-9.5766 Z-26.3114 A3490.0000
G1 X48.6111 Y-4.8621 Z-27.5746 A3500.0000
G1 X48.7500 Y-0.0000 Z-28.0000 A3510.0000
G1 X48.8889 Y4.8621 Z-27.5746 A3520.0000
G1 X49.0278 Y9.5766 Z-26.3114 A3530.0000
G1 X49.1667 Y14.0000 Z-24.2487 A3540.0000
G1 X49.3056 Y17.9981 Z-21.4492 A3550.0000
G1 X49.4444 Y21.4492 Z-17.9981 A3560.0000
G1 X49.5833 Y24.2487 Z-14.0000 A3570.0000
G1 X49.7222 Y26.3114 Z-9.5766 A3580.0000
G1 X49.8611 Y27.5746 Z-4.8621 A3590.0000
G1 X50.0000 Y28.0000 Z-0.0000 A3600.0000
G1 X50.0000 Y28.0000 Z0.0000 A3600.0000
G1 X50.1389 Y27.5746 Z4.8621 A3610.0000
G1 X50.2778 Y26.3114 Z9.5766 A3620.0000
G1 X50.4167 Y24.2487 Z14.0000 A3630.0000
G1 X50.5556 Y21.4492 Z17.9981 A3640.0000
G1 X50.6944 Y17.9981 Z21.4492 A3650.0000
G1 X50.8333 Y14.0000 Z24.2487 A3660.0000
G1 X50.9722 Y9.5766 Z26.3114 A3670.0000
G1 X51.1111 Y4.8621 Z27.5746 A3680.0000
G1 X51.2500 Y0.0000 Z28.0000 A3690.0000
G1 X51.3889 Y-4.8621 Z27.5746 A3700.0000
G1 X51.5278 Y-9.5766 Z26.3114 A3710.0000
G1 X51.6667 Y-14.0000 Z24.2487 A3720.0000
G1 X51.8056 Y-17.9981 Z21.4492 A3730.0000
G1 X51.9444 Y-21.4492 Z17.9981 A3740.0000
G1 X52.0833 Y-24.2487 Z14.0000 A3750.0000
G1 X52.2222 Y-26.3114 Z9.5766 A3760.0000
G1 X52.3611 Y-27.5746 Z4.8621 A3770.0000
G1 X52.5000 Y-28.0000 Z0.0000 A3780.0000
G1 X52.6389 Y-27.5746 Z-4.8621 A3790.0000
G1 X52.7778 Y-26.3114 Z-9.5766 A3800.0000
G1 X52.9167 Y-24.2487 Z-14.0000 A3810.0000
G1 X53.0556 Y-21.4492 Z-17.9981 A3820.0000
G1 X53.1944 Y-17.9981 Z-21.4492 A3830.0000
G1 X53.3333 Y-14.0000 Z-24.2487 A3840.0000
G1 X53.4722 Y-9.5766 Z-26.3114 A3850.0000
G1 X53.6111 Y-4.8621 Z-27.5746 A3860.0000
G1 X53.7500 Y-0.0000 Z-28.0000 A3870.0000
G1 X53.8889 Y4.8621 Z-27.5746 A3880.0000
G1 X54.0278 Y9.5766 Z-26.3114 A3890.0000
G1 X54.1667 Y14.0000 Z-24.2487 A3900.0000
G1 X54.3056 Y17.9981 Z-21.4492 A3910.0000
G1 X54.4444 Y21.4492 Z-17.9981 A3920.0000
G1 X54.5833 Y24.2487 Z-14.0000 A3930.0000
G1 X54.7222 Y26.3114 Z-9.5766 A3940.0000
G1 X54.8611 Y27.5746 Z-4.8621 A3950.0000
G1 X55.0000 Y28.0000 Z-0.0000 A3960.0000
G1 X55.0000 Y28.0000 Z0.0000 A3960.0000
G1 X55.1389 Y27.5746 Z4.8621 A3970.0000
G1 X55.2778 Y26.3114 Z9.5766 A3980.0000
G1 X55.4167 Y24.2487 Z14.0000 A3990.0000
G1 X55.5556 Y21.4492 Z17.9981 A4000.0000
G1 X55.6944 Y17.9981 Z21.4492 A4010.0000
G1 X55.8333 Y14.0000 Z24.2487 A4020.0000
G1 X55.9722 Y9.5766 Z26.3114 A4030.0000
G1 X56.1111 Y4.8621 Z27.5746 A4040.0000
G1 X56.2500 Y0.0000 Z28.0000 A4050.0000
G1 X56.3889 Y-4.8621 Z27.5746 A4060.0000
G1 X56.5278 Y-9.5766 Z26.3114 A4070.0000
G1 X56.6667 Y-14.0000 Z24.2487 A4080.0000
G1 X56.8056 Y-17.9981 Z21.4492 A4090.0000
G1 X56.9444 Y-21.4492 Z17.9981 A4100.0000
G1 X57.0833 Y-24.2487 Z14.0000 A4110.0000
G1 X57.2222 Y-26.3114 Z9.5766 A4120.0000
G1 X57.3611 Y-27.5746 Z4.8621 A4130.0000
G1 X57.5000 Y-28.0000 Z0.0000 A4140.0000
G1 X57.6389 Y-27.5746 Z-4.8621 A4150.0000
G1 X57.7778 Y-26.3114 Z-9.5766 A4160.0000
G1 X57.9167 Y-24.2487 Z-14.0000 A4170.0000
G1 X58.0556 Y-21.4492 Z-17.9981 A4180.0000
G1 X58.1944 Y-17.9981 Z-21.4492 A4190.0000
G1 X58.3333 Y-14.0000 Z-24.2487 A4200.0000
G1 X58.4722 Y-9.5766 Z-26.3114 A4210.0000
G1 X58.6111 Y-4.8621 Z-27.5746 A4220.0000
G1 X58.7500 Y-0.0000 Z-28.0000 A4230.0000
G1 X58.8889 Y4.8621 Z-27.5746 A4240.0000
G1 X59.0278 Y9.5766 Z-26.3114 A4250.0000
G1 X59.1667 Y14.0000 Z-24.2487 A4260.0000
G1 X59.3056 Y17.9981 Z-21.4492 A4270.0000
G1 X59.4444 Y21.4492 Z-17.9981 A4280.0000
G1 X59.5833 Y24.2487 Z-14.0000 A4290.0000
G1 X59.7222 Y26.3114 Z-9.5766 A4300.0000
G1 X59.8611 Y27.5746 Z-4.8621 A4310.0000
G1 X60.0000 Y28.0000 Z-0.0000 A4320.0000
G1 X60.0000 Y28.0000 Z0.0000 A4320.0000
G1 X60.1389 Y27.5746 Z4.8621 A4330.0000
G1 X60.2778 Y26.3114 Z9.5766 A4340.0000
G1 X60.4167 Y24.2487 Z14.0000 A4350.0000
G1 X60.5556 Y21.4492 Z17.9981 A4360.0000
G1 X60.6944 Y17.9981 Z21.4492 A4370.0000
G1 X60.8333 Y14.0000 Z24.2487 A4380.0000
G1 X60.9722 Y9.5766 Z26.3114 A4390.0000
G1 X61.1111 Y4.8621 Z27.5746 A4400.0000
G1 X61.2500 Y0.0000 Z28.0000 A4410.0000
G1 X61.3889 Y-4.8621 Z27.5746 A4420.0000
G1 X61.5278 Y-9.5766 Z26.3114 A4430.0000
G1 X61.6667 Y-14.0000 Z24.2487 A4440.0000
G1 X61.8056 Y-17.9981 Z21.4492 A4450.0000
G1 X61.9444 Y-21.4492 Z17.9981 A4460.0000
G1 X62.0833 Y-24.2487 Z14.0000 A4470.0000
G1 X62.2222 Y-26.3114 Z9.5766 A4480.0000
G1 X62.3611 Y-27.5746 Z4.8621 A4490.0000
G1 X62.5000 Y-28.0000 Z0.0000 A4500.0000
G1 X62.6389 Y-27.5746 Z-4.8621 A4510.0000
G1 X62.7778 Y-26.3114 Z-9.5766 A4520.0000
G1 X62.9167 Y-24.2487 Z-14.0000 A4530.0000
G1 X63.0556 Y-21.4492 Z-17.9981 A4540.0000
G1 X63.1944 Y-17.9981 Z-21.4492 A4550.0000
G1 X63.3333 Y-14.0000 Z-24.2487 A4560.0000
G1 X63.4722 Y-9.5766 Z-26.3114 A4570.0000
G1 X63.6111 Y-4.8621 Z-27.5746 A4580.0000
G1 X63.7500 Y-0.0000 Z-28.0000 A4590.0000
G1 X63.8889 Y4.8621 Z-27.5746 A4600.0000
G1 X64.0278 Y9.5766 Z-26.3114 A4610.0000
G1 X64.1667 Y14.0000 Z-24.2487 A4620.0000
G1 X64.3056 Y17.9981 Z-21.4492 A4630.0000
G1 X64.4444 Y21.4492 Z-17.9981 A4640.0000
G1 X64.5833 Y24.2487 Z-14.0000 A4650.0000
G1 X64.7222 Y26.3114 Z-9.5766 A4660.0000
G1 X64.8611 Y27.5746 Z-4.8621 A4670.0000
G1 X65.0000 Y28.0000 Z-0.0000 A4680.0000
G1 X65.0000 Y28.0000 Z0.0000 A4680.0000
G1 X65.1389 Y27.5746 Z4.8621 A4690.0000
G1 X65.2778 Y26.3114 Z9.5766 A4700.0000
G1 X65.4167 Y24.2487 Z14.0000 A4710.0000
G1 X65.5556 Y21.4492 Z17.9981 A4720.0000
G1 X65.6944 Y17.9981 Z21.4492 A4730.0000
G1 X65.8333 Y14.0000 Z24.2487 A4740.0000
G1 X65.9722 Y9.5766 Z26.3114 A4750.0000
G1 X66.1111 Y4.8621 Z27.5746 A4760.0000
G1 X66.2500 Y0.0000 Z28.0000 A4770.0000
G1 X66.3889 Y-4.8621 Z27.5746 A4780.0000
G1 X66.5278 Y-9.5766 Z26.3114 A4790.0000
G1 X66.6667 Y-14.0000 Z24.2487 A4800.0000
G1 X66.8056 Y-17.9981 Z21.4492 A4810.0000
G1 X66.9444 Y-21.4492 Z17.9981 A4820.0000
G1 X67.0833 Y-24.2487 Z14.0000 A4830.0000
G1 X67.2222 Y-26.3114 Z9.5766 A4840.0000
G1 X67.3611 Y-27.5746 Z4.8621 A4850.0000
G1 X67.5000 Y-28.0000 Z0.0000 A4860.0000
G1 X67.6389 Y-27.5746 Z-4.8621 A4870.0000
G1 X67.7778 Y-26.3114 Z-9.5766 A4880.0000
G1 X67.9167 Y-24.2487 Z-14.0000 A4890.0000
G1 X68.0556 Y-21.4492 Z-17.9981 A4900.0000
G1 X68.1944 Y-17.9981 Z-21.4492 A4910.0000
G1 X68.3333 Y-14.0000 Z-24.2487 A4920.0000
G1 X68.4722 Y-9.5766 Z-26.3114 A4930.0000
G1 X68.6111 Y-4.8621 Z-27.5746 A4940.0000
G1 X68.7500 Y-0.0000 Z-28.0000 A4950.0000
G1 X68.8889 Y4.8621 Z-27.5746 A4960.0000
G1 X69.0278 Y9.5766 Z-26.3114 A4970.0000
G1 X69.1667 Y14.0000 Z-24.2487 A4980.0000
G1 X69.3056 Y17.9981 Z-21.4492 A4990.0000
G1 X69.4444 Y21.4492 Z-17.9981 A5000.0000
G1 X69.5833 Y24.2487 Z-14.0000 A5010.0000
G1 X69.7222 Y26.3114 Z-9.5766 A5020.0000
G1 X69.8611 Y27.5746 Z-4.8621 A5030.0000
G1 X70.0000 Y28.0000 Z-0.0000 A5040.0000
G1 X70.0000 Y28.0000 Z0.0000 A5040.0000
G1 X70.1389 Y27.5746 Z4.8621 A5050.0000
G1 X70.2778 Y26.3114 Z9.5766 A5060.0000
G1 X70.4167 Y24.2487 Z14.0000 A5070.0000
G1 X70.5556 Y21.4492 Z17.9981 A5080.0000
G1 X70.6944 Y17.9981 Z21.4492 A5090.0000
G1 X70.8333 Y14.0000 Z24.2487 A5100.0000
G1 X70.9722 Y9.5766 Z26.3114 A5110.0000
G1 X71.1111 Y4.8621 Z27.5746 A5120.0000
G1 X71.2500 Y0.0000 Z28.0000 A5130.0000
G1 X71.3889 Y-4.8621 Z27.5746 A5140.0000
G1 X71.5278 Y-9.5766 Z26.3114 A5150.0000
G1 X71.6667 Y-14.0000 Z24.2487 A5160.0000
G1 X71.8056 Y-17.9981 Z21.4492 A5170.0000
G1 X71.9444 Y-21.4492 Z17.9981 A5180.0000
G1 X72.0833 Y-24.2487 Z14.0000 A5190.0000
G1 X72.2222 Y-26.3114 Z9.5766 A5200.0000
G1 X72.3611 Y-27.5746 Z4.8621 A5210.0000
G1 X72.5000 Y-28.0000 Z0.0000 A5220.0000
G1 X72.6389 Y-27.5746 Z-4.8621 A5230.0000
G1 X72.7778 Y-26.3114 Z-9.5766 A5240.0000
G1 X72.9167 Y-24.2487 Z-14.0000 A5250.0000
G1 X73.0556 Y-21.4492 Z-17.9981 A5260.0000
G1 X73.1944 Y-17.9981 Z-21.4492 A5270.0000
G1 X73.3333 Y-14.0000 Z-24.2487 A5280.0000
G1 X73.4722 Y-9.5766 Z-26.3114 A5290.0000
G1 X73.6111 Y-4.8621 Z-27.5746 A5300.0000
G1 X73.7500 Y-0.0000 Z-28.0000 A5310.0000
G1 X73.8889 Y4.8621 Z-27.5746 A5320.0000
G1 X74.0278 Y9.5766 Z-26.3114 A5330.0000
G1 X74.1667 Y14.0000 Z-24.2487 A5340.0000
G1 X74.3056 Y17.9981 Z-21.4492 A5350.0000
G1 X74.4444 Y21.4492 Z-17.9981 A5360.0000
G1 X74.5833 Y24.2487 Z-14.0000 A5370.0000
G1 X74.7222 Y26.3114 Z-9.5766 A5380.0000
G1 X74.8611 Y27.5746 Z-4.8621 A5390.0000
G1 X75.0000 Y28.0000 Z-0.0000 A5400.0000
G1 X75.0000 Y28.0000 Z0.0000 A5400.0000
G1 X75.1389 Y27.5746 Z4.8621 A5410.0000
G1 X75.2778 Y26.3114 Z9.5766 A5420.0000
G1 X75.4167 Y24.2487 Z14.0000 A5430.0000
G1 X75.5556 Y21.4492 Z17.9981 A5440.0000
G1 X75.6944 Y17.9981 Z21.4492 A5450.0000
G1 X75.8333 Y14.0000 Z24.2487 A5460.0000
G1 X75.9722 Y9.5766 Z26.3114 A5470.0000
G1 X76.1111 Y4.8621 Z27.5746 A5480.0000
G1 X76.2500 Y0.0000 Z28.0000 A5490.0000
G1 X76.3889 Y-4.8621 Z27.5746 A5500.0000
G1 X76.5278 Y-9.5766 Z26.3114 A5510.0000
G1 X76.6667 Y-14.0000 Z24.2487 A5520.0000
G1 X76.8056 Y-17.9981 Z21.4492 A5530.0000
G1 X76.9444 Y-21.4492 Z17.9981 A5540.0000
G1 X77.0833 Y-24.2487 Z14.0000 A5550.0000
G1 X77.2222 Y-26.3114 Z9.5766 A5560.0000
G1 X77.3611 Y-27.5746 Z4.8621 A5570.0000
G1 X77.5000 Y-28.0000 Z0.0000 A5580.0000
G1 X77.6389 Y-27.5746 Z-4.8621 A5590.0000
G1 X77.7778 Y-26.3114 Z-9.5766 A5600.0000
G1 X77.9167 Y-24.2487 Z-14.0000 A5610.0000
G1 X78.0556 Y-21.4492 Z-17.9981 A5620.0000
G1 X78.1944 Y-17.9981 Z-21.4492 A5630.0000
G1 X78.3333 Y-14.0000 Z-24.2487 A5640.0000
G1 X78.4722 Y-9.5766 Z-26.3114 A5650.0000
G1 X78.6111 Y-4.8621 Z-27.5746 A5660.0000
G1 X78.7500 Y-0.0000 Z-28.0000 A5670.0000
G1 X78.8889 Y4.8621 Z-27.5746 A5680.0000
G1 X79.0278 Y9.5766 Z-26.3114 A5690.0000
G1 X79.1667 Y14.0000 Z-24.2487 A5700.0000
G1 X79.3056 Y17.9981 Z-21.4492 A5710.0000
G1 X79.4444 Y21.4492 Z-17.9981 A5720.0000
G1 X79.5833 Y24.2487 Z-14.0000 A5730.0000
G1 X79.7222 Y26.3114 Z-9.5766 A5740.0000
G1 X79.8611 Y27.5746 Z-4.8621 A5750.0000
G1 X80.0000 Y28.0000 Z-0.0000 A5760.0000
G1 X80.0000 Y28.0000 Z0.0000 A5760.0000
G1 X80.1389 Y27.5746 Z4.8621 A5770.0000
G1 X80.2778 Y26.3114 Z9.5766 A5780.0000
G1 X80.4167 Y24.2487 Z14.0000 A5790.0000
G1 X80.5556 Y21.4492 Z17.9981 A5800.0000
G1 X80.6944 Y17.9981 Z21.4492 A5810.0000
G1 X80.8333 Y14.0000 Z24.2487 A5820.0000
G1 X80.9722 Y9.5766 Z26.3114 A5830.0000
G1 X81.1111 Y4.8621 Z27.5746 A5840.0000
G1 X81.2500 Y0.0000 Z28.0000 A5850.0000
G1 X81.3889 Y-4.8621 Z27.5746 A5860.0000
G1 X81.5278 Y-9.5766 Z26.3114 A5870.0000
G1 X81.6667 Y-14.0000 Z24.2487 A5880.0000
G1 X81.8056 Y-17.9981 Z21.4492 A5890.0000
G1 X81.9444 Y-21.4492 Z17.9981 A5900.0000
G1 X82.0833 Y-24.2487 Z14.0000 A5910.0000
G1 X82.2222 Y-26.3114 Z9.5766 A5920.0000
G1 X82.3611 Y-27.5746 Z4.8621 A5930.0000
G1 X82.5000 Y-28.0000 Z0.0000 A5940.0000
G1 X82.6389 Y-27.5746 Z-4.8621 A5950.0000
G1 X82.7778 Y-26.3114 Z-9.5766 A5960.0000
G1 X82.9167 Y-24.2487 Z-14.0000 A5970.0000
G1 X83.0556 Y-21.4492 Z-17.9981 A5980.0000
G1 X83.1944 Y-17.9981 Z-21.4492 A5990.0000
G1 X83.3333 Y-14.0000 Z-24.2487 A6000.0000
G1 X83.4722 Y-9.5766 Z-26.3114 A6010.0000
G1 X83.6111 Y-4.8621 Z-27.5746 A6020.0000
G1 X83.7500 Y-0.0000 Z-28.0000 A6030.0000
G1 X83.8889 Y4.8621 Z-27.5746 A6040.0000
G1 X84.0278 Y9.5766 Z-26.3114 A6050.0000
G1 X84.1667 Y14.0000 Z-24.2487 A6060.0000
G1 X84.3056 Y17.9981 Z-21.4492 A6070.0000
G1 X84.4444 Y21.4492 Z-17.9981 A6080.0000
G1 X84.5833 Y24.2487 Z-14.0000 A6090.0000
G1 X84.7222 Y26.3114 Z-9.5766 A6100.0000
G1 X84.8611 Y27.5746 Z-4.8621 A6110.0000
G1 X85.0000 Y28.0000 Z-0.0000 A6120.0000
G1 X85.0000 Y28.0000 Z0.0000 A6120.0000
G1 X85.1389 Y27.5746 Z4.8621 A6130.0000
G1 X85.2778 Y26.3114 Z9.5766 A6140.0000
G1 X85.4167 Y24.2487 Z14.0000 A6150.0000
G1 X85.5556 Y21.4492 Z17.9981 A6160.0000
G1 X85.6944 Y17.9981 Z21.4492 A6170.0000
G1 X85.8333 Y14.0000 Z24.2487 A6180.0000
G1 X85.9722 Y9.5766 Z26.3114 A6190.0000
G1 X86.1111 Y4.8621 Z27.5746 A6200.0000
G1 X86.2500 Y0.0000 Z28.0000 A6210.0000
G1 X86.3889 Y-4.8621 Z27.5746 A6220.0000
G1 X86.5278 Y-9.5766 Z26.3114 A6230.0000
G1 X86.6667 Y-14.0000 Z24.2487 A6240.0000
G1 X86.8056 Y-17.9981 Z21.4492 A6250.0000
G1 X86.9444 Y-21.4492 Z17.9981 A6260.0000
G1 X87.0833 Y-24.2487 Z14.0000 A6270.0000
G1 X87.2222 Y-26.3114 Z9.5766 A6280.0000
G1 X87.3611 Y-27.5746 Z4.8621 A6290.0000
G1 X87.5000 Y-28.0000 Z0.0000 A6300.0000
G1 X87.6389 Y-27.5746 Z-4.8621 A6310.0000
G1 X87.7778 Y-26.3114 Z-9.5766 A6320.0000
G1 X87.9167 Y-24.2487 Z-14.0000 A6330.0000
G1 X88.0556 Y-21.4492 Z-17.9981 A6340.0000
G1 X88.1944 Y-17.9981 Z-21.4492 A6350.0000
G1 X88.3333 Y-14.0000 Z-24.2487 A6360.0000
G1 X88.4722 Y-9.5766 Z-26.3114 A6370.0000
G1 X88.6111 Y-4.8621 Z-27.5746 A6380.0000
G1 X88.7500 Y-0.0000 Z-28.0000 A6390.0000
G1 X88.8889 Y4.8621 Z-27.5746 A6400.0000
G1 X89.0278 Y9.5766 Z-26.3114 A6410.0000
G1 X89.1667 Y14.0000 Z-24.2487 A6420.0000
G1 X89.3056 Y17.9981 Z-21.4492 A6430.0000
G1 X89.4444 Y21.4492 Z-17.9981 A6440.0000
G1 X89.5833 Y24.2487 Z-14.0000 A6450.0000
G1 X89.7222 Y26.3114 Z-9.5766 A6460.0000
G1 X89.8611 Y27.5746 Z-4.8621 A6470.0000
G1 X90.0000 Y28.0000 Z-0.0000 A6480.0000
G1 X90.0000 Y28.0000 Z0.0000 A6480.0000
G1 X90.1389 Y27.5746 Z4.8621 A6490.0000
G1 X90.2778 Y26.3114 Z9.5766 A6500.0000
G1 X90.4167 Y24.2487 Z14.0000 A6510.0000
G1 X90.5556 Y21.4492 Z17.9981 A6520.0000
G1 X90.6944 Y17.9981 Z21.4492 A6530.0000
G1 X90.8333 Y14.0000 Z24.2487 A6540.0000
G1 X90.9722 Y9.5766 Z26.3114 A6550.0000
G1 X91.1111 Y4.8621 Z27.5746 A6560.0000
G1 X91.2500 Y0.0000 Z28.0000 A6570.0000
G1 X91.3889 Y-4.8621 Z27.5746 A6580.0000
G1 X91.5278 Y-9.5766 Z26.3114 A6590.0000
G1 X91.6667 Y-14.0000 Z24.2487 A6600.0000
G1 X91.8056 Y-17.9981 Z21.4492 A6610.0000
G1 X91.9444 Y-21.4492 Z17.9981 A6620.0000
G1 X92.0833 Y-24.2487 Z14.0000 A6630.0000
G1 X92.2222 Y-26.3114 Z9.5766 A6640.0000
G1 X92.3611 Y-27.5746 Z4.8621 A6650.0000
G1 X92.5000 Y-28.0000 Z0.0000 A6660.0000
G1 X92.6389 Y-27.5746 Z-4.8621 A6670.0000
G1 X92.7778 Y-26.3114 Z-9.5766 A6680.0000
G1 X92.9167 Y-24.2487 Z-14.0000 A6690.0000
G1 X93.0556 Y-21.4492 Z-17.9981 A6700.0000
G1 X93.1944 Y-17.9981 Z-21.4492 A6710.0000
G1 X93.3333 Y-14.0000 Z-24.2487 A6720.0000
G1 X93.4722 Y-9.5766 Z-26.3114 A6730.0000
G1 X93.6111 Y-4.8621 Z-27.5746 A6740.0000
G1 X93.7500 Y-0.0000 Z-28.0000 A6750.0000
G1 X93.8889 Y4.8621 Z-27.5746 A6760.0000
G1 X94.0278 Y9.5766 Z-26.3114 A6770.0000
G1 X94.1667 Y14.0000 Z-24.2487 A6780.0000
G1 X94.3056 Y17.9981 Z-21.4492 A6790.0000
G1 X94.4444 Y21.4492 Z-17.9981 A6800.0000
G1 X94.5833 Y24.2487 Z-14.0000 A6810.0000
G1 X94.7222 Y26.3114 Z-9.5766 A6820.0000
G1 X94.8611 Y27.5746 Z-4.8621 A6830.0000
G1 X95.0000 Y28.0000 Z-0.0000 A6840.0000
G1 X95.0000 Y28.0000 Z0.0000 A6840.0000
G1 X95.1389 Y27.5746 Z4.8621 A6850.0000
G1 X95.2778 Y26.3114 Z9.5766 A6860.0000
G1 X95.4167 Y24.2487 Z14.0000 A6870.0000
G1 X95.5556 Y21.4492 Z17.9981 A6880.0000
G1 X95.6944 Y17.9981 Z21.4492 A6890.0000
G1 X95.8333 Y14.0000 Z24.2487 A6900.0000
G1 X95.9722 Y9.5766 Z26.3114 A6910.0000
G1 X96.1111 Y4.8621 Z27.5746 A6920.0000
G1 X96.2500 Y0.0000 Z28.0000 A6930.0000
G1 X96.3889 Y-4.8621 Z27.5746 A6940.0000
G1 X96.5278 Y-9.5766 Z26.3114 A6950.0000
G1 X96.6667 Y-14.0000 Z24.2487 A6960.0000
G1 X96.8056 Y-17.9981 Z21.4492 A6970.0000
G1 X96.9444 Y-21.4492 Z17.9981 A6980.0000
G1 X97.0833 Y-24.2487 Z14.0000 A6990.0000
G1 X97.2222 Y-26.3114 Z9.5766 A7000.0000
G1 X97.3611 Y-27.5746 Z4.8621 A7010.0000
G1 X97.5000 Y-28.0000 Z0.0000 A7020.0000
G1 X97.6389 Y-27.5746 Z-4.8621 A7030.0000
G1 X97.7778 Y-26.3114 Z-9.5766 A7040.0000
G1 X97.9167 Y-24.2487 Z-14.0000 A7050.0000
G1 X98.0556 Y-21.4492 Z-17.9981 A7060.0000
G1 X98.1944 Y-17.9981 Z-21.4492 A7070.0000
G1 X98.3333 Y-14.0000 Z-24.2487 A7080.0000
G1 X98.4722 Y-9.5766 Z-26.3114 A7090.0000
G1 X98.6111 Y-4.8621 Z-27.5746 A7100.0000
G1 X98.7500 Y-0.0000 Z-28.0000 A7110.0000
G1 X98.8889 Y4.8621 Z-27.5746 A7120.0000
G1 X99.0278 Y9.5766 Z-26.3114 A7130.0000
G1 X99.1667 Y14.0000 Z-24.2487 A7140.0000
G1 X99.3056 Y17.9981 Z-21.4492 A7150.0000
G1 X99.4444 Y21.4492 Z-17.9981 A7160.0000
G1 X99.5833 Y24.2487 Z-14.0000 A7170.0000
G1 X99.7222 Y26.3114 Z-9.5766 A7180.0000
G1 X99.8611 Y27.5746 Z-4.8621 A7190.0000
G1 X100.0000 Y28.0000 Z-0.0000 A7200.0000
G1 X100.0000 Y28.0000 Z0.0000 A7200.0000
G1 X100.0000 Y27.5746 Z4.8621 A7210.0000
G1 X100.0000 Y26.3114 Z9.5766 A7220.0000
G1 X100.0000 Y24.2487 Z14.0000 A7230.0000
G1 X100.0000 Y21.4492 Z17.9981 A7240.0000
G1 X100.0000 Y17.9981 Z21.4492 A7250.0000
G1 X100.0000 Y14.0000 Z24.2487 A7260.0000
G1 X100.0000 Y9.5766 Z26.3114 A7270.0000
G1 X100.0000 Y4.8621 Z27.5746 A7280.0000
G1 X100.0000 Y0.0000 Z28.0000 A7290.0000
G1 X100.0000 Y-4.8621 Z27.5746 A7300.0000
G1 X100.0000 Y-9.5766 Z26.3114 A7310.0000
G1 X100.0000 Y-14.0000 Z24.2487 A7320.0000
G1 X100.0000 Y-17.9981 Z21.4492 A7330.0000
G1 X100.0000 Y-21.4492 Z17.9981 A7340.0000
G1 X100.0000 Y-24.2487 Z14.0000 A7350.0000
G1 X100.0000 Y-26.3114 Z9.5766 A7360.0000
G1 X100.0000 Y-27.5746 Z4.8621 A7370.0000
G1 X100.0000 Y-28.0000 Z0.0000 A7380.0000
G1 X100.0000 Y-27.5746 Z-4.8621 A7390.0000
G1 X100.0000 Y-26.3114 Z-9.5766 A7400.0000
G1 X100.0000 Y-24.2487 Z-14.0000 A7410.0000
G1 X100.0000 Y-21.4492 Z-17.9981 A7420.0000
G1 X100.0000 Y-17.9981 Z-21.4492 A7430.0000
G1 X100.0000 Y-14.0000 Z-24.2487 A7440.0000
G1 X100.0000 Y-9.5766 Z-26.3114 A7450.0000
G1 X100.0000 Y-4.8621 Z-27.5746 A7460.0000
G1 X100.0000 Y-0.0000 Z-28.0000 A7470.0000
G1 X100.0000 Y4.8621 Z-27.5746 A7480.0000
G1 X100.0000 Y9.5766 Z-26.3114 A7490.0000
G1 X100.0000 Y14.0000 Z-24.2487 A7500.0000
G1 X100.0000 Y17.9981 Z-21.4492 A7510.0000
G1 X100.0000 Y21.4492 Z-17.9981 A7520.0000
G1 X100.0000 Y24.2487 Z-14.0000 A7530.0000
G1 X100.0000 Y26.3114 Z-9.5766 A7540.0000
G1 X100.0000 Y27.5746 Z-4.8621 A7550.0000
G1 X100.0000 Y28.0000 Z-0.0000 A7560.0000

; End code
G0 Z50.0000 ; Retract
M5 ; Spindle off
M2 ; End program
