(Generated by fabex_workshop.toolkit)
(Material: wax)
G90
G21
G17
M3 S12000
G0 Z5.000
G0 X9.350 Y0.000
G1 X13.350 Y0.000 Z-0.800 F180.000
G1 X13.350 Y0.000 F700.000
G1 X13.321 Y0.873 F700.000
G1 X13.236 Y1.743 F700.000
G1 X13.093 Y2.604 F700.000
G1 X12.895 Y3.455 F700.000
G1 X12.642 Y4.291 F700.000
G1 X12.334 Y5.109 F700.000
G1 X11.973 Y5.905 F700.000
G1 X11.561 Y6.675 F700.000
G1 X11.100 Y7.417 F700.000
G1 X10.591 Y8.127 F700.000
G1 X10.037 Y8.802 F700.000
G1 X9.440 Y9.440 F700.000
G1 X8.802 Y10.037 F700.000
G1 X8.127 Y10.591 F700.000
G1 X7.417 Y11.100 F700.000
G1 X6.675 Y11.561 F700.000
G1 X5.905 Y11.973 F700.000
G1 X5.109 Y12.334 F700.000
G1 X4.291 Y12.642 F700.000
G1 X3.455 Y12.895 F700.000
G1 X2.604 Y13.093 F700.000
G1 X1.743 Y13.236 F700.000
G1 X0.873 Y13.321 F700.000
G1 X0.000 Y13.350 F700.000
G1 X-0.873 Y13.321 F700.000
G1 X-1.743 Y13.236 F700.000
G1 X-2.604 Y13.093 F700.000
G1 X-3.455 Y12.895 F700.000
G1 X-4.291 Y12.642 F700.000
G1 X-5.109 Y12.334 F700.000
G1 X-5.905 Y11.973 F700.000
G1 X-6.675 Y11.561 F700.000
G1 X-7.417 Y11.100 F700.000
G1 X-8.127 Y10.591 F700.000
G1 X-8.802 Y10.037 F700.000
G1 X-9.440 Y9.440 F700.000
G1 X-10.037 Y8.802 F700.000
G1 X-10.591 Y8.127 F700.000
G1 X-11.100 Y7.417 F700.000
G1 X-11.561 Y6.675 F700.000
G1 X-11.973 Y5.905 F700.000
G1 X-12.334 Y5.109 F700.000
G1 X-12.642 Y4.291 F700.000
G1 X-12.895 Y3.455 F700.000
G1 X-13.093 Y2.604 F700.000
G1 X-13.236 Y1.743 F700.000
G1 X-13.321 Y0.873 F700.000
G1 X-13.350 Y0.000 F700.000
G1 X-13.321 Y-0.873 F700.000
G1 X-13.236 Y-1.743 F700.000
G1 X-13.093 Y-2.604 F700.000
G1 X-12.895 Y-3.455 F700.000
G1 X-12.642 Y-4.291 F700.000
G1 X-12.334 Y-5.109 F700.000
G1 X-11.973 Y-5.905 F700.000
G1 X-11.561 Y-6.675 F700.000
G1 X-11.100 Y-7.417 F700.000
G1 X-10.591 Y-8.127 F700.000
G1 X-10.037 Y-8.802 F700.000
G1 X-9.440 Y-9.440 F700.000
G1 X-8.802 Y-10.037 F700.000
G1 X-8.127 Y-10.591 F700.000
G1 X-7.417 Y-11.100 F700.000
G1 X-6.675 Y-11.561 F700.000
G1 X-5.905 Y-11.973 F700.000
G1 X-5.109 Y-12.334 F700.000
G1 X-4.291 Y-12.642 F700.000
G1 X-3.455 Y-12.895 F700.000
G1 X-2.604 Y-13.093 F700.000
G1 X-1.743 Y-13.236 F700.000
G1 X-0.873 Y-13.321 F700.000
G1 X-0.000 Y-13.350 F700.000
G1 X0.873 Y-13.321 F700.000
G1 X1.743 Y-13.236 F700.000
G1 X2.604 Y-13.093 F700.000
G1 X3.455 Y-12.895 F700.000
G1 X4.291 Y-12.642 F700.000
G1 X5.109 Y-12.334 F700.000
G1 X5.905 Y-11.973 F700.000
G1 X6.675 Y-11.561 F700.000
G1 X7.417 Y-11.100 F700.000
G1 X8.127 Y-10.591 F700.000
G1 X8.802 Y-10.037 F700.000
G1 X9.440 Y-9.440 F700.000
G1 X10.037 Y-8.802 F700.000
G1 X10.591 Y-8.127 F700.000
G1 X11.100 Y-7.417 F700.000
G1 X11.561 Y-6.675 F700.000
G1 X11.973 Y-5.905 F700.000
G1 X12.334 Y-5.109 F700.000
G1 X12.642 Y-4.291 F700.000
G1 X12.895 Y-3.455 F700.000
G1 X13.093 Y-2.604 F700.000
G1 X13.236 Y-1.743 F700.000
G1 X13.321 Y-0.873 F700.000
G1 X13.350 Y-0.000 F700.000
G1 X12.350 Y0.000 F700.000
G1 X12.324 Y0.808 F700.000
G1 X12.244 Y1.612 F700.000
G1 X12.113 Y2.409 F700.000
G1 X11.929 Y3.196 F700.000
G1 X11.695 Y3.970 F700.000
G1 X11.410 Y4.726 F700.000
G1 X11.076 Y5.462 F700.000
G1 X10.695 Y6.175 F700.000
G1 X10.269 Y6.861 F700.000
G1 X9.798 Y7.518 F700.000
G1 X9.285 Y8.143 F700.000
G1 X8.733 Y8.733 F700.000
G1 X8.143 Y9.285 F700.000
G1 X7.518 Y9.798 F700.000
G1 X6.861 Y10.269 F700.000
G1 X6.175 Y10.695 F700.000
G1 X5.462 Y11.076 F700.000
G1 X4.726 Y11.410 F700.000
G1 X3.970 Y11.695 F700.000
G1 X3.196 Y11.929 F700.000
G1 X2.409 Y12.113 F700.000
G1 X1.612 Y12.244 F700.000
G1 X0.808 Y12.324 F700.000
G1 X0.000 Y12.350 F700.000
G1 X-0.808 Y12.324 F700.000
G1 X-1.612 Y12.244 F700.000
G1 X-2.409 Y12.113 F700.000
G1 X-3.196 Y11.929 F700.000
G1 X-3.970 Y11.695 F700.000
G1 X-4.726 Y11.410 F700.000
G1 X-5.462 Y11.076 F700.000
G1 X-6.175 Y10.695 F700.000
G1 X-6.861 Y10.269 F700.000
G1 X-7.518 Y9.798 F700.000
G1 X-8.143 Y9.285 F700.000
G1 X-8.733 Y8.733 F700.000
G1 X-9.285 Y8.143 F700.000
G1 X-9.798 Y7.518 F700.000
G1 X-10.269 Y6.861 F700.000
G1 X-10.695 Y6.175 F700.000
G1 X-11.076 Y5.462 F700.000
G1 X-11.410 Y4.726 F700.000
G1 X-11.695 Y3.970 F700.000
G1 X-11.929 Y3.196 F700.000
G1 X-12.113 Y2.409 F700.000
G1 X-12.244 Y1.612 F700.000
G1 X-12.324 Y0.808 F700.000
G1 X-12.350 Y0.000 F700.000
G1 X-12.324 Y-0.808 F700.000
G1 X-12.244 Y-1.612 F700.000
G1 X-12.113 Y-2.409 F700.000
G1 X-11.929 Y-3.196 F700.000
G1 X-11.695 Y-3.970 F700.000
G1 X-11.410 Y-4.726 F700.000
G1 X-11.076 Y-5.462 F700.000
G1 X-10.695 Y-6.175 F700.000
G1 X-10.269 Y-6.861 F700.000
G1 X-9.798 Y-7.518 F700.000
G1 X-9.285 Y-8.143 F700.000
G1 X-8.733 Y-8.733 F700.000
G1 X-8.143 Y-9.285 F700.000
G1 X-7.518 Y-9.798 F700.000
G1 X-6.861 Y-10.269 F700.000
G1 X-6.175 Y-10.695 F700.000
G1 X-5.462 Y-11.076 F700.000
G1 X-4.726 Y-11.410 F700.000
G1 X-3.970 Y-11.695 F700.000
G1 X-3.196 Y-11.929 F700.000
G1 X-2.409 Y-12.113 F700.000
G1 X-1.612 Y-12.244 F700.000
G1 X-0.808 Y-12.324 F700.000
G1 X-0.000 Y-12.350 F700.000
G1 X0.808 Y-12.324 F700.000
G1 X1.612 Y-12.244 F700.000
G1 X2.409 Y-12.113 F700.000
G1 X3.196 Y-11.929 F700.000
G1 X3.970 Y-11.695 F700.000
G1 X4.726 Y-11.410 F700.000
G1 X5.462 Y-11.076 F700.000
G1 X6.175 Y-10.695 F700.000
G1 X6.861 Y-10.269 F700.000
G1 X7.518 Y-9.798 F700.000
G1 X8.143 Y-9.285 F700.000
G1 X8.733 Y-8.733 F700.000
G1 X9.285 Y-8.143 F700.000
G1 X9.798 Y-7.518 F700.000
G1 X10.269 Y-6.861 F700.000
G1 X10.695 Y-6.175 F700.000
G1 X11.076 Y-5.462 F700.000
G1 X11.410 Y-4.726 F700.000
G1 X11.695 Y-3.970 F700.000
G1 X11.929 Y-3.196 F700.000
G1 X12.113 Y-2.409 F700.000
G1 X12.244 Y-1.612 F700.000
G1 X12.324 Y-0.808 F700.000
G1 X12.350 Y-0.000 F700.000
G1 X11.350 Y0.000 F700.000
G1 X11.326 Y0.742 F700.000
G1 X11.253 Y1.481 F700.000
G1 X11.132 Y2.214 F700.000
G1 X10.963 Y2.938 F700.000
G1 X10.748 Y3.648 F700.000
G1 X10.486 Y4.343 F700.000
G1 X10.180 Y5.020 F700.000
G1 X9.829 Y5.675 F700.000
G1 X9.437 Y6.306 F700.000
G1 X9.005 Y6.909 F700.000
G1 X8.533 Y7.484 F700.000
G1 X8.026 Y8.026 F700.000
G1 X7.484 Y8.533 F700.000
G1 X6.909 Y9.005 F700.000
G1 X6.306 Y9.437 F700.000
G1 X5.675 Y9.829 F700.000
G1 X5.020 Y10.180 F700.000
G1 X4.343 Y10.486 F700.000
G1 X3.648 Y10.748 F700.000
G1 X2.938 Y10.963 F700.000
G1 X2.214 Y11.132 F700.000
G1 X1.481 Y11.253 F700.000
G1 X0.742 Y11.326 F700.000
G1 X0.000 Y11.350 F700.000
G1 X-0.742 Y11.326 F700.000
G1 X-1.481 Y11.253 F700.000
G1 X-2.214 Y11.132 F700.000
G1 X-2.938 Y10.963 F700.000
G1 X-3.648 Y10.748 F700.000
G1 X-4.343 Y10.486 F700.000
G1 X-5.020 Y10.180 F700.000
G1 X-5.675 Y9.829 F700.000
G1 X-6.306 Y9.437 F700.000
G1 X-6.909 Y9.005 F700.000
G1 X-7.484 Y8.533 F700.000
G1 X-8.026 Y8.026 F700.000
G1 X-8.533 Y7.484 F700.000
G1 X-9.005 Y6.909 F700.000
G1 X-9.437 Y6.306 F700.000
G1 X-9.829 Y5.675 F700.000
G1 X-10.180 Y5.020 F700.000
G1 X-10.486 Y4.343 F700.000
G1 X-10.748 Y3.648 F700.000
G1 X-10.963 Y2.938 F700.000
G1 X-11.132 Y2.214 F700.000
G1 X-11.253 Y1.481 F700.000
G1 X-11.326 Y0.742 F700.000
G1 X-11.350 Y0.000 F700.000
G1 X-11.326 Y-0.742 F700.000
G1 X-11.253 Y-1.481 F700.000
G1 X-11.132 Y-2.214 F700.000
G1 X-10.963 Y-2.938 F700.000
G1 X-10.748 Y-3.648 F700.000
G1 X-10.486 Y-4.343 F700.000
G1 X-10.180 Y-5.020 F700.000
G1 X-9.829 Y-5.675 F700.000
G1 X-9.437 Y-6.306 F700.000
G1 X-9.005 Y-6.909 F700.000
G1 X-8.533 Y-7.484 F700.000
G1 X-8.026 Y-8.026 F700.000
G1 X-7.484 Y-8.533 F700.000
G1 X-6.909 Y-9.005 F700.000
G1 X-6.306 Y-9.437 F700.000
G1 X-5.675 Y-9.829 F700.000
G1 X-5.020 Y-10.180 F700.000
G1 X-4.343 Y-10.486 F700.000
G1 X-3.648 Y-10.748 F700.000
G1 X-2.938 Y-10.963 F700.000
G1 X-2.214 Y-11.132 F700.000
G1 X-1.481 Y-11.253 F700.000
G1 X-0.742 Y-11.326 F700.000
G1 X-0.000 Y-11.350 F700.000
G1 X0.742 Y-11.326 F700.000
G1 X1.481 Y-11.253 F700.000
G1 X2.214 Y-11.132 F700.000
G1 X2.938 Y-10.963 F700.000
G1 X3.648 Y-10.748 F700.000
G1 X4.343 Y-10.486 F700.000
G1 X5.020 Y-10.180 F700.000
G1 X5.675 Y-9.829 F700.000
G1 X6.306 Y-9.437 F700.000
G1 X6.909 Y-9.005 F700.000
G1 X7.484 Y-8.533 F700.000
G1 X8.026 Y-8.026 F700.000
G1 X8.533 Y-7.484 F700.000
G1 X9.005 Y-6.909 F700.000
G1 X9.437 Y-6.306 F700.000
G1 X9.829 Y-5.675 F700.000
G1 X10.180 Y-5.020 F700.000
G1 X10.486 Y-4.343 F700.000
G1 X10.748 Y-3.648 F700.000
G1 X10.963 Y-2.938 F700.000
G1 X11.132 Y-2.214 F700.000
G1 X11.253 Y-1.481 F700.000
G1 X11.326 Y-0.742 F700.000
G1 X11.350 Y-0.000 F700.000
G1 X10.350 Y0.000 F700.000
G1 X10.328 Y0.677 F700.000
G1 X10.261 Y1.351 F700.000
G1 X10.151 Y2.019 F700.000
G1 X9.997 Y2.679 F700.000
G1 X9.801 Y3.327 F700.000
G1 X9.562 Y3.961 F700.000
G1 X9.283 Y4.578 F700.000
G1 X8.963 Y5.175 F700.000
G1 X8.606 Y5.750 F700.000
G1 X8.211 Y6.301 F700.000
G1 X7.782 Y6.824 F700.000
G1 X7.319 Y7.319 F700.000
G1 X6.824 Y7.782 F700.000
G1 X6.301 Y8.211 F700.000
G1 X5.750 Y8.606 F700.000
G1 X5.175 Y8.963 F700.000
G1 X4.578 Y9.283 F700.000
G1 X3.961 Y9.562 F700.000
G1 X3.327 Y9.801 F700.000
G1 X2.679 Y9.997 F700.000
G1 X2.019 Y10.151 F700.000
G1 X1.351 Y10.261 F700.000
G1 X0.677 Y10.328 F700.000
G1 X0.000 Y10.350 F700.000
G1 X-0.677 Y10.328 F700.000
G1 X-1.351 Y10.261 F700.000
G1 X-2.019 Y10.151 F700.000
G1 X-2.679 Y9.997 F700.000
G1 X-3.327 Y9.801 F700.000
G1 X-3.961 Y9.562 F700.000
G1 X-4.578 Y9.283 F700.000
G1 X-5.175 Y8.963 F700.000
G1 X-5.750 Y8.606 F700.000
G1 X-6.301 Y8.211 F700.000
G1 X-6.824 Y7.782 F700.000
G1 X-7.319 Y7.319 F700.000
G1 X-7.782 Y6.824 F700.000
G1 X-8.211 Y6.301 F700.000
G1 X-8.606 Y5.750 F700.000
G1 X-8.963 Y5.175 F700.000
G1 X-9.283 Y4.578 F700.000
G1 X-9.562 Y3.961 F700.000
G1 X-9.801 Y3.327 F700.000
G1 X-9.997 Y2.679 F700.000
G1 X-10.151 Y2.019 F700.000
G1 X-10.261 Y1.351 F700.000
G1 X-10.328 Y0.677 F700.000
G1 X-10.350 Y0.000 F700.000
G1 X-10.328 Y-0.677 F700.000
G1 X-10.261 Y-1.351 F700.000
G1 X-10.151 Y-2.019 F700.000
G1 X-9.997 Y-2.679 F700.000
G1 X-9.801 Y-3.327 F700.000
G1 X-9.562 Y-3.961 F700.000
G1 X-9.283 Y-4.578 F700.000
G1 X-8.963 Y-5.175 F700.000
G1 X-8.606 Y-5.750 F700.000
G1 X-8.211 Y-6.301 F700.000
G1 X-7.782 Y-6.824 F700.000
G1 X-7.319 Y-7.319 F700.000
G1 X-6.824 Y-7.782 F700.000
G1 X-6.301 Y-8.211 F700.000
G1 X-5.750 Y-8.606 F700.000
G1 X-5.175 Y-8.963 F700.000
G1 X-4.578 Y-9.283 F700.000
G1 X-3.961 Y-9.562 F700.000
G1 X-3.327 Y-9.801 F700.000
G1 X-2.679 Y-9.997 F700.000
G1 X-2.019 Y-10.151 F700.000
G1 X-1.351 Y-10.261 F700.000
G1 X-0.677 Y-10.328 F700.000
G1 X-0.000 Y-10.350 F700.000
G1 X0.677 Y-10.328 F700.000
G1 X1.351 Y-10.261 F700.000
G1 X2.019 Y-10.151 F700.000
G1 X2.679 Y-9.997 F700.000
G1 X3.327 Y-9.801 F700.000
G1 X3.961 Y-9.562 F700.000
G1 X4.578 Y-9.283 F700.000
G1 X5.175 Y-8.963 F700.000
G1 X5.750 Y-8.606 F700.000
G1 X6.301 Y-8.211 F700.000
G1 X6.824 Y-7.782 F700.000
G1 X7.319 Y-7.319 F700.000
G1 X7.782 Y-6.824 F700.000
G1 X8.211 Y-6.301 F700.000
G1 X8.606 Y-5.750 F700.000
G1 X8.963 Y-5.175 F700.000
G1 X9.283 Y-4.578 F700.000
G1 X9.562 Y-3.961 F700.000
G1 X9.801 Y-3.327 F700.000
G1 X9.997 Y-2.679 F700.000
G1 X10.151 Y-2.019 F700.000
G1 X10.261 Y-1.351 F700.000
G1 X10.328 Y-0.677 F700.000
G1 X10.350 Y-0.000 F700.000
G1 X9.350 Y0.000 F700.000
G1 X9.330 Y0.612 F700.000
G1 X9.270 Y1.220 F700.000
G1 X9.170 Y1.824 F700.000
G1 X9.031 Y2.420 F700.000
G1 X8.854 Y3.005 F700.000
G1 X8.638 Y3.578 F700.000
G1 X8.386 Y4.135 F700.000
G1 X8.097 Y4.675 F700.000
G1 X7.774 Y5.195 F700.000
G1 X7.418 Y5.692 F700.000
G1 X7.030 Y6.165 F700.000
G1 X6.611 Y6.611 F700.000
G1 X6.165 Y7.030 F700.000
G1 X5.692 Y7.418 F700.000
G1 X5.195 Y7.774 F700.000
G1 X4.675 Y8.097 F700.000
G1 X4.135 Y8.386 F700.000
G1 X3.578 Y8.638 F700.000
G1 X3.005 Y8.854 F700.000
G1 X2.420 Y9.031 F700.000
G1 X1.824 Y9.170 F700.000
G1 X1.220 Y9.270 F700.000
G1 X0.612 Y9.330 F700.000
G1 X0.000 Y9.350 F700.000
G1 X-0.612 Y9.330 F700.000
G1 X-1.220 Y9.270 F700.000
G1 X-1.824 Y9.170 F700.000
G1 X-2.420 Y9.031 F700.000
G1 X-3.005 Y8.854 F700.000
G1 X-3.578 Y8.638 F700.000
G1 X-4.135 Y8.386 F700.000
G1 X-4.675 Y8.097 F700.000
G1 X-5.195 Y7.774 F700.000
G1 X-5.692 Y7.418 F700.000
G1 X-6.165 Y7.030 F700.000
G1 X-6.611 Y6.611 F700.000
G1 X-7.030 Y6.165 F700.000
G1 X-7.418 Y5.692 F700.000
G1 X-7.774 Y5.195 F700.000
G1 X-8.097 Y4.675 F700.000
G1 X-8.386 Y4.135 F700.000
G1 X-8.638 Y3.578 F700.000
G1 X-8.854 Y3.005 F700.000
G1 X-9.031 Y2.420 F700.000
G1 X-9.170 Y1.824 F700.000
G1 X-9.270 Y1.220 F700.000
G1 X-9.330 Y0.612 F700.000
G1 X-9.350 Y0.000 F700.000
G1 X-9.330 Y-0.612 F700.000
G1 X-9.270 Y-1.220 F700.000
G1 X-9.170 Y-1.824 F700.000
G1 X-9.031 Y-2.420 F700.000
G1 X-8.854 Y-3.005 F700.000
G1 X-8.638 Y-3.578 F700.000
G1 X-8.386 Y-4.135 F700.000
G1 X-8.097 Y-4.675 F700.000
G1 X-7.774 Y-5.195 F700.000
G1 X-7.418 Y-5.692 F700.000
G1 X-7.030 Y-6.165 F700.000
G1 X-6.611 Y-6.611 F700.000
G1 X-6.165 Y-7.030 F700.000
G1 X-5.692 Y-7.418 F700.000
G1 X-5.195 Y-7.774 F700.000
G1 X-4.675 Y-8.097 F700.000
G1 X-4.135 Y-8.386 F700.000
G1 X-3.578 Y-8.638 F700.000
G1 X-3.005 Y-8.854 F700.000
G1 X-2.420 Y-9.031 F700.000
G1 X-1.824 Y-9.170 F700.000
G1 X-1.220 Y-9.270 F700.000
G1 X-0.612 Y-9.330 F700.000
G1 X-0.000 Y-9.350 F700.000
G1 X0.612 Y-9.330 F700.000
G1 X1.220 Y-9.270 F700.000
G1 X1.824 Y-9.170 F700.000
G1 X2.420 Y-9.031 F700.000
G1 X3.005 Y-8.854 F700.000
G1 X3.578 Y-8.638 F700.000
G1 X4.135 Y-8.386 F700.000
G1 X4.675 Y-8.097 F700.000
G1 X5.195 Y-7.774 F700.000
G1 X5.692 Y-7.418 F700.000
G1 X6.165 Y-7.030 F700.000
G1 X6.611 Y-6.611 F700.000
G1 X7.030 Y-6.165 F700.000
G1 X7.418 Y-5.692 F700.000
G1 X7.774 Y-5.195 F700.000
G1 X8.097 Y-4.675 F700.000
G1 X8.386 Y-4.135 F700.000
G1 X8.638 Y-3.578 F700.000
G1 X8.854 Y-3.005 F700.000
G1 X9.031 Y-2.420 F700.000
G1 X9.170 Y-1.824 F700.000
G1 X9.270 Y-1.220 F700.000
G1 X9.330 Y-0.612 F700.000
G1 X9.350 Y-0.000 F700.000
G1 X8.350 Y0.000 F700.000
G1 X8.332 Y0.546 F700.000
G1 X8.279 Y1.090 F700.000
G1 X8.190 Y1.629 F700.000
G1 X8.065 Y2.161 F700.000
G1 X7.907 Y2.684 F700.000
G1 X7.714 Y3.195 F700.000
G1 X7.489 Y3.693 F700.000
G1 X7.231 Y4.175 F700.000
G1 X6.943 Y4.639 F700.000
G1 X6.625 Y5.083 F700.000
G1 X6.278 Y5.506 F700.000
G1 X5.904 Y5.904 F700.000
G1 X5.506 Y6.278 F700.000
G1 X5.083 Y6.625 F700.000
G1 X4.639 Y6.943 F700.000
G1 X4.175 Y7.231 F700.000
G1 X3.693 Y7.489 F700.000
G1 X3.195 Y7.714 F700.000
G1 X2.684 Y7.907 F700.000
G1 X2.161 Y8.065 F700.000
G1 X1.629 Y8.190 F700.000
G1 X1.090 Y8.279 F700.000
G1 X0.546 Y8.332 F700.000
G1 X0.000 Y8.350 F700.000
G1 X-0.546 Y8.332 F700.000
G1 X-1.090 Y8.279 F700.000
G1 X-1.629 Y8.190 F700.000
G1 X-2.161 Y8.065 F700.000
G1 X-2.684 Y7.907 F700.000
G1 X-3.195 Y7.714 F700.000
G1 X-3.693 Y7.489 F700.000
G1 X-4.175 Y7.231 F700.000
G1 X-4.639 Y6.943 F700.000
G1 X-5.083 Y6.625 F700.000
G1 X-5.506 Y6.278 F700.000
G1 X-5.904 Y5.904 F700.000
G1 X-6.278 Y5.506 F700.000
G1 X-6.625 Y5.083 F700.000
G1 X-6.943 Y4.639 F700.000
G1 X-7.231 Y4.175 F700.000
G1 X-7.489 Y3.693 F700.000
G1 X-7.714 Y3.195 F700.000
G1 X-7.907 Y2.684 F700.000
G1 X-8.065 Y2.161 F700.000
G1 X-8.190 Y1.629 F700.000
G1 X-8.279 Y1.090 F700.000
G1 X-8.332 Y0.546 F700.000
G1 X-8.350 Y0.000 F700.000
G1 X-8.332 Y-0.546 F700.000
G1 X-8.279 Y-1.090 F700.000
G1 X-8.190 Y-1.629 F700.000
G1 X-8.065 Y-2.161 F700.000
G1 X-7.907 Y-2.684 F700.000
G1 X-7.714 Y-3.195 F700.000
G1 X-7.489 Y-3.693 F700.000
G1 X-7.231 Y-4.175 F700.000
G1 X-6.943 Y-4.639 F700.000
G1 X-6.625 Y-5.083 F700.000
G1 X-6.278 Y-5.506 F700.000
G1 X-5.904 Y-5.904 F700.000
G1 X-5.506 Y-6.278 F700.000
G1 X-5.083 Y-6.625 F700.000
G1 X-4.639 Y-6.943 F700.000
G1 X-4.175 Y-7.231 F700.000
G1 X-3.693 Y-7.489 F700.000
G1 X-3.195 Y-7.714 F700.000
G1 X-2.684 Y-7.907 F700.000
G1 X-2.161 Y-8.065 F700.000
G1 X-1.629 Y-8.190 F700.000
G1 X-1.090 Y-8.279 F700.000
G1 X-0.546 Y-8.332 F700.000
G1 X-0.000 Y-8.350 F700.000
G1 X0.546 Y-8.332 F700.000
G1 X1.090 Y-8.279 F700.000
G1 X1.629 Y-8.190 F700.000
G1 X2.161 Y-8.065 F700.000
G1 X2.684 Y-7.907 F700.000
G1 X3.195 Y-7.714 F700.000
G1 X3.693 Y-7.489 F700.000
G1 X4.175 Y-7.231 F700.000
G1 X4.639 Y-6.943 F700.000
G1 X5.083 Y-6.625 F700.000
G1 X5.506 Y-6.278 F700.000
G1 X5.904 Y-5.904 F700.000
G1 X6.278 Y-5.506 F700.000
G1 X6.625 Y-5.083 F700.000
G1 X6.943 Y-4.639 F700.000
G1 X7.231 Y-4.175 F700.000
G1 X7.489 Y-3.693 F700.000
G1 X7.714 Y-3.195 F700.000
G1 X7.907 Y-2.684 F700.000
G1 X8.065 Y-2.161 F700.000
G1 X8.190 Y-1.629 F700.000
G1 X8.279 Y-1.090 F700.000
G1 X8.332 Y-0.546 F700.000
G1 X8.350 Y-0.000 F700.000
G1 X7.350 Y0.000 F700.000
G1 X7.334 Y0.481 F700.000
G1 X7.287 Y0.959 F700.000
G1 X7.209 Y1.434 F700.000
G1 X7.100 Y1.902 F700.000
G1 X6.960 Y2.363 F700.000
G1 X6.791 Y2.813 F700.000
G1 X6.592 Y3.251 F700.000
G1 X6.365 Y3.675 F700.000
G1 X6.111 Y4.083 F700.000
G1 X5.831 Y4.474 F700.000
G1 X5.526 Y4.846 F700.000
G1 X5.197 Y5.197 F700.000
G1 X4.846 Y5.526 F700.000
G1 X4.474 Y5.831 F700.000
G1 X4.083 Y6.111 F700.000
G1 X3.675 Y6.365 F700.000
G1 X3.251 Y6.592 F700.000
G1 X2.813 Y6.791 F700.000
G1 X2.363 Y6.960 F700.000
G1 X1.902 Y7.100 F700.000
G1 X1.434 Y7.209 F700.000
G1 X0.959 Y7.287 F700.000
G1 X0.481 Y7.334 F700.000
G1 X0.000 Y7.350 F700.000
G1 X-0.481 Y7.334 F700.000
G1 X-0.959 Y7.287 F700.000
G1 X-1.434 Y7.209 F700.000
G1 X-1.902 Y7.100 F700.000
G1 X-2.363 Y6.960 F700.000
G1 X-2.813 Y6.791 F700.000
G1 X-3.251 Y6.592 F700.000
G1 X-3.675 Y6.365 F700.000
G1 X-4.083 Y6.111 F700.000
G1 X-4.474 Y5.831 F700.000
G1 X-4.846 Y5.526 F700.000
G1 X-5.197 Y5.197 F700.000
G1 X-5.526 Y4.846 F700.000
G1 X-5.831 Y4.474 F700.000
G1 X-6.111 Y4.083 F700.000
G1 X-6.365 Y3.675 F700.000
G1 X-6.592 Y3.251 F700.000
G1 X-6.791 Y2.813 F700.000
G1 X-6.960 Y2.363 F700.000
G1 X-7.100 Y1.902 F700.000
G1 X-7.209 Y1.434 F700.000
G1 X-7.287 Y0.959 F700.000
G1 X-7.334 Y0.481 F700.000
G1 X-7.350 Y0.000 F700.000
G1 X-7.334 Y-0.481 F700.000
G1 X-7.287 Y-0.959 F700.000
G1 X-7.209 Y-1.434 F700.000
G1 X-7.100 Y-1.902 F700.000
G1 X-6.960 Y-2.363 F700.000
G1 X-6.791 Y-2.813 F700.000
G1 X-6.592 Y-3.251 F700.000
G1 X-6.365 Y-3.675 F700.000
G1 X-6.111 Y-4.083 F700.000
G1 X-5.831 Y-4.474 F700.000
G1 X-5.526 Y-4.846 F700.000
G1 X-5.197 Y-5.197 F700.000
G1 X-4.846 Y-5.526 F700.000
G1 X-4.474 Y-5.831 F700.000
G1 X-4.083 Y-6.111 F700.000
G1 X-3.675 Y-6.365 F700.000
G1 X-3.251 Y-6.592 F700.000
G1 X-2.813 Y-6.791 F700.000
G1 X-2.363 Y-6.960 F700.000
G1 X-1.902 Y-7.100 F700.000
G1 X-1.434 Y-7.209 F700.000
G1 X-0.959 Y-7.287 F700.000
G1 X-0.481 Y-7.334 F700.000
G1 X-0.000 Y-7.350 F700.000
G1 X0.481 Y-7.334 F700.000
G1 X0.959 Y-7.287 F700.000
G1 X1.434 Y-7.209 F700.000
G1 X1.902 Y-7.100 F700.000
G1 X2.363 Y-6.960 F700.000
G1 X2.813 Y-6.791 F700.000
G1 X3.251 Y-6.592 F700.000
G1 X3.675 Y-6.365 F700.000
G1 X4.083 Y-6.111 F700.000
G1 X4.474 Y-5.831 F700.000
G1 X4.846 Y-5.526 F700.000
G1 X5.197 Y-5.197 F700.000
G1 X5.526 Y-4.846 F700.000
G1 X5.831 Y-4.474 F700.000
G1 X6.111 Y-4.083 F700.000
G1 X6.365 Y-3.675 F700.000
G1 X6.592 Y-3.251 F700.000
G1 X6.791 Y-2.813 F700.000
G1 X6.960 Y-2.363 F700.000
G1 X7.100 Y-1.902 F700.000
G1 X7.209 Y-1.434 F700.000
G1 X7.287 Y-0.959 F700.000
G1 X7.334 Y-0.481 F700.000
G1 X7.350 Y-0.000 F700.000
G1 X6.350 Y0.000 F700.000
G1 X6.336 Y0.415 F700.000
G1 X6.296 Y0.829 F700.000
G1 X6.228 Y1.239 F700.000
G1 X6.134 Y1.644 F700.000
G1 X6.013 Y2.041 F700.000
G1 X5.867 Y2.430 F700.000
G1 X5.695 Y2.809 F700.000
G1 X5.499 Y3.175 F700.000
G1 X5.280 Y3.528 F700.000
G1 X5.038 Y3.866 F700.000
G1 X4.774 Y4.187 F700.000
G1 X4.490 Y4.490 F700.000
G1 X4.187 Y4.774 F700.000
G1 X3.866 Y5.038 F700.000
G1 X3.528 Y5.280 F700.000
G1 X3.175 Y5.499 F700.000
G1 X2.809 Y5.695 F700.000
G1 X2.430 Y5.867 F700.000
G1 X2.041 Y6.013 F700.000
G1 X1.644 Y6.134 F700.000
G1 X1.239 Y6.228 F700.000
G1 X0.829 Y6.296 F700.000
G1 X0.415 Y6.336 F700.000
G1 X0.000 Y6.350 F700.000
G1 X-0.415 Y6.336 F700.000
G1 X-0.829 Y6.296 F700.000
G1 X-1.239 Y6.228 F700.000
G1 X-1.644 Y6.134 F700.000
G1 X-2.041 Y6.013 F700.000
G1 X-2.430 Y5.867 F700.000
G1 X-2.809 Y5.695 F700.000
G1 X-3.175 Y5.499 F700.000
G1 X-3.528 Y5.280 F700.000
G1 X-3.866 Y5.038 F700.000
G1 X-4.187 Y4.774 F700.000
G1 X-4.490 Y4.490 F700.000
G1 X-4.774 Y4.187 F700.000
G1 X-5.038 Y3.866 F700.000
G1 X-5.280 Y3.528 F700.000
G1 X-5.499 Y3.175 F700.000
G1 X-5.695 Y2.809 F700.000
G1 X-5.867 Y2.430 F700.000
G1 X-6.013 Y2.041 F700.000
G1 X-6.134 Y1.644 F700.000
G1 X-6.228 Y1.239 F700.000
G1 X-6.296 Y0.829 F700.000
G1 X-6.336 Y0.415 F700.000
G1 X-6.350 Y0.000 F700.000
G1 X-6.336 Y-0.415 F700.000
G1 X-6.296 Y-0.829 F700.000
G1 X-6.228 Y-1.239 F700.000
G1 X-6.134 Y-1.644 F700.000
G1 X-6.013 Y-2.041 F700.000
G1 X-5.867 Y-2.430 F700.000
G1 X-5.695 Y-2.809 F700.000
G1 X-5.499 Y-3.175 F700.000
G1 X-5.280 Y-3.528 F700.000
G1 X-5.038 Y-3.866 F700.000
G1 X-4.774 Y-4.187 F700.000
G1 X-4.490 Y-4.490 F700.000
G1 X-4.187 Y-4.774 F700.000
G1 X-3.866 Y-5.038 F700.000
G1 X-3.528 Y-5.280 F700.000
G1 X-3.175 Y-5.499 F700.000
G1 X-2.809 Y-5.695 F700.000
G1 X-2.430 Y-5.867 F700.000
G1 X-2.041 Y-6.013 F700.000
G1 X-1.644 Y-6.134 F700.000
G1 X-1.239 Y-6.228 F700.000
G1 X-0.829 Y-6.296 F700.000
G1 X-0.415 Y-6.336 F700.000
G1 X-0.000 Y-6.350 F700.000
G1 X0.415 Y-6.336 F700.000
G1 X0.829 Y-6.296 F700.000
G1 X1.239 Y-6.228 F700.000
G1 X1.644 Y-6.134 F700.000
G1 X2.041 Y-6.013 F700.000
G1 X2.430 Y-5.867 F700.000
G1 X2.809 Y-5.695 F700.000
G1 X3.175 Y-5.499 F700.000
G1 X3.528 Y-5.280 F700.000
G1 X3.866 Y-5.038 F700.000
G1 X4.187 Y-4.774 F700.000
G1 X4.490 Y-4.490 F700.000
G1 X4.774 Y-4.187 F700.000
G1 X5.038 Y-3.866 F700.000
G1 X5.280 Y-3.528 F700.000
G1 X5.499 Y-3.175 F700.000
G1 X5.695 Y-2.809 F700.000
G1 X5.867 Y-2.430 F700.000
G1 X6.013 Y-2.041 F700.000
G1 X6.134 Y-1.644 F700.000
G1 X6.228 Y-1.239 F700.000
G1 X6.296 Y-0.829 F700.000
G1 X6.336 Y-0.415 F700.000
G1 X6.350 Y-0.000 F700.000
G1 X5.350 Y0.000 F700.000
G1 X5.339 Y0.350 F700.000
G1 X5.304 Y0.698 F700.000
G1 X5.247 Y1.044 F700.000
G1 X5.168 Y1.385 F700.000
G1 X5.066 Y1.720 F700.000
G1 X4.943 Y2.047 F700.000
G1 X4.798 Y2.366 F700.000
G1 X4.633 Y2.675 F700.000
G1 X4.448 Y2.972 F700.000
G1 X4.244 Y3.257 F700.000
G1 X4.022 Y3.528 F700.000
G1 X3.783 Y3.783 F700.000
G1 X3.528 Y4.022 F700.000
G1 X3.257 Y4.244 F700.000
G1 X2.972 Y4.448 F700.000
G1 X2.675 Y4.633 F700.000
G1 X2.366 Y4.798 F700.000
G1 X2.047 Y4.943 F700.000
G1 X1.720 Y5.066 F700.000
G1 X1.385 Y5.168 F700.000
G1 X1.044 Y5.247 F700.000
G1 X0.698 Y5.304 F700.000
G1 X0.350 Y5.339 F700.000
G1 X0.000 Y5.350 F700.000
G1 X-0.350 Y5.339 F700.000
G1 X-0.698 Y5.304 F700.000
G1 X-1.044 Y5.247 F700.000
G1 X-1.385 Y5.168 F700.000
G1 X-1.720 Y5.066 F700.000
G1 X-2.047 Y4.943 F700.000
G1 X-2.366 Y4.798 F700.000
G1 X-2.675 Y4.633 F700.000
G1 X-2.972 Y4.448 F700.000
G1 X-3.257 Y4.244 F700.000
G1 X-3.528 Y4.022 F700.000
G1 X-3.783 Y3.783 F700.000
G1 X-4.022 Y3.528 F700.000
G1 X-4.244 Y3.257 F700.000
G1 X-4.448 Y2.972 F700.000
G1 X-4.633 Y2.675 F700.000
G1 X-4.798 Y2.366 F700.000
G1 X-4.943 Y2.047 F700.000
G1 X-5.066 Y1.720 F700.000
G1 X-5.168 Y1.385 F700.000
G1 X-5.247 Y1.044 F700.000
G1 X-5.304 Y0.698 F700.000
G1 X-5.339 Y0.350 F700.000
G1 X-5.350 Y0.000 F700.000
G1 X-5.339 Y-0.350 F700.000
G1 X-5.304 Y-0.698 F700.000
G1 X-5.247 Y-1.044 F700.000
G1 X-5.168 Y-1.385 F700.000
G1 X-5.066 Y-1.720 F700.000
G1 X-4.943 Y-2.047 F700.000
G1 X-4.798 Y-2.366 F700.000
G1 X-4.633 Y-2.675 F700.000
G1 X-4.448 Y-2.972 F700.000
G1 X-4.244 Y-3.257 F700.000
G1 X-4.022 Y-3.528 F700.000
G1 X-3.783 Y-3.783 F700.000
G1 X-3.528 Y-4.022 F700.000
G1 X-3.257 Y-4.244 F700.000
G1 X-2.972 Y-4.448 F700.000
G1 X-2.675 Y-4.633 F700.000
G1 X-2.366 Y-4.798 F700.000
G1 X-2.047 Y-4.943 F700.000
G1 X-1.720 Y-5.066 F700.000
G1 X-1.385 Y-5.168 F700.000
G1 X-1.044 Y-5.247 F700.000
G1 X-0.698 Y-5.304 F700.000
G1 X-0.350 Y-5.339 F700.000
G1 X-0.000 Y-5.350 F700.000
G1 X0.350 Y-5.339 F700.000
G1 X0.698 Y-5.304 F700.000
G1 X1.044 Y-5.247 F700.000
G1 X1.385 Y-5.168 F700.000
G1 X1.720 Y-5.066 F700.000
G1 X2.047 Y-4.943 F700.000
G1 X2.366 Y-4.798 F700.000
G1 X2.675 Y-4.633 F700.000
G1 X2.972 Y-4.448 F700.000
G1 X3.257 Y-4.244 F700.000
G1 X3.528 Y-4.022 F700.000
G1 X3.783 Y-3.783 F700.000
G1 X4.022 Y-3.528 F700.000
G1 X4.244 Y-3.257 F700.000
G1 X4.448 Y-2.972 F700.000
G1 X4.633 Y-2.675 F700.000
G1 X4.798 Y-2.366 F700.000
G1 X4.943 Y-2.047 F700.000
G1 X5.066 Y-1.720 F700.000
G1 X5.168 Y-1.385 F700.000
G1 X5.247 Y-1.044 F700.000
G1 X5.304 Y-0.698 F700.000
G1 X5.339 Y-0.350 F700.000
G1 X5.350 Y-0.000 F700.000
G1 X4.350 Y0.000 F700.000
G1 X4.341 Y0.285 F700.000
G1 X4.313 Y0.568 F700.000
G1 X4.266 Y0.849 F700.000
G1 X4.202 Y1.126 F700.000
G1 X4.119 Y1.398 F700.000
G1 X4.019 Y1.665 F700.000
G1 X3.901 Y1.924 F700.000
G1 X3.767 Y2.175 F700.000
G1 X3.617 Y2.417 F700.000
G1 X3.451 Y2.648 F700.000
G1 X3.271 Y2.868 F700.000
G1 X3.076 Y3.076 F700.000
G1 X2.868 Y3.271 F700.000
G1 X2.648 Y3.451 F700.000
G1 X2.417 Y3.617 F700.000
G1 X2.175 Y3.767 F700.000
G1 X1.924 Y3.901 F700.000
G1 X1.665 Y4.019 F700.000
G1 X1.398 Y4.119 F700.000
G1 X1.126 Y4.202 F700.000
G1 X0.849 Y4.266 F700.000
G1 X0.568 Y4.313 F700.000
G1 X0.285 Y4.341 F700.000
G1 X0.000 Y4.350 F700.000
G1 X-0.285 Y4.341 F700.000
G1 X-0.568 Y4.313 F700.000
G1 X-0.849 Y4.266 F700.000
G1 X-1.126 Y4.202 F700.000
G1 X-1.398 Y4.119 F700.000
G1 X-1.665 Y4.019 F700.000
G1 X-1.924 Y3.901 F700.000
G1 X-2.175 Y3.767 F700.000
G1 X-2.417 Y3.617 F700.000
G1 X-2.648 Y3.451 F700.000
G1 X-2.868 Y3.271 F700.000
G1 X-3.076 Y3.076 F700.000
G1 X-3.271 Y2.868 F700.000
G1 X-3.451 Y2.648 F700.000
G1 X-3.617 Y2.417 F700.000
G1 X-3.767 Y2.175 F700.000
G1 X-3.901 Y1.924 F700.000
G1 X-4.019 Y1.665 F700.000
G1 X-4.119 Y1.398 F700.000
G1 X-4.202 Y1.126 F700.000
G1 X-4.266 Y0.849 F700.000
G1 X-4.313 Y0.568 F700.000
G1 X-4.341 Y0.285 F700.000
G1 X-4.350 Y0.000 F700.000
G1 X-4.341 Y-0.285 F700.000
G1 X-4.313 Y-0.568 F700.000
G1 X-4.266 Y-0.849 F700.000
G1 X-4.202 Y-1.126 F700.000
G1 X-4.119 Y-1.398 F700.000
G1 X-4.019 Y-1.665 F700.000
G1 X-3.901 Y-1.924 F700.000
G1 X-3.767 Y-2.175 F700.000
G1 X-3.617 Y-2.417 F700.000
G1 X-3.451 Y-2.648 F700.000
G1 X-3.271 Y-2.868 F700.000
G1 X-3.076 Y-3.076 F700.000
G1 X-2.868 Y-3.271 F700.000
G1 X-2.648 Y-3.451 F700.000
G1 X-2.417 Y-3.617 F700.000
G1 X-2.175 Y-3.767 F700.000
G1 X-1.924 Y-3.901 F700.000
G1 X-1.665 Y-4.019 F700.000
G1 X-1.398 Y-4.119 F700.000
G1 X-1.126 Y-4.202 F700.000
G1 X-0.849 Y-4.266 F700.000
G1 X-0.568 Y-4.313 F700.000
G1 X-0.285 Y-4.341 F700.000
G1 X-0.000 Y-4.350 F700.000
G1 X0.285 Y-4.341 F700.000
G1 X0.568 Y-4.313 F700.000
G1 X0.849 Y-4.266 F700.000
G1 X1.126 Y-4.202 F700.000
G1 X1.398 Y-4.119 F700.000
G1 X1.665 Y-4.019 F700.000
G1 X1.924 Y-3.901 F700.000
G1 X2.175 Y-3.767 F700.000
G1 X2.417 Y-3.617 F700.000
G1 X2.648 Y-3.451 F700.000
G1 X2.868 Y-3.271 F700.000
G1 X3.076 Y-3.076 F700.000
G1 X3.271 Y-2.868 F700.000
G1 X3.451 Y-2.648 F700.000
G1 X3.617 Y-2.417 F700.000
G1 X3.767 Y-2.175 F700.000
G1 X3.901 Y-1.924 F700.000
G1 X4.019 Y-1.665 F700.000
G1 X4.119 Y-1.398 F700.000
G1 X4.202 Y-1.126 F700.000
G1 X4.266 Y-0.849 F700.000
G1 X4.313 Y-0.568 F700.000
G1 X4.341 Y-0.285 F700.000
G1 X4.350 Y-0.000 F700.000
G1 X3.350 Y0.000 F700.000
G1 X3.343 Y0.219 F700.000
G1 X3.321 Y0.437 F700.000
G1 X3.286 Y0.654 F700.000
G1 X3.236 Y0.867 F700.000
G1 X3.172 Y1.077 F700.000
G1 X3.095 Y1.282 F700.000
G1 X3.005 Y1.482 F700.000
G1 X2.901 Y1.675 F700.000
G1 X2.785 Y1.861 F700.000
G1 X2.658 Y2.039 F700.000
G1 X2.519 Y2.209 F700.000
G1 X2.369 Y2.369 F700.000
G1 X2.209 Y2.519 F700.000
G1 X2.039 Y2.658 F700.000
G1 X1.861 Y2.785 F700.000
G1 X1.675 Y2.901 F700.000
G1 X1.482 Y3.005 F700.000
G1 X1.282 Y3.095 F700.000
G1 X1.077 Y3.172 F700.000
G1 X0.867 Y3.236 F700.000
G1 X0.654 Y3.286 F700.000
G1 X0.437 Y3.321 F700.000
G1 X0.219 Y3.343 F700.000
G1 X0.000 Y3.350 F700.000
G1 X-0.219 Y3.343 F700.000
G1 X-0.437 Y3.321 F700.000
G1 X-0.654 Y3.286 F700.000
G1 X-0.867 Y3.236 F700.000
G1 X-1.077 Y3.172 F700.000
G1 X-1.282 Y3.095 F700.000
G1 X-1.482 Y3.005 F700.000
G1 X-1.675 Y2.901 F700.000
G1 X-1.861 Y2.785 F700.000
G1 X-2.039 Y2.658 F700.000
G1 X-2.209 Y2.519 F700.000
G1 X-2.369 Y2.369 F700.000
G1 X-2.519 Y2.209 F700.000
G1 X-2.658 Y2.039 F700.000
G1 X-2.785 Y1.861 F700.000
G1 X-2.901 Y1.675 F700.000
G1 X-3.005 Y1.482 F700.000
G1 X-3.095 Y1.282 F700.000
G1 X-3.172 Y1.077 F700.000
G1 X-3.236 Y0.867 F700.000
G1 X-3.286 Y0.654 F700.000
G1 X-3.321 Y0.437 F700.000
G1 X-3.343 Y0.219 F700.000
G1 X-3.350 Y0.000 F700.000
G1 X-3.343 Y-0.219 F700.000
G1 X-3.321 Y-0.437 F700.000
G1 X-3.286 Y-0.654 F700.000
G1 X-3.236 Y-0.867 F700.000
G1 X-3.172 Y-1.077 F700.000
G1 X-3.095 Y-1.282 F700.000
G1 X-3.005 Y-1.482 F700.000
G1 X-2.901 Y-1.675 F700.000
G1 X-2.785 Y-1.861 F700.000
G1 X-2.658 Y-2.039 F700.000
G1 X-2.519 Y-2.209 F700.000
G1 X-2.369 Y-2.369 F700.000
G1 X-2.209 Y-2.519 F700.000
G1 X-2.039 Y-2.658 F700.000
G1 X-1.861 Y-2.785 F700.000
G1 X-1.675 Y-2.901 F700.000
G1 X-1.482 Y-3.005 F700.000
G1 X-1.282 Y-3.095 F700.000
G1 X-1.077 Y-3.172 F700.000
G1 X-0.867 Y-3.236 F700.000
G1 X-0.654 Y-3.286 F700.000
G1 X-0.437 Y-3.321 F700.000
G1 X-0.219 Y-3.343 F700.000
G1 X-0.000 Y-3.350 F700.000
G1 X0.219 Y-3.343 F700.000
G1 X0.437 Y-3.321 F700.000
G1 X0.654 Y-3.286 F700.000
G1 X0.867 Y-3.236 F700.000
G1 X1.077 Y-3.172 F700.000
G1 X1.282 Y-3.095 F700.000
G1 X1.482 Y-3.005 F700.000
G1 X1.675 Y-2.901 F700.000
G1 X1.861 Y-2.785 F700.000
G1 X2.039 Y-2.658 F700.000
G1 X2.209 Y-2.519 F700.000
G1 X2.369 Y-2.369 F700.000
G1 X2.519 Y-2.209 F700.000
G1 X2.658 Y-2.039 F700.000
G1 X2.785 Y-1.861 F700.000
G1 X2.901 Y-1.675 F700.000
G1 X3.005 Y-1.482 F700.000
G1 X3.095 Y-1.282 F700.000
G1 X3.172 Y-1.077 F700.000
G1 X3.236 Y-0.867 F700.000
G1 X3.286 Y-0.654 F700.000
G1 X3.321 Y-0.437 F700.000
G1 X3.343 Y-0.219 F700.000
G1 X3.350 Y-0.000 F700.000
G1 X2.350 Y0.000 F700.000
G1 X2.345 Y0.154 F700.000
G1 X2.330 Y0.307 F700.000
G1 X2.305 Y0.458 F700.000
G1 X2.270 Y0.608 F700.000
G1 X2.225 Y0.755 F700.000
G1 X2.171 Y0.899 F700.000
G1 X2.108 Y1.039 F700.000
G1 X2.035 Y1.175 F700.000
G1 X1.954 Y1.306 F700.000
G1 X1.864 Y1.431 F700.000
G1 X1.767 Y1.549 F700.000
G1 X1.662 Y1.662 F700.000
G1 X1.549 Y1.767 F700.000
G1 X1.431 Y1.864 F700.000
G1 X1.306 Y1.954 F700.000
G1 X1.175 Y2.035 F700.000
G1 X1.039 Y2.108 F700.000
G1 X0.899 Y2.171 F700.000
G1 X0.755 Y2.225 F700.000
G1 X0.608 Y2.270 F700.000
G1 X0.458 Y2.305 F700.000
G1 X0.307 Y2.330 F700.000
G1 X0.154 Y2.345 F700.000
G1 X0.000 Y2.350 F700.000
G1 X-0.154 Y2.345 F700.000
G1 X-0.307 Y2.330 F700.000
G1 X-0.458 Y2.305 F700.000
G1 X-0.608 Y2.270 F700.000
G1 X-0.755 Y2.225 F700.000
G1 X-0.899 Y2.171 F700.000
G1 X-1.039 Y2.108 F700.000
G1 X-1.175 Y2.035 F700.000
G1 X-1.306 Y1.954 F700.000
G1 X-1.431 Y1.864 F700.000
G1 X-1.549 Y1.767 F700.000
G1 X-1.662 Y1.662 F700.000
G1 X-1.767 Y1.549 F700.000
G1 X-1.864 Y1.431 F700.000
G1 X-1.954 Y1.306 F700.000
G1 X-2.035 Y1.175 F700.000
G1 X-2.108 Y1.039 F700.000
G1 X-2.171 Y0.899 F700.000
G1 X-2.225 Y0.755 F700.000
G1 X-2.270 Y0.608 F700.000
G1 X-2.305 Y0.458 F700.000
G1 X-2.330 Y0.307 F700.000
G1 X-2.345 Y0.154 F700.000
G1 X-2.350 Y0.000 F700.000
G1 X-2.345 Y-0.154 F700.000
G1 X-2.330 Y-0.307 F700.000
G1 X-2.305 Y-0.458 F700.000
G1 X-2.270 Y-0.608 F700.000
G1 X-2.225 Y-0.755 F700.000
G1 X-2.171 Y-0.899 F700.000
G1 X-2.108 Y-1.039 F700.000
G1 X-2.035 Y-1.175 F700.000
G1 X-1.954 Y-1.306 F700.000
G1 X-1.864 Y-1.431 F700.000
G1 X-1.767 Y-1.549 F700.000
G1 X-1.662 Y-1.662 F700.000
G1 X-1.549 Y-1.767 F700.000
G1 X-1.431 Y-1.864 F700.000
G1 X-1.306 Y-1.954 F700.000
G1 X-1.175 Y-2.035 F700.000
G1 X-1.039 Y-2.108 F700.000
G1 X-0.899 Y-2.171 F700.000
G1 X-0.755 Y-2.225 F700.000
G1 X-0.608 Y-2.270 F700.000
G1 X-0.458 Y-2.305 F700.000
G1 X-0.307 Y-2.330 F700.000
G1 X-0.154 Y-2.345 F700.000
G1 X-0.000 Y-2.350 F700.000
G1 X0.154 Y-2.345 F700.000
G1 X0.307 Y-2.330 F700.000
G1 X0.458 Y-2.305 F700.000
G1 X0.608 Y-2.270 F700.000
G1 X0.755 Y-2.225 F700.000
G1 X0.899 Y-2.171 F700.000
G1 X1.039 Y-2.108 F700.000
G1 X1.175 Y-2.035 F700.000
G1 X1.306 Y-1.954 F700.000
G1 X1.431 Y-1.864 F700.000
G1 X1.549 Y-1.767 F700.000
G1 X1.662 Y-1.662 F700.000
G1 X1.767 Y-1.549 F700.000
G1 X1.864 Y-1.431 F700.000
G1 X1.954 Y-1.306 F700.000
G1 X2.035 Y-1.175 F700.000
G1 X2.108 Y-1.039 F700.000
G1 X2.171 Y-0.899 F700.000
G1 X2.225 Y-0.755 F700.000
G1 X2.270 Y-0.608 F700.000
G1 X2.305 Y-0.458 F700.000
G1 X2.330 Y-0.307 F700.000
G1 X2.345 Y-0.154 F700.000
G1 X2.350 Y-0.000 F700.000
G1 X1.350 Y0.000 F700.000
G1 X1.347 Y0.088 F700.000
G1 X1.338 Y0.176 F700.000
G1 X1.324 Y0.263 F700.000
G1 X1.304 Y0.349 F700.000
G1 X1.278 Y0.434 F700.000
G1 X1.247 Y0.517 F700.000
G1 X1.211 Y0.597 F700.000
G1 X1.169 Y0.675 F700.000
G1 X1.122 Y0.750 F700.000
G1 X1.071 Y0.822 F700.000
G1 X1.015 Y0.890 F700.000
G1 X0.955 Y0.955 F700.000
G1 X0.890 Y1.015 F700.000
G1 X0.822 Y1.071 F700.000
G1 X0.750 Y1.122 F700.000
G1 X0.675 Y1.169 F700.000
G1 X0.597 Y1.211 F700.000
G1 X0.517 Y1.247 F700.000
G1 X0.434 Y1.278 F700.000
G1 X0.349 Y1.304 F700.000
G1 X0.263 Y1.324 F700.000
G1 X0.176 Y1.338 F700.000
G1 X0.088 Y1.347 F700.000
G1 X0.000 Y1.350 F700.000
G1 X-0.088 Y1.347 F700.000
G1 X-0.176 Y1.338 F700.000
G1 X-0.263 Y1.324 F700.000
G1 X-0.349 Y1.304 F700.000
G1 X-0.434 Y1.278 F700.000
G1 X-0.517 Y1.247 F700.000
G1 X-0.597 Y1.211 F700.000
G1 X-0.675 Y1.169 F700.000
G1 X-0.750 Y1.122 F700.000
G1 X-0.822 Y1.071 F700.000
G1 X-0.890 Y1.015 F700.000
G1 X-0.955 Y0.955 F700.000
G1 X-1.015 Y0.890 F700.000
G1 X-1.071 Y0.822 F700.000
G1 X-1.122 Y0.750 F700.000
G1 X-1.169 Y0.675 F700.000
G1 X-1.211 Y0.597 F700.000
G1 X-1.247 Y0.517 F700.000
G1 X-1.278 Y0.434 F700.000
G1 X-1.304 Y0.349 F700.000
G1 X-1.324 Y0.263 F700.000
G1 X-1.338 Y0.176 F700.000
G1 X-1.347 Y0.088 F700.000
G1 X-1.350 Y0.000 F700.000
G1 X-1.347 Y-0.088 F700.000
G1 X-1.338 Y-0.176 F700.000
G1 X-1.324 Y-0.263 F700.000
G1 X-1.304 Y-0.349 F700.000
G1 X-1.278 Y-0.434 F700.000
G1 X-1.247 Y-0.517 F700.000
G1 X-1.211 Y-0.597 F700.000
G1 X-1.169 Y-0.675 F700.000
G1 X-1.122 Y-0.750 F700.000
G1 X-1.071 Y-0.822 F700.000
G1 X-1.015 Y-0.890 F700.000
G1 X-0.955 Y-0.955 F700.000
G1 X-0.890 Y-1.015 F700.000
G1 X-0.822 Y-1.071 F700.000
G1 X-0.750 Y-1.122 F700.000
G1 X-0.675 Y-1.169 F700.000
G1 X-0.597 Y-1.211 F700.000
G1 X-0.517 Y-1.247 F700.000
G1 X-0.434 Y-1.278 F700.000
G1 X-0.349 Y-1.304 F700.000
G1 X-0.263 Y-1.324 F700.000
G1 X-0.176 Y-1.338 F700.000
G1 X-0.088 Y-1.347 F700.000
G1 X-0.000 Y-1.350 F700.000
G1 X0.088 Y-1.347 F700.000
G1 X0.176 Y-1.338 F700.000
G1 X0.263 Y-1.324 F700.000
G1 X0.349 Y-1.304 F700.000
G1 X0.434 Y-1.278 F700.000
G1 X0.517 Y-1.247 F700.000
G1 X0.597 Y-1.211 F700.000
G1 X0.675 Y-1.169 F700.000
G1 X0.750 Y-1.122 F700.000
G1 X0.822 Y-1.071 F700.000
G1 X0.890 Y-1.015 F700.000
G1 X0.955 Y-0.955 F700.000
G1 X1.015 Y-0.890 F700.000
G1 X1.071 Y-0.822 F700.000
G1 X1.122 Y-0.750 F700.000
G1 X1.169 Y-0.675 F700.000
G1 X1.211 Y-0.597 F700.000
G1 X1.247 Y-0.517 F700.000
G1 X1.278 Y-0.434 F700.000
G1 X1.304 Y-0.349 F700.000
G1 X1.324 Y-0.263 F700.000
G1 X1.338 Y-0.176 F700.000
G1 X1.347 Y-0.088 F700.000
G1 X1.350 Y-0.000 F700.000
G1 X0.350 Y0.000 F700.000
G1 X0.349 Y0.023 F700.000
G1 X0.347 Y0.046 F700.000
G1 X0.343 Y0.068 F700.000
G1 X0.338 Y0.091 F700.000
G1 X0.331 Y0.113 F700.000
G1 X0.323 Y0.134 F700.000
G1 X0.314 Y0.155 F700.000
G1 X0.303 Y0.175 F700.000
G1 X0.291 Y0.194 F700.000
G1 X0.278 Y0.213 F700.000
G1 X0.263 Y0.231 F700.000
G1 X0.247 Y0.247 F700.000
G1 X0.231 Y0.263 F700.000
G1 X0.213 Y0.278 F700.000
G1 X0.194 Y0.291 F700.000
G1 X0.175 Y0.303 F700.000
G1 X0.155 Y0.314 F700.000
G1 X0.134 Y0.323 F700.000
G1 X0.113 Y0.331 F700.000
G1 X0.091 Y0.338 F700.000
G1 X0.068 Y0.343 F700.000
G1 X0.046 Y0.347 F700.000
G1 X0.023 Y0.349 F700.000
G1 X0.000 Y0.350 F700.000
G1 X-0.023 Y0.349 F700.000
G1 X-0.046 Y0.347 F700.000
G1 X-0.068 Y0.343 F700.000
G1 X-0.091 Y0.338 F700.000
G1 X-0.113 Y0.331 F700.000
G1 X-0.134 Y0.323 F700.000
G1 X-0.155 Y0.314 F700.000
G1 X-0.175 Y0.303 F700.000
G1 X-0.194 Y0.291 F700.000
G1 X-0.213 Y0.278 F700.000
G1 X-0.231 Y0.263 F700.000
G1 X-0.247 Y0.247 F700.000
G1 X-0.263 Y0.231 F700.000
G1 X-0.278 Y0.213 F700.000
G1 X-0.291 Y0.194 F700.000
G1 X-0.303 Y0.175 F700.000
G1 X-0.314 Y0.155 F700.000
G1 X-0.323 Y0.134 F700.000
G1 X-0.331 Y0.113 F700.000
G1 X-0.338 Y0.091 F700.000
G1 X-0.343 Y0.068 F700.000
G1 X-0.347 Y0.046 F700.000
G1 X-0.349 Y0.023 F700.000
G1 X-0.350 Y0.000 F700.000
G1 X-0.349 Y-0.023 F700.000
G1 X-0.347 Y-0.046 F700.000
G1 X-0.343 Y-0.068 F700.000
G1 X-0.338 Y-0.091 F700.000
G1 X-0.331 Y-0.113 F700.000
G1 X-0.323 Y-0.134 F700.000
G1 X-0.314 Y-0.155 F700.000
G1 X-0.303 Y-0.175 F700.000
G1 X-0.291 Y-0.194 F700.000
G1 X-0.278 Y-0.213 F700.000
G1 X-0.263 Y-0.231 F700.000
G1 X-0.247 Y-0.247 F700.000
G1 X-0.231 Y-0.263 F700.000
G1 X-0.213 Y-0.278 F700.000
G1 X-0.194 Y-0.291 F700.000
G1 X-0.175 Y-0.303 F700.000
G1 X-0.155 Y-0.314 F700.000
G1 X-0.134 Y-0.323 F700.000
G1 X-0.113 Y-0.331 F700.000
G1 X-0.091 Y-0.338 F700.000
G1 X-0.068 Y-0.343 F700.000
G1 X-0.046 Y-0.347 F700.000
G1 X-0.023 Y-0.349 F700.000
G1 X-0.000 Y-0.350 F700.000
G1 X0.023 Y-0.349 F700.000
G1 X0.046 Y-0.347 F700.000
G1 X0.068 Y-0.343 F700.000
G1 X0.091 Y-0.338 F700.000
G1 X0.113 Y-0.331 F700.000
G1 X0.134 Y-0.323 F700.000
G1 X0.155 Y-0.314 F700.000
G1 X0.175 Y-0.303 F700.000
G1 X0.194 Y-0.291 F700.000
G1 X0.213 Y-0.278 F700.000
G1 X0.231 Y-0.263 F700.000
G1 X0.247 Y-0.247 F700.000
G1 X0.263 Y-0.231 F700.000
G1 X0.278 Y-0.213 F700.000
G1 X0.291 Y-0.194 F700.000
G1 X0.303 Y-0.175 F700.000
G1 X0.314 Y-0.155 F700.000
G1 X0.323 Y-0.134 F700.000
G1 X0.331 Y-0.113 F700.000
G1 X0.338 Y-0.091 F700.000
G1 X0.343 Y-0.068 F700.000
G1 X0.347 Y-0.046 F700.000
G1 X0.349 Y-0.023 F700.000
G1 X0.350 Y-0.000 F700.000
G0 Z5.000
G0 X9.350 Y0.000
G1 X13.350 Y0.000 Z-1.600 F180.000
G1 X13.350 Y0.000 F700.000
G1 X13.321 Y0.873 F700.000
G1 X13.236 Y1.743 F700.000
G1 X13.093 Y2.604 F700.000
G1 X12.895 Y3.455 F700.000
G1 X12.642 Y4.291 F700.000
G1 X12.334 Y5.109 F700.000
G1 X11.973 Y5.905 F700.000
G1 X11.561 Y6.675 F700.000
G1 X11.100 Y7.417 F700.000
G1 X10.591 Y8.127 F700.000
G1 X10.037 Y8.802 F700.000
G1 X9.440 Y9.440 F700.000
G1 X8.802 Y10.037 F700.000
G1 X8.127 Y10.591 F700.000
G1 X7.417 Y11.100 F700.000
G1 X6.675 Y11.561 F700.000
G1 X5.905 Y11.973 F700.000
G1 X5.109 Y12.334 F700.000
G1 X4.291 Y12.642 F700.000
G1 X3.455 Y12.895 F700.000
G1 X2.604 Y13.093 F700.000
G1 X1.743 Y13.236 F700.000
G1 X0.873 Y13.321 F700.000
G1 X0.000 Y13.350 F700.000
G1 X-0.873 Y13.321 F700.000
G1 X-1.743 Y13.236 F700.000
G1 X-2.604 Y13.093 F700.000
G1 X-3.455 Y12.895 F700.000
G1 X-4.291 Y12.642 F700.000
G1 X-5.109 Y12.334 F700.000
G1 X-5.905 Y11.973 F700.000
G1 X-6.675 Y11.561 F700.000
G1 X-7.417 Y11.100 F700.000
G1 X-8.127 Y10.591 F700.000
G1 X-8.802 Y10.037 F700.000
G1 X-9.440 Y9.440 F700.000
G1 X-10.037 Y8.802 F700.000
G1 X-10.591 Y8.127 F700.000
G1 X-11.100 Y7.417 F700.000
G1 X-11.561 Y6.675 F700.000
G1 X-11.973 Y5.905 F700.000
G1 X-12.334 Y5.109 F700.000
G1 X-12.642 Y4.291 F700.000
G1 X-12.895 Y3.455 F700.000
G1 X-13.093 Y2.604 F700.000
G1 X-13.236 Y1.743 F700.000
G1 X-13.321 Y0.873 F700.000
G1 X-13.350 Y0.000 F700.000
G1 X-13.321 Y-0.873 F700.000
G1 X-13.236 Y-1.743 F700.000
G1 X-13.093 Y-2.604 F700.000
G1 X-12.895 Y-3.455 F700.000
G1 X-12.642 Y-4.291 F700.000
G1 X-12.334 Y-5.109 F700.000
G1 X-11.973 Y-5.905 F700.000
G1 X-11.561 Y-6.675 F700.000
G1 X-11.100 Y-7.417 F700.000
G1 X-10.591 Y-8.127 F700.000
G1 X-10.037 Y-8.802 F700.000
G1 X-9.440 Y-9.440 F700.000
G1 X-8.802 Y-10.037 F700.000
G1 X-8.127 Y-10.591 F700.000
G1 X-7.417 Y-11.100 F700.000
G1 X-6.675 Y-11.561 F700.000
G1 X-5.905 Y-11.973 F700.000
G1 X-5.109 Y-12.334 F700.000
G1 X-4.291 Y-12.642 F700.000
G1 X-3.455 Y-12.895 F700.000
G1 X-2.604 Y-13.093 F700.000
G1 X-1.743 Y-13.236 F700.000
G1 X-0.873 Y-13.321 F700.000
G1 X-0.000 Y-13.350 F700.000
G1 X0.873 Y-13.321 F700.000
G1 X1.743 Y-13.236 F700.000
G1 X2.604 Y-13.093 F700.000
G1 X3.455 Y-12.895 F700.000
G1 X4.291 Y-12.642 F700.000
G1 X5.109 Y-12.334 F700.000
G1 X5.905 Y-11.973 F700.000
G1 X6.675 Y-11.561 F700.000
G1 X7.417 Y-11.100 F700.000
G1 X8.127 Y-10.591 F700.000
G1 X8.802 Y-10.037 F700.000
G1 X9.440 Y-9.440 F700.000
G1 X10.037 Y-8.802 F700.000
G1 X10.591 Y-8.127 F700.000
G1 X11.100 Y-7.417 F700.000
G1 X11.561 Y-6.675 F700.000
G1 X11.973 Y-5.905 F700.000
G1 X12.334 Y-5.109 F700.000
G1 X12.642 Y-4.291 F700.000
G1 X12.895 Y-3.455 F700.000
G1 X13.093 Y-2.604 F700.000
G1 X13.236 Y-1.743 F700.000
G1 X13.321 Y-0.873 F700.000
G1 X13.350 Y-0.000 F700.000
G1 X12.350 Y0.000 F700.000
G1 X12.324 Y0.808 F700.000
G1 X12.244 Y1.612 F700.000
G1 X12.113 Y2.409 F700.000
G1 X11.929 Y3.196 F700.000
G1 X11.695 Y3.970 F700.000
G1 X11.410 Y4.726 F700.000
G1 X11.076 Y5.462 F700.000
G1 X10.695 Y6.175 F700.000
G1 X10.269 Y6.861 F700.000
G1 X9.798 Y7.518 F700.000
G1 X9.285 Y8.143 F700.000
G1 X8.733 Y8.733 F700.000
G1 X8.143 Y9.285 F700.000
G1 X7.518 Y9.798 F700.000
G1 X6.861 Y10.269 F700.000
G1 X6.175 Y10.695 F700.000
G1 X5.462 Y11.076 F700.000
G1 X4.726 Y11.410 F700.000
G1 X3.970 Y11.695 F700.000
G1 X3.196 Y11.929 F700.000
G1 X2.409 Y12.113 F700.000
G1 X1.612 Y12.244 F700.000
G1 X0.808 Y12.324 F700.000
G1 X0.000 Y12.350 F700.000
G1 X-0.808 Y12.324 F700.000
G1 X-1.612 Y12.244 F700.000
G1 X-2.409 Y12.113 F700.000
G1 X-3.196 Y11.929 F700.000
G1 X-3.970 Y11.695 F700.000
G1 X-4.726 Y11.410 F700.000
G1 X-5.462 Y11.076 F700.000
G1 X-6.175 Y10.695 F700.000
G1 X-6.861 Y10.269 F700.000
G1 X-7.518 Y9.798 F700.000
G1 X-8.143 Y9.285 F700.000
G1 X-8.733 Y8.733 F700.000
G1 X-9.285 Y8.143 F700.000
G1 X-9.798 Y7.518 F700.000
G1 X-10.269 Y6.861 F700.000
G1 X-10.695 Y6.175 F700.000
G1 X-11.076 Y5.462 F700.000
G1 X-11.410 Y4.726 F700.000
G1 X-11.695 Y3.970 F700.000
G1 X-11.929 Y3.196 F700.000
G1 X-12.113 Y2.409 F700.000
G1 X-12.244 Y1.612 F700.000
G1 X-12.324 Y0.808 F700.000
G1 X-12.350 Y0.000 F700.000
G1 X-12.324 Y-0.808 F700.000
G1 X-12.244 Y-1.612 F700.000
G1 X-12.113 Y-2.409 F700.000
G1 X-11.929 Y-3.196 F700.000
G1 X-11.695 Y-3.970 F700.000
G1 X-11.410 Y-4.726 F700.000
G1 X-11.076 Y-5.462 F700.000
G1 X-10.695 Y-6.175 F700.000
G1 X-10.269 Y-6.861 F700.000
G1 X-9.798 Y-7.518 F700.000
G1 X-9.285 Y-8.143 F700.000
G1 X-8.733 Y-8.733 F700.000
G1 X-8.143 Y-9.285 F700.000
G1 X-7.518 Y-9.798 F700.000
G1 X-6.861 Y-10.269 F700.000
G1 X-6.175 Y-10.695 F700.000
G1 X-5.462 Y-11.076 F700.000
G1 X-4.726 Y-11.410 F700.000
G1 X-3.970 Y-11.695 F700.000
G1 X-3.196 Y-11.929 F700.000
G1 X-2.409 Y-12.113 F700.000
G1 X-1.612 Y-12.244 F700.000
G1 X-0.808 Y-12.324 F700.000
G1 X-0.000 Y-12.350 F700.000
G1 X0.808 Y-12.324 F700.000
G1 X1.612 Y-12.244 F700.000
G1 X2.409 Y-12.113 F700.000
G1 X3.196 Y-11.929 F700.000
G1 X3.970 Y-11.695 F700.000
G1 X4.726 Y-11.410 F700.000
G1 X5.462 Y-11.076 F700.000
G1 X6.175 Y-10.695 F700.000
G1 X6.861 Y-10.269 F700.000
G1 X7.518 Y-9.798 F700.000
G1 X8.143 Y-9.285 F700.000
G1 X8.733 Y-8.733 F700.000
G1 X9.285 Y-8.143 F700.000
G1 X9.798 Y-7.518 F700.000
G1 X10.269 Y-6.861 F700.000
G1 X10.695 Y-6.175 F700.000
G1 X11.076 Y-5.462 F700.000
G1 X11.410 Y-4.726 F700.000
G1 X11.695 Y-3.970 F700.000
G1 X11.929 Y-3.196 F700.000
G1 X12.113 Y-2.409 F700.000
G1 X12.244 Y-1.612 F700.000
G1 X12.324 Y-0.808 F700.000
G1 X12.350 Y-0.000 F700.000
G1 X11.350 Y0.000 F700.000
G1 X11.326 Y0.742 F700.000
G1 X11.253 Y1.481 F700.000
G1 X11.132 Y2.214 F700.000
G1 X10.963 Y2.938 F700.000
G1 X10.748 Y3.648 F700.000
G1 X10.486 Y4.343 F700.000
G1 X10.180 Y5.020 F700.000
G1 X9.829 Y5.675 F700.000
G1 X9.437 Y6.306 F700.000
G1 X9.005 Y6.909 F700.000
G1 X8.533 Y7.484 F700.000
G1 X8.026 Y8.026 F700.000
G1 X7.484 Y8.533 F700.000
G1 X6.909 Y9.005 F700.000
G1 X6.306 Y9.437 F700.000
G1 X5.675 Y9.829 F700.000
G1 X5.020 Y10.180 F700.000
G1 X4.343 Y10.486 F700.000
G1 X3.648 Y10.748 F700.000
G1 X2.938 Y10.963 F700.000
G1 X2.214 Y11.132 F700.000
G1 X1.481 Y11.253 F700.000
G1 X0.742 Y11.326 F700.000
G1 X0.000 Y11.350 F700.000
G1 X-0.742 Y11.326 F700.000
G1 X-1.481 Y11.253 F700.000
G1 X-2.214 Y11.132 F700.000
G1 X-2.938 Y10.963 F700.000
G1 X-3.648 Y10.748 F700.000
G1 X-4.343 Y10.486 F700.000
G1 X-5.020 Y10.180 F700.000
G1 X-5.675 Y9.829 F700.000
G1 X-6.306 Y9.437 F700.000
G1 X-6.909 Y9.005 F700.000
G1 X-7.484 Y8.533 F700.000
G1 X-8.026 Y8.026 F700.000
G1 X-8.533 Y7.484 F700.000
G1 X-9.005 Y6.909 F700.000
G1 X-9.437 Y6.306 F700.000
G1 X-9.829 Y5.675 F700.000
G1 X-10.180 Y5.020 F700.000
G1 X-10.486 Y4.343 F700.000
G1 X-10.748 Y3.648 F700.000
G1 X-10.963 Y2.938 F700.000
G1 X-11.132 Y2.214 F700.000
G1 X-11.253 Y1.481 F700.000
G1 X-11.326 Y0.742 F700.000
G1 X-11.350 Y0.000 F700.000
G1 X-11.326 Y-0.742 F700.000
G1 X-11.253 Y-1.481 F700.000
G1 X-11.132 Y-2.214 F700.000
G1 X-10.963 Y-2.938 F700.000
G1 X-10.748 Y-3.648 F700.000
G1 X-10.486 Y-4.343 F700.000
G1 X-10.180 Y-5.020 F700.000
G1 X-9.829 Y-5.675 F700.000
G1 X-9.437 Y-6.306 F700.000
G1 X-9.005 Y-6.909 F700.000
G1 X-8.533 Y-7.484 F700.000
G1 X-8.026 Y-8.026 F700.000
G1 X-7.484 Y-8.533 F700.000
G1 X-6.909 Y-9.005 F700.000
G1 X-6.306 Y-9.437 F700.000
G1 X-5.675 Y-9.829 F700.000
G1 X-5.020 Y-10.180 F700.000
G1 X-4.343 Y-10.486 F700.000
G1 X-3.648 Y-10.748 F700.000
G1 X-2.938 Y-10.963 F700.000
G1 X-2.214 Y-11.132 F700.000
G1 X-1.481 Y-11.253 F700.000
G1 X-0.742 Y-11.326 F700.000
G1 X-0.000 Y-11.350 F700.000
G1 X0.742 Y-11.326 F700.000
G1 X1.481 Y-11.253 F700.000
G1 X2.214 Y-11.132 F700.000
G1 X2.938 Y-10.963 F700.000
G1 X3.648 Y-10.748 F700.000
G1 X4.343 Y-10.486 F700.000
G1 X5.020 Y-10.180 F700.000
G1 X5.675 Y-9.829 F700.000
G1 X6.306 Y-9.437 F700.000
G1 X6.909 Y-9.005 F700.000
G1 X7.484 Y-8.533 F700.000
G1 X8.026 Y-8.026 F700.000
G1 X8.533 Y-7.484 F700.000
G1 X9.005 Y-6.909 F700.000
G1 X9.437 Y-6.306 F700.000
G1 X9.829 Y-5.675 F700.000
G1 X10.180 Y-5.020 F700.000
G1 X10.486 Y-4.343 F700.000
G1 X10.748 Y-3.648 F700.000
G1 X10.963 Y-2.938 F700.000
G1 X11.132 Y-2.214 F700.000
G1 X11.253 Y-1.481 F700.000
G1 X11.326 Y-0.742 F700.000
G1 X11.350 Y-0.000 F700.000
G1 X10.350 Y0.000 F700.000
G1 X10.328 Y0.677 F700.000
G1 X10.261 Y1.351 F700.000
G1 X10.151 Y2.019 F700.000
G1 X9.997 Y2.679 F700.000
G1 X9.801 Y3.327 F700.000
G1 X9.562 Y3.961 F700.000
G1 X9.283 Y4.578 F700.000
G1 X8.963 Y5.175 F700.000
G1 X8.606 Y5.750 F700.000
G1 X8.211 Y6.301 F700.000
G1 X7.782 Y6.824 F700.000
G1 X7.319 Y7.319 F700.000
G1 X6.824 Y7.782 F700.000
G1 X6.301 Y8.211 F700.000
G1 X5.750 Y8.606 F700.000
G1 X5.175 Y8.963 F700.000
G1 X4.578 Y9.283 F700.000
G1 X3.961 Y9.562 F700.000
G1 X3.327 Y9.801 F700.000
G1 X2.679 Y9.997 F700.000
G1 X2.019 Y10.151 F700.000
G1 X1.351 Y10.261 F700.000
G1 X0.677 Y10.328 F700.000
G1 X0.000 Y10.350 F700.000
G1 X-0.677 Y10.328 F700.000
G1 X-1.351 Y10.261 F700.000
G1 X-2.019 Y10.151 F700.000
G1 X-2.679 Y9.997 F700.000
G1 X-3.327 Y9.801 F700.000
G1 X-3.961 Y9.562 F700.000
G1 X-4.578 Y9.283 F700.000
G1 X-5.175 Y8.963 F700.000
G1 X-5.750 Y8.606 F700.000
G1 X-6.301 Y8.211 F700.000
G1 X-6.824 Y7.782 F700.000
G1 X-7.319 Y7.319 F700.000
G1 X-7.782 Y6.824 F700.000
G1 X-8.211 Y6.301 F700.000
G1 X-8.606 Y5.750 F700.000
G1 X-8.963 Y5.175 F700.000
G1 X-9.283 Y4.578 F700.000
G1 X-9.562 Y3.961 F700.000
G1 X-9.801 Y3.327 F700.000
G1 X-9.997 Y2.679 F700.000
G1 X-10.151 Y2.019 F700.000
G1 X-10.261 Y1.351 F700.000
G1 X-10.328 Y0.677 F700.000
G1 X-10.350 Y0.000 F700.000
G1 X-10.328 Y-0.677 F700.000
G1 X-10.261 Y-1.351 F700.000
G1 X-10.151 Y-2.019 F700.000
G1 X-9.997 Y-2.679 F700.000
G1 X-9.801 Y-3.327 F700.000
G1 X-9.562 Y-3.961 F700.000
G1 X-9.283 Y-4.578 F700.000
G1 X-8.963 Y-5.175 F700.000
G1 X-8.606 Y-5.750 F700.000
G1 X-8.211 Y-6.301 F700.000
G1 X-7.782 Y-6.824 F700.000
G1 X-7.319 Y-7.319 F700.000
G1 X-6.824 Y-7.782 F700.000
G1 X-6.301 Y-8.211 F700.000
G1 X-5.750 Y-8.606 F700.000
G1 X-5.175 Y-8.963 F700.000
G1 X-4.578 Y-9.283 F700.000
G1 X-3.961 Y-9.562 F700.000
G1 X-3.327 Y-9.801 F700.000
G1 X-2.679 Y-9.997 F700.000
G1 X-2.019 Y-10.151 F700.000
G1 X-1.351 Y-10.261 F700.000
G1 X-0.677 Y-10.328 F700.000
G1 X-0.000 Y-10.350 F700.000
G1 X0.677 Y-10.328 F700.000
G1 X1.351 Y-10.261 F700.000
G1 X2.019 Y-10.151 F700.000
G1 X2.679 Y-9.997 F700.000
G1 X3.327 Y-9.801 F700.000
G1 X3.961 Y-9.562 F700.000
G1 X4.578 Y-9.283 F700.000
G1 X5.175 Y-8.963 F700.000
G1 X5.750 Y-8.606 F700.000
G1 X6.301 Y-8.211 F700.000
G1 X6.824 Y-7.782 F700.000
G1 X7.319 Y-7.319 F700.000
G1 X7.782 Y-6.824 F700.000
G1 X8.211 Y-6.301 F700.000
G1 X8.606 Y-5.750 F700.000
G1 X8.963 Y-5.175 F700.000
G1 X9.283 Y-4.578 F700.000
G1 X9.562 Y-3.961 F700.000
G1 X9.801 Y-3.327 F700.000
G1 X9.997 Y-2.679 F700.000
G1 X10.151 Y-2.019 F700.000
G1 X10.261 Y-1.351 F700.000
G1 X10.328 Y-0.677 F700.000
G1 X10.350 Y-0.000 F700.000
G1 X9.350 Y0.000 F700.000
G1 X9.330 Y0.612 F700.000
G1 X9.270 Y1.220 F700.000
G1 X9.170 Y1.824 F700.000
G1 X9.031 Y2.420 F700.000
G1 X8.854 Y3.005 F700.000
G1 X8.638 Y3.578 F700.000
G1 X8.386 Y4.135 F700.000
G1 X8.097 Y4.675 F700.000
G1 X7.774 Y5.195 F700.000
G1 X7.418 Y5.692 F700.000
G1 X7.030 Y6.165 F700.000
G1 X6.611 Y6.611 F700.000
G1 X6.165 Y7.030 F700.000
G1 X5.692 Y7.418 F700.000
G1 X5.195 Y7.774 F700.000
G1 X4.675 Y8.097 F700.000
G1 X4.135 Y8.386 F700.000
G1 X3.578 Y8.638 F700.000
G1 X3.005 Y8.854 F700.000
G1 X2.420 Y9.031 F700.000
G1 X1.824 Y9.170 F700.000
G1 X1.220 Y9.270 F700.000
G1 X0.612 Y9.330 F700.000
G1 X0.000 Y9.350 F700.000
G1 X-0.612 Y9.330 F700.000
G1 X-1.220 Y9.270 F700.000
G1 X-1.824 Y9.170 F700.000
G1 X-2.420 Y9.031 F700.000
G1 X-3.005 Y8.854 F700.000
G1 X-3.578 Y8.638 F700.000
G1 X-4.135 Y8.386 F700.000
G1 X-4.675 Y8.097 F700.000
G1 X-5.195 Y7.774 F700.000
G1 X-5.692 Y7.418 F700.000
G1 X-6.165 Y7.030 F700.000
G1 X-6.611 Y6.611 F700.000
G1 X-7.030 Y6.165 F700.000
G1 X-7.418 Y5.692 F700.000
G1 X-7.774 Y5.195 F700.000
G1 X-8.097 Y4.675 F700.000
G1 X-8.386 Y4.135 F700.000
G1 X-8.638 Y3.578 F700.000
G1 X-8.854 Y3.005 F700.000
G1 X-9.031 Y2.420 F700.000
G1 X-9.170 Y1.824 F700.000
G1 X-9.270 Y1.220 F700.000
G1 X-9.330 Y0.612 F700.000
G1 X-9.350 Y0.000 F700.000
G1 X-9.330 Y-0.612 F700.000
G1 X-9.270 Y-1.220 F700.000
G1 X-9.170 Y-1.824 F700.000
G1 X-9.031 Y-2.420 F700.000
G1 X-8.854 Y-3.005 F700.000
G1 X-8.638 Y-3.578 F700.000
G1 X-8.386 Y-4.135 F700.000
G1 X-8.097 Y-4.675 F700.000
G1 X-7.774 Y-5.195 F700.000
G1 X-7.418 Y-5.692 F700.000
G1 X-7.030 Y-6.165 F700.000
G1 X-6.611 Y-6.611 F700.000
G1 X-6.165 Y-7.030 F700.000
G1 X-5.692 Y-7.418 F700.000
G1 X-5.195 Y-7.774 F700.000
G1 X-4.675 Y-8.097 F700.000
G1 X-4.135 Y-8.386 F700.000
G1 X-3.578 Y-8.638 F700.000
G1 X-3.005 Y-8.854 F700.000
G1 X-2.420 Y-9.031 F700.000
G1 X-1.824 Y-9.170 F700.000
G1 X-1.220 Y-9.270 F700.000
G1 X-0.612 Y-9.330 F700.000
G1 X-0.000 Y-9.350 F700.000
G1 X0.612 Y-9.330 F700.000
G1 X1.220 Y-9.270 F700.000
G1 X1.824 Y-9.170 F700.000
G1 X2.420 Y-9.031 F700.000
G1 X3.005 Y-8.854 F700.000
G1 X3.578 Y-8.638 F700.000
G1 X4.135 Y-8.386 F700.000
G1 X4.675 Y-8.097 F700.000
G1 X5.195 Y-7.774 F700.000
G1 X5.692 Y-7.418 F700.000
G1 X6.165 Y-7.030 F700.000
G1 X6.611 Y-6.611 F700.000
G1 X7.030 Y-6.165 F700.000
G1 X7.418 Y-5.692 F700.000
G1 X7.774 Y-5.195 F700.000
G1 X8.097 Y-4.675 F700.000
G1 X8.386 Y-4.135 F700.000
G1 X8.638 Y-3.578 F700.000
G1 X8.854 Y-3.005 F700.000
G1 X9.031 Y-2.420 F700.000
G1 X9.170 Y-1.824 F700.000
G1 X9.270 Y-1.220 F700.000
G1 X9.330 Y-0.612 F700.000
G1 X9.350 Y-0.000 F700.000
G1 X8.350 Y0.000 F700.000
G1 X8.332 Y0.546 F700.000
G1 X8.279 Y1.090 F700.000
G1 X8.190 Y1.629 F700.000
G1 X8.065 Y2.161 F700.000
G1 X7.907 Y2.684 F700.000
G1 X7.714 Y3.195 F700.000
G1 X7.489 Y3.693 F700.000
G1 X7.231 Y4.175 F700.000
G1 X6.943 Y4.639 F700.000
G1 X6.625 Y5.083 F700.000
G1 X6.278 Y5.506 F700.000
G1 X5.904 Y5.904 F700.000
G1 X5.506 Y6.278 F700.000
G1 X5.083 Y6.625 F700.000
G1 X4.639 Y6.943 F700.000
G1 X4.175 Y7.231 F700.000
G1 X3.693 Y7.489 F700.000
G1 X3.195 Y7.714 F700.000
G1 X2.684 Y7.907 F700.000
G1 X2.161 Y8.065 F700.000
G1 X1.629 Y8.190 F700.000
G1 X1.090 Y8.279 F700.000
G1 X0.546 Y8.332 F700.000
G1 X0.000 Y8.350 F700.000
G1 X-0.546 Y8.332 F700.000
G1 X-1.090 Y8.279 F700.000
G1 X-1.629 Y8.190 F700.000
G1 X-2.161 Y8.065 F700.000
G1 X-2.684 Y7.907 F700.000
G1 X-3.195 Y7.714 F700.000
G1 X-3.693 Y7.489 F700.000
G1 X-4.175 Y7.231 F700.000
G1 X-4.639 Y6.943 F700.000
G1 X-5.083 Y6.625 F700.000
G1 X-5.506 Y6.278 F700.000
G1 X-5.904 Y5.904 F700.000
G1 X-6.278 Y5.506 F700.000
G1 X-6.625 Y5.083 F700.000
G1 X-6.943 Y4.639 F700.000
G1 X-7.231 Y4.175 F700.000
G1 X-7.489 Y3.693 F700.000
G1 X-7.714 Y3.195 F700.000
G1 X-7.907 Y2.684 F700.000
G1 X-8.065 Y2.161 F700.000
G1 X-8.190 Y1.629 F700.000
G1 X-8.279 Y1.090 F700.000
G1 X-8.332 Y0.546 F700.000
G1 X-8.350 Y0.000 F700.000
G1 X-8.332 Y-0.546 F700.000
G1 X-8.279 Y-1.090 F700.000
G1 X-8.190 Y-1.629 F700.000
G1 X-8.065 Y-2.161 F700.000
G1 X-7.907 Y-2.684 F700.000
G1 X-7.714 Y-3.195 F700.000
G1 X-7.489 Y-3.693 F700.000
G1 X-7.231 Y-4.175 F700.000
G1 X-6.943 Y-4.639 F700.000
G1 X-6.625 Y-5.083 F700.000
G1 X-6.278 Y-5.506 F700.000
G1 X-5.904 Y-5.904 F700.000
G1 X-5.506 Y-6.278 F700.000
G1 X-5.083 Y-6.625 F700.000
G1 X-4.639 Y-6.943 F700.000
G1 X-4.175 Y-7.231 F700.000
G1 X-3.693 Y-7.489 F700.000
G1 X-3.195 Y-7.714 F700.000
G1 X-2.684 Y-7.907 F700.000
G1 X-2.161 Y-8.065 F700.000
G1 X-1.629 Y-8.190 F700.000
G1 X-1.090 Y-8.279 F700.000
G1 X-0.546 Y-8.332 F700.000
G1 X-0.000 Y-8.350 F700.000
G1 X0.546 Y-8.332 F700.000
G1 X1.090 Y-8.279 F700.000
G1 X1.629 Y-8.190 F700.000
G1 X2.161 Y-8.065 F700.000
G1 X2.684 Y-7.907 F700.000
G1 X3.195 Y-7.714 F700.000
G1 X3.693 Y-7.489 F700.000
G1 X4.175 Y-7.231 F700.000
G1 X4.639 Y-6.943 F700.000
G1 X5.083 Y-6.625 F700.000
G1 X5.506 Y-6.278 F700.000
G1 X5.904 Y-5.904 F700.000
G1 X6.278 Y-5.506 F700.000
G1 X6.625 Y-5.083 F700.000
G1 X6.943 Y-4.639 F700.000
G1 X7.231 Y-4.175 F700.000
G1 X7.489 Y-3.693 F700.000
G1 X7.714 Y-3.195 F700.000
G1 X7.907 Y-2.684 F700.000
G1 X8.065 Y-2.161 F700.000
G1 X8.190 Y-1.629 F700.000
G1 X8.279 Y-1.090 F700.000
G1 X8.332 Y-0.546 F700.000
G1 X8.350 Y-0.000 F700.000
G1 X7.350 Y0.000 F700.000
G1 X7.334 Y0.481 F700.000
G1 X7.287 Y0.959 F700.000
G1 X7.209 Y1.434 F700.000
G1 X7.100 Y1.902 F700.000
G1 X6.960 Y2.363 F700.000
G1 X6.791 Y2.813 F700.000
G1 X6.592 Y3.251 F700.000
G1 X6.365 Y3.675 F700.000
G1 X6.111 Y4.083 F700.000
G1 X5.831 Y4.474 F700.000
G1 X5.526 Y4.846 F700.000
G1 X5.197 Y5.197 F700.000
G1 X4.846 Y5.526 F700.000
G1 X4.474 Y5.831 F700.000
G1 X4.083 Y6.111 F700.000
G1 X3.675 Y6.365 F700.000
G1 X3.251 Y6.592 F700.000
G1 X2.813 Y6.791 F700.000
G1 X2.363 Y6.960 F700.000
G1 X1.902 Y7.100 F700.000
G1 X1.434 Y7.209 F700.000
G1 X0.959 Y7.287 F700.000
G1 X0.481 Y7.334 F700.000
G1 X0.000 Y7.350 F700.000
G1 X-0.481 Y7.334 F700.000
G1 X-0.959 Y7.287 F700.000
G1 X-1.434 Y7.209 F700.000
G1 X-1.902 Y7.100 F700.000
G1 X-2.363 Y6.960 F700.000
G1 X-2.813 Y6.791 F700.000
G1 X-3.251 Y6.592 F700.000
G1 X-3.675 Y6.365 F700.000
G1 X-4.083 Y6.111 F700.000
G1 X-4.474 Y5.831 F700.000
G1 X-4.846 Y5.526 F700.000
G1 X-5.197 Y5.197 F700.000
G1 X-5.526 Y4.846 F700.000
G1 X-5.831 Y4.474 F700.000
G1 X-6.111 Y4.083 F700.000
G1 X-6.365 Y3.675 F700.000
G1 X-6.592 Y3.251 F700.000
G1 X-6.791 Y2.813 F700.000
G1 X-6.960 Y2.363 F700.000
G1 X-7.100 Y1.902 F700.000
G1 X-7.209 Y1.434 F700.000
G1 X-7.287 Y0.959 F700.000
G1 X-7.334 Y0.481 F700.000
G1 X-7.350 Y0.000 F700.000
G1 X-7.334 Y-0.481 F700.000
G1 X-7.287 Y-0.959 F700.000
G1 X-7.209 Y-1.434 F700.000
G1 X-7.100 Y-1.902 F700.000
G1 X-6.960 Y-2.363 F700.000
G1 X-6.791 Y-2.813 F700.000
G1 X-6.592 Y-3.251 F700.000
G1 X-6.365 Y-3.675 F700.000
G1 X-6.111 Y-4.083 F700.000
G1 X-5.831 Y-4.474 F700.000
G1 X-5.526 Y-4.846 F700.000
G1 X-5.197 Y-5.197 F700.000
G1 X-4.846 Y-5.526 F700.000
G1 X-4.474 Y-5.831 F700.000
G1 X-4.083 Y-6.111 F700.000
G1 X-3.675 Y-6.365 F700.000
G1 X-3.251 Y-6.592 F700.000
G1 X-2.813 Y-6.791 F700.000
G1 X-2.363 Y-6.960 F700.000
G1 X-1.902 Y-7.100 F700.000
G1 X-1.434 Y-7.209 F700.000
G1 X-0.959 Y-7.287 F700.000
G1 X-0.481 Y-7.334 F700.000
G1 X-0.000 Y-7.350 F700.000
G1 X0.481 Y-7.334 F700.000
G1 X0.959 Y-7.287 F700.000
G1 X1.434 Y-7.209 F700.000
G1 X1.902 Y-7.100 F700.000
G1 X2.363 Y-6.960 F700.000
G1 X2.813 Y-6.791 F700.000
G1 X3.251 Y-6.592 F700.000
G1 X3.675 Y-6.365 F700.000
G1 X4.083 Y-6.111 F700.000
G1 X4.474 Y-5.831 F700.000
G1 X4.846 Y-5.526 F700.000
G1 X5.197 Y-5.197 F700.000
G1 X5.526 Y-4.846 F700.000
G1 X5.831 Y-4.474 F700.000
G1 X6.111 Y-4.083 F700.000
G1 X6.365 Y-3.675 F700.000
G1 X6.592 Y-3.251 F700.000
G1 X6.791 Y-2.813 F700.000
G1 X6.960 Y-2.363 F700.000
G1 X7.100 Y-1.902 F700.000
G1 X7.209 Y-1.434 F700.000
G1 X7.287 Y-0.959 F700.000
G1 X7.334 Y-0.481 F700.000
G1 X7.350 Y-0.000 F700.000
G1 X6.350 Y0.000 F700.000
G1 X6.336 Y0.415 F700.000
G1 X6.296 Y0.829 F700.000
G1 X6.228 Y1.239 F700.000
G1 X6.134 Y1.644 F700.000
G1 X6.013 Y2.041 F700.000
G1 X5.867 Y2.430 F700.000
G1 X5.695 Y2.809 F700.000
G1 X5.499 Y3.175 F700.000
G1 X5.280 Y3.528 F700.000
G1 X5.038 Y3.866 F700.000
G1 X4.774 Y4.187 F700.000
G1 X4.490 Y4.490 F700.000
G1 X4.187 Y4.774 F700.000
G1 X3.866 Y5.038 F700.000
G1 X3.528 Y5.280 F700.000
G1 X3.175 Y5.499 F700.000
G1 X2.809 Y5.695 F700.000
G1 X2.430 Y5.867 F700.000
G1 X2.041 Y6.013 F700.000
G1 X1.644 Y6.134 F700.000
G1 X1.239 Y6.228 F700.000
G1 X0.829 Y6.296 F700.000
G1 X0.415 Y6.336 F700.000
G1 X0.000 Y6.350 F700.000
G1 X-0.415 Y6.336 F700.000
G1 X-0.829 Y6.296 F700.000
G1 X-1.239 Y6.228 F700.000
G1 X-1.644 Y6.134 F700.000
G1 X-2.041 Y6.013 F700.000
G1 X-2.430 Y5.867 F700.000
G1 X-2.809 Y5.695 F700.000
G1 X-3.175 Y5.499 F700.000
G1 X-3.528 Y5.280 F700.000
G1 X-3.866 Y5.038 F700.000
G1 X-4.187 Y4.774 F700.000
G1 X-4.490 Y4.490 F700.000
G1 X-4.774 Y4.187 F700.000
G1 X-5.038 Y3.866 F700.000
G1 X-5.280 Y3.528 F700.000
G1 X-5.499 Y3.175 F700.000
G1 X-5.695 Y2.809 F700.000
G1 X-5.867 Y2.430 F700.000
G1 X-6.013 Y2.041 F700.000
G1 X-6.134 Y1.644 F700.000
G1 X-6.228 Y1.239 F700.000
G1 X-6.296 Y0.829 F700.000
G1 X-6.336 Y0.415 F700.000
G1 X-6.350 Y0.000 F700.000
G1 X-6.336 Y-0.415 F700.000
G1 X-6.296 Y-0.829 F700.000
G1 X-6.228 Y-1.239 F700.000
G1 X-6.134 Y-1.644 F700.000
G1 X-6.013 Y-2.041 F700.000
G1 X-5.867 Y-2.430 F700.000
G1 X-5.695 Y-2.809 F700.000
G1 X-5.499 Y-3.175 F700.000
G1 X-5.280 Y-3.528 F700.000
G1 X-5.038 Y-3.866 F700.000
G1 X-4.774 Y-4.187 F700.000
G1 X-4.490 Y-4.490 F700.000
G1 X-4.187 Y-4.774 F700.000
G1 X-3.866 Y-5.038 F700.000
G1 X-3.528 Y-5.280 F700.000
G1 X-3.175 Y-5.499 F700.000
G1 X-2.809 Y-5.695 F700.000
G1 X-2.430 Y-5.867 F700.000
G1 X-2.041 Y-6.013 F700.000
G1 X-1.644 Y-6.134 F700.000
G1 X-1.239 Y-6.228 F700.000
G1 X-0.829 Y-6.296 F700.000
G1 X-0.415 Y-6.336 F700.000
G1 X-0.000 Y-6.350 F700.000
G1 X0.415 Y-6.336 F700.000
G1 X0.829 Y-6.296 F700.000
G1 X1.239 Y-6.228 F700.000
G1 X1.644 Y-6.134 F700.000
G1 X2.041 Y-6.013 F700.000
G1 X2.430 Y-5.867 F700.000
G1 X2.809 Y-5.695 F700.000
G1 X3.175 Y-5.499 F700.000
G1 X3.528 Y-5.280 F700.000
G1 X3.866 Y-5.038 F700.000
G1 X4.187 Y-4.774 F700.000
G1 X4.490 Y-4.490 F700.000
G1 X4.774 Y-4.187 F700.000
G1 X5.038 Y-3.866 F700.000
G1 X5.280 Y-3.528 F700.000
G1 X5.499 Y-3.175 F700.000
G1 X5.695 Y-2.809 F700.000
G1 X5.867 Y-2.430 F700.000
G1 X6.013 Y-2.041 F700.000
G1 X6.134 Y-1.644 F700.000
G1 X6.228 Y-1.239 F700.000
G1 X6.296 Y-0.829 F700.000
G1 X6.336 Y-0.415 F700.000
G1 X6.350 Y-0.000 F700.000
G1 X5.350 Y0.000 F700.000
G1 X5.339 Y0.350 F700.000
G1 X5.304 Y0.698 F700.000
G1 X5.247 Y1.044 F700.000
G1 X5.168 Y1.385 F700.000
G1 X5.066 Y1.720 F700.000
G1 X4.943 Y2.047 F700.000
G1 X4.798 Y2.366 F700.000
G1 X4.633 Y2.675 F700.000
G1 X4.448 Y2.972 F700.000
G1 X4.244 Y3.257 F700.000
G1 X4.022 Y3.528 F700.000
G1 X3.783 Y3.783 F700.000
G1 X3.528 Y4.022 F700.000
G1 X3.257 Y4.244 F700.000
G1 X2.972 Y4.448 F700.000
G1 X2.675 Y4.633 F700.000
G1 X2.366 Y4.798 F700.000
G1 X2.047 Y4.943 F700.000
G1 X1.720 Y5.066 F700.000
G1 X1.385 Y5.168 F700.000
G1 X1.044 Y5.247 F700.000
G1 X0.698 Y5.304 F700.000
G1 X0.350 Y5.339 F700.000
G1 X0.000 Y5.350 F700.000
G1 X-0.350 Y5.339 F700.000
G1 X-0.698 Y5.304 F700.000
G1 X-1.044 Y5.247 F700.000
G1 X-1.385 Y5.168 F700.000
G1 X-1.720 Y5.066 F700.000
G1 X-2.047 Y4.943 F700.000
G1 X-2.366 Y4.798 F700.000
G1 X-2.675 Y4.633 F700.000
G1 X-2.972 Y4.448 F700.000
G1 X-3.257 Y4.244 F700.000
G1 X-3.528 Y4.022 F700.000
G1 X-3.783 Y3.783 F700.000
G1 X-4.022 Y3.528 F700.000
G1 X-4.244 Y3.257 F700.000
G1 X-4.448 Y2.972 F700.000
G1 X-4.633 Y2.675 F700.000
G1 X-4.798 Y2.366 F700.000
G1 X-4.943 Y2.047 F700.000
G1 X-5.066 Y1.720 F700.000
G1 X-5.168 Y1.385 F700.000
G1 X-5.247 Y1.044 F700.000
G1 X-5.304 Y0.698 F700.000
G1 X-5.339 Y0.350 F700.000
G1 X-5.350 Y0.000 F700.000
G1 X-5.339 Y-0.350 F700.000
G1 X-5.304 Y-0.698 F700.000
G1 X-5.247 Y-1.044 F700.000
G1 X-5.168 Y-1.385 F700.000
G1 X-5.066 Y-1.720 F700.000
G1 X-4.943 Y-2.047 F700.000
G1 X-4.798 Y-2.366 F700.000
G1 X-4.633 Y-2.675 F700.000
G1 X-4.448 Y-2.972 F700.000
G1 X-4.244 Y-3.257 F700.000
G1 X-4.022 Y-3.528 F700.000
G1 X-3.783 Y-3.783 F700.000
G1 X-3.528 Y-4.022 F700.000
G1 X-3.257 Y-4.244 F700.000
G1 X-2.972 Y-4.448 F700.000
G1 X-2.675 Y-4.633 F700.000
G1 X-2.366 Y-4.798 F700.000
G1 X-2.047 Y-4.943 F700.000
G1 X-1.720 Y-5.066 F700.000
G1 X-1.385 Y-5.168 F700.000
G1 X-1.044 Y-5.247 F700.000
G1 X-0.698 Y-5.304 F700.000
G1 X-0.350 Y-5.339 F700.000
G1 X-0.000 Y-5.350 F700.000
G1 X0.350 Y-5.339 F700.000
G1 X0.698 Y-5.304 F700.000
G1 X1.044 Y-5.247 F700.000
G1 X1.385 Y-5.168 F700.000
G1 X1.720 Y-5.066 F700.000
G1 X2.047 Y-4.943 F700.000
G1 X2.366 Y-4.798 F700.000
G1 X2.675 Y-4.633 F700.000
G1 X2.972 Y-4.448 F700.000
G1 X3.257 Y-4.244 F700.000
G1 X3.528 Y-4.022 F700.000
G1 X3.783 Y-3.783 F700.000
G1 X4.022 Y-3.528 F700.000
G1 X4.244 Y-3.257 F700.000
G1 X4.448 Y-2.972 F700.000
G1 X4.633 Y-2.675 F700.000
G1 X4.798 Y-2.366 F700.000
G1 X4.943 Y-2.047 F700.000
G1 X5.066 Y-1.720 F700.000
G1 X5.168 Y-1.385 F700.000
G1 X5.247 Y-1.044 F700.000
G1 X5.304 Y-0.698 F700.000
G1 X5.339 Y-0.350 F700.000
G1 X5.350 Y-0.000 F700.000
G1 X4.350 Y0.000 F700.000
G1 X4.341 Y0.285 F700.000
G1 X4.313 Y0.568 F700.000
G1 X4.266 Y0.849 F700.000
G1 X4.202 Y1.126 F700.000
G1 X4.119 Y1.398 F700.000
G1 X4.019 Y1.665 F700.000
G1 X3.901 Y1.924 F700.000
G1 X3.767 Y2.175 F700.000
G1 X3.617 Y2.417 F700.000
G1 X3.451 Y2.648 F700.000
G1 X3.271 Y2.868 F700.000
G1 X3.076 Y3.076 F700.000
G1 X2.868 Y3.271 F700.000
G1 X2.648 Y3.451 F700.000
G1 X2.417 Y3.617 F700.000
G1 X2.175 Y3.767 F700.000
G1 X1.924 Y3.901 F700.000
G1 X1.665 Y4.019 F700.000
G1 X1.398 Y4.119 F700.000
G1 X1.126 Y4.202 F700.000
G1 X0.849 Y4.266 F700.000
G1 X0.568 Y4.313 F700.000
G1 X0.285 Y4.341 F700.000
G1 X0.000 Y4.350 F700.000
G1 X-0.285 Y4.341 F700.000
G1 X-0.568 Y4.313 F700.000
G1 X-0.849 Y4.266 F700.000
G1 X-1.126 Y4.202 F700.000
G1 X-1.398 Y4.119 F700.000
G1 X-1.665 Y4.019 F700.000
G1 X-1.924 Y3.901 F700.000
G1 X-2.175 Y3.767 F700.000
G1 X-2.417 Y3.617 F700.000
G1 X-2.648 Y3.451 F700.000
G1 X-2.868 Y3.271 F700.000
G1 X-3.076 Y3.076 F700.000
G1 X-3.271 Y2.868 F700.000
G1 X-3.451 Y2.648 F700.000
G1 X-3.617 Y2.417 F700.000
G1 X-3.767 Y2.175 F700.000
G1 X-3.901 Y1.924 F700.000
G1 X-4.019 Y1.665 F700.000
G1 X-4.119 Y1.398 F700.000
G1 X-4.202 Y1.126 F700.000
G1 X-4.266 Y0.849 F700.000
G1 X-4.313 Y0.568 F700.000
G1 X-4.341 Y0.285 F700.000
G1 X-4.350 Y0.000 F700.000
G1 X-4.341 Y-0.285 F700.000
G1 X-4.313 Y-0.568 F700.000
G1 X-4.266 Y-0.849 F700.000
G1 X-4.202 Y-1.126 F700.000
G1 X-4.119 Y-1.398 F700.000
G1 X-4.019 Y-1.665 F700.000
G1 X-3.901 Y-1.924 F700.000
G1 X-3.767 Y-2.175 F700.000
G1 X-3.617 Y-2.417 F700.000
G1 X-3.451 Y-2.648 F700.000
G1 X-3.271 Y-2.868 F700.000
G1 X-3.076 Y-3.076 F700.000
G1 X-2.868 Y-3.271 F700.000
G1 X-2.648 Y-3.451 F700.000
G1 X-2.417 Y-3.617 F700.000
G1 X-2.175 Y-3.767 F700.000
G1 X-1.924 Y-3.901 F700.000
G1 X-1.665 Y-4.019 F700.000
G1 X-1.398 Y-4.119 F700.000
G1 X-1.126 Y-4.202 F700.000
G1 X-0.849 Y-4.266 F700.000
G1 X-0.568 Y-4.313 F700.000
G1 X-0.285 Y-4.341 F700.000
G1 X-0.000 Y-4.350 F700.000
G1 X0.285 Y-4.341 F700.000
G1 X0.568 Y-4.313 F700.000
G1 X0.849 Y-4.266 F700.000
G1 X1.126 Y-4.202 F700.000
G1 X1.398 Y-4.119 F700.000
G1 X1.665 Y-4.019 F700.000
G1 X1.924 Y-3.901 F700.000
G1 X2.175 Y-3.767 F700.000
G1 X2.417 Y-3.617 F700.000
G1 X2.648 Y-3.451 F700.000
G1 X2.868 Y-3.271 F700.000
G1 X3.076 Y-3.076 F700.000
G1 X3.271 Y-2.868 F700.000
G1 X3.451 Y-2.648 F700.000
G1 X3.617 Y-2.417 F700.000
G1 X3.767 Y-2.175 F700.000
G1 X3.901 Y-1.924 F700.000
G1 X4.019 Y-1.665 F700.000
G1 X4.119 Y-1.398 F700.000
G1 X4.202 Y-1.126 F700.000
G1 X4.266 Y-0.849 F700.000
G1 X4.313 Y-0.568 F700.000
G1 X4.341 Y-0.285 F700.000
G1 X4.350 Y-0.000 F700.000
G1 X3.350 Y0.000 F700.000
G1 X3.343 Y0.219 F700.000
G1 X3.321 Y0.437 F700.000
G1 X3.286 Y0.654 F700.000
G1 X3.236 Y0.867 F700.000
G1 X3.172 Y1.077 F700.000
G1 X3.095 Y1.282 F700.000
G1 X3.005 Y1.482 F700.000
G1 X2.901 Y1.675 F700.000
G1 X2.785 Y1.861 F700.000
G1 X2.658 Y2.039 F700.000
G1 X2.519 Y2.209 F700.000
G1 X2.369 Y2.369 F700.000
G1 X2.209 Y2.519 F700.000
G1 X2.039 Y2.658 F700.000
G1 X1.861 Y2.785 F700.000
G1 X1.675 Y2.901 F700.000
G1 X1.482 Y3.005 F700.000
G1 X1.282 Y3.095 F700.000
G1 X1.077 Y3.172 F700.000
G1 X0.867 Y3.236 F700.000
G1 X0.654 Y3.286 F700.000
G1 X0.437 Y3.321 F700.000
G1 X0.219 Y3.343 F700.000
G1 X0.000 Y3.350 F700.000
G1 X-0.219 Y3.343 F700.000
G1 X-0.437 Y3.321 F700.000
G1 X-0.654 Y3.286 F700.000
G1 X-0.867 Y3.236 F700.000
G1 X-1.077 Y3.172 F700.000
G1 X-1.282 Y3.095 F700.000
G1 X-1.482 Y3.005 F700.000
G1 X-1.675 Y2.901 F700.000
G1 X-1.861 Y2.785 F700.000
G1 X-2.039 Y2.658 F700.000
G1 X-2.209 Y2.519 F700.000
G1 X-2.369 Y2.369 F700.000
G1 X-2.519 Y2.209 F700.000
G1 X-2.658 Y2.039 F700.000
G1 X-2.785 Y1.861 F700.000
G1 X-2.901 Y1.675 F700.000
G1 X-3.005 Y1.482 F700.000
G1 X-3.095 Y1.282 F700.000
G1 X-3.172 Y1.077 F700.000
G1 X-3.236 Y0.867 F700.000
G1 X-3.286 Y0.654 F700.000
G1 X-3.321 Y0.437 F700.000
G1 X-3.343 Y0.219 F700.000
G1 X-3.350 Y0.000 F700.000
G1 X-3.343 Y-0.219 F700.000
G1 X-3.321 Y-0.437 F700.000
G1 X-3.286 Y-0.654 F700.000
G1 X-3.236 Y-0.867 F700.000
G1 X-3.172 Y-1.077 F700.000
G1 X-3.095 Y-1.282 F700.000
G1 X-3.005 Y-1.482 F700.000
G1 X-2.901 Y-1.675 F700.000
G1 X-2.785 Y-1.861 F700.000
G1 X-2.658 Y-2.039 F700.000
G1 X-2.519 Y-2.209 F700.000
G1 X-2.369 Y-2.369 F700.000
G1 X-2.209 Y-2.519 F700.000
G1 X-2.039 Y-2.658 F700.000
G1 X-1.861 Y-2.785 F700.000
G1 X-1.675 Y-2.901 F700.000
G1 X-1.482 Y-3.005 F700.000
G1 X-1.282 Y-3.095 F700.000
G1 X-1.077 Y-3.172 F700.000
G1 X-0.867 Y-3.236 F700.000
G1 X-0.654 Y-3.286 F700.000
G1 X-0.437 Y-3.321 F700.000
G1 X-0.219 Y-3.343 F700.000
G1 X-0.000 Y-3.350 F700.000
G1 X0.219 Y-3.343 F700.000
G1 X0.437 Y-3.321 F700.000
G1 X0.654 Y-3.286 F700.000
G1 X0.867 Y-3.236 F700.000
G1 X1.077 Y-3.172 F700.000
G1 X1.282 Y-3.095 F700.000
G1 X1.482 Y-3.005 F700.000
G1 X1.675 Y-2.901 F700.000
G1 X1.861 Y-2.785 F700.000
G1 X2.039 Y-2.658 F700.000
G1 X2.209 Y-2.519 F700.000
G1 X2.369 Y-2.369 F700.000
G1 X2.519 Y-2.209 F700.000
G1 X2.658 Y-2.039 F700.000
G1 X2.785 Y-1.861 F700.000
G1 X2.901 Y-1.675 F700.000
G1 X3.005 Y-1.482 F700.000
G1 X3.095 Y-1.282 F700.000
G1 X3.172 Y-1.077 F700.000
G1 X3.236 Y-0.867 F700.000
G1 X3.286 Y-0.654 F700.000
G1 X3.321 Y-0.437 F700.000
G1 X3.343 Y-0.219 F700.000
G1 X3.350 Y-0.000 F700.000
G1 X2.350 Y0.000 F700.000
G1 X2.345 Y0.154 F700.000
G1 X2.330 Y0.307 F700.000
G1 X2.305 Y0.458 F700.000
G1 X2.270 Y0.608 F700.000
G1 X2.225 Y0.755 F700.000
G1 X2.171 Y0.899 F700.000
G1 X2.108 Y1.039 F700.000
G1 X2.035 Y1.175 F700.000
G1 X1.954 Y1.306 F700.000
G1 X1.864 Y1.431 F700.000
G1 X1.767 Y1.549 F700.000
G1 X1.662 Y1.662 F700.000
G1 X1.549 Y1.767 F700.000
G1 X1.431 Y1.864 F700.000
G1 X1.306 Y1.954 F700.000
G1 X1.175 Y2.035 F700.000
G1 X1.039 Y2.108 F700.000
G1 X0.899 Y2.171 F700.000
G1 X0.755 Y2.225 F700.000
G1 X0.608 Y2.270 F700.000
G1 X0.458 Y2.305 F700.000
G1 X0.307 Y2.330 F700.000
G1 X0.154 Y2.345 F700.000
G1 X0.000 Y2.350 F700.000
G1 X-0.154 Y2.345 F700.000
G1 X-0.307 Y2.330 F700.000
G1 X-0.458 Y2.305 F700.000
G1 X-0.608 Y2.270 F700.000
G1 X-0.755 Y2.225 F700.000
G1 X-0.899 Y2.171 F700.000
G1 X-1.039 Y2.108 F700.000
G1 X-1.175 Y2.035 F700.000
G1 X-1.306 Y1.954 F700.000
G1 X-1.431 Y1.864 F700.000
G1 X-1.549 Y1.767 F700.000
G1 X-1.662 Y1.662 F700.000
G1 X-1.767 Y1.549 F700.000
G1 X-1.864 Y1.431 F700.000
G1 X-1.954 Y1.306 F700.000
G1 X-2.035 Y1.175 F700.000
G1 X-2.108 Y1.039 F700.000
G1 X-2.171 Y0.899 F700.000
G1 X-2.225 Y0.755 F700.000
G1 X-2.270 Y0.608 F700.000
G1 X-2.305 Y0.458 F700.000
G1 X-2.330 Y0.307 F700.000
G1 X-2.345 Y0.154 F700.000
G1 X-2.350 Y0.000 F700.000
G1 X-2.345 Y-0.154 F700.000
G1 X-2.330 Y-0.307 F700.000
G1 X-2.305 Y-0.458 F700.000
G1 X-2.270 Y-0.608 F700.000
G1 X-2.225 Y-0.755 F700.000
G1 X-2.171 Y-0.899 F700.000
G1 X-2.108 Y-1.039 F700.000
G1 X-2.035 Y-1.175 F700.000
G1 X-1.954 Y-1.306 F700.000
G1 X-1.864 Y-1.431 F700.000
G1 X-1.767 Y-1.549 F700.000
G1 X-1.662 Y-1.662 F700.000
G1 X-1.549 Y-1.767 F700.000
G1 X-1.431 Y-1.864 F700.000
G1 X-1.306 Y-1.954 F700.000
G1 X-1.175 Y-2.035 F700.000
G1 X-1.039 Y-2.108 F700.000
G1 X-0.899 Y-2.171 F700.000
G1 X-0.755 Y-2.225 F700.000
G1 X-0.608 Y-2.270 F700.000
G1 X-0.458 Y-2.305 F700.000
G1 X-0.307 Y-2.330 F700.000
G1 X-0.154 Y-2.345 F700.000
G1 X-0.000 Y-2.350 F700.000
G1 X0.154 Y-2.345 F700.000
G1 X0.307 Y-2.330 F700.000
G1 X0.458 Y-2.305 F700.000
G1 X0.608 Y-2.270 F700.000
G1 X0.755 Y-2.225 F700.000
G1 X0.899 Y-2.171 F700.000
G1 X1.039 Y-2.108 F700.000
G1 X1.175 Y-2.035 F700.000
G1 X1.306 Y-1.954 F700.000
G1 X1.431 Y-1.864 F700.000
G1 X1.549 Y-1.767 F700.000
G1 X1.662 Y-1.662 F700.000
G1 X1.767 Y-1.549 F700.000
G1 X1.864 Y-1.431 F700.000
G1 X1.954 Y-1.306 F700.000
G1 X2.035 Y-1.175 F700.000
G1 X2.108 Y-1.039 F700.000
G1 X2.171 Y-0.899 F700.000
G1 X2.225 Y-0.755 F700.000
G1 X2.270 Y-0.608 F700.000
G1 X2.305 Y-0.458 F700.000
G1 X2.330 Y-0.307 F700.000
G1 X2.345 Y-0.154 F700.000
G1 X2.350 Y-0.000 F700.000
G1 X1.350 Y0.000 F700.000
G1 X1.347 Y0.088 F700.000
G1 X1.338 Y0.176 F700.000
G1 X1.324 Y0.263 F700.000
G1 X1.304 Y0.349 F700.000
G1 X1.278 Y0.434 F700.000
G1 X1.247 Y0.517 F700.000
G1 X1.211 Y0.597 F700.000
G1 X1.169 Y0.675 F700.000
G1 X1.122 Y0.750 F700.000
G1 X1.071 Y0.822 F700.000
G1 X1.015 Y0.890 F700.000
G1 X0.955 Y0.955 F700.000
G1 X0.890 Y1.015 F700.000
G1 X0.822 Y1.071 F700.000
G1 X0.750 Y1.122 F700.000
G1 X0.675 Y1.169 F700.000
G1 X0.597 Y1.211 F700.000
G1 X0.517 Y1.247 F700.000
G1 X0.434 Y1.278 F700.000
G1 X0.349 Y1.304 F700.000
G1 X0.263 Y1.324 F700.000
G1 X0.176 Y1.338 F700.000
G1 X0.088 Y1.347 F700.000
G1 X0.000 Y1.350 F700.000
G1 X-0.088 Y1.347 F700.000
G1 X-0.176 Y1.338 F700.000
G1 X-0.263 Y1.324 F700.000
G1 X-0.349 Y1.304 F700.000
G1 X-0.434 Y1.278 F700.000
G1 X-0.517 Y1.247 F700.000
G1 X-0.597 Y1.211 F700.000
G1 X-0.675 Y1.169 F700.000
G1 X-0.750 Y1.122 F700.000
G1 X-0.822 Y1.071 F700.000
G1 X-0.890 Y1.015 F700.000
G1 X-0.955 Y0.955 F700.000
G1 X-1.015 Y0.890 F700.000
G1 X-1.071 Y0.822 F700.000
G1 X-1.122 Y0.750 F700.000
G1 X-1.169 Y0.675 F700.000
G1 X-1.211 Y0.597 F700.000
G1 X-1.247 Y0.517 F700.000
G1 X-1.278 Y0.434 F700.000
G1 X-1.304 Y0.349 F700.000
G1 X-1.324 Y0.263 F700.000
G1 X-1.338 Y0.176 F700.000
G1 X-1.347 Y0.088 F700.000
G1 X-1.350 Y0.000 F700.000
G1 X-1.347 Y-0.088 F700.000
G1 X-1.338 Y-0.176 F700.000
G1 X-1.324 Y-0.263 F700.000
G1 X-1.304 Y-0.349 F700.000
G1 X-1.278 Y-0.434 F700.000
G1 X-1.247 Y-0.517 F700.000
G1 X-1.211 Y-0.597 F700.000
G1 X-1.169 Y-0.675 F700.000
G1 X-1.122 Y-0.750 F700.000
G1 X-1.071 Y-0.822 F700.000
G1 X-1.015 Y-0.890 F700.000
G1 X-0.955 Y-0.955 F700.000
G1 X-0.890 Y-1.015 F700.000
G1 X-0.822 Y-1.071 F700.000
G1 X-0.750 Y-1.122 F700.000
G1 X-0.675 Y-1.169 F700.000
G1 X-0.597 Y-1.211 F700.000
G1 X-0.517 Y-1.247 F700.000
G1 X-0.434 Y-1.278 F700.000
G1 X-0.349 Y-1.304 F700.000
G1 X-0.263 Y-1.324 F700.000
G1 X-0.176 Y-1.338 F700.000
G1 X-0.088 Y-1.347 F700.000
G1 X-0.000 Y-1.350 F700.000
G1 X0.088 Y-1.347 F700.000
G1 X0.176 Y-1.338 F700.000
G1 X0.263 Y-1.324 F700.000
G1 X0.349 Y-1.304 F700.000
G1 X0.434 Y-1.278 F700.000
G1 X0.517 Y-1.247 F700.000
G1 X0.597 Y-1.211 F700.000
G1 X0.675 Y-1.169 F700.000
G1 X0.750 Y-1.122 F700.000
G1 X0.822 Y-1.071 F700.000
G1 X0.890 Y-1.015 F700.000
G1 X0.955 Y-0.955 F700.000
G1 X1.015 Y-0.890 F700.000
G1 X1.071 Y-0.822 F700.000
G1 X1.122 Y-0.750 F700.000
G1 X1.169 Y-0.675 F700.000
G1 X1.211 Y-0.597 F700.000
G1 X1.247 Y-0.517 F700.000
G1 X1.278 Y-0.434 F700.000
G1 X1.304 Y-0.349 F700.000
G1 X1.324 Y-0.263 F700.000
G1 X1.338 Y-0.176 F700.000
G1 X1.347 Y-0.088 F700.000
G1 X1.350 Y-0.000 F700.000
G1 X0.350 Y0.000 F700.000
G1 X0.349 Y0.023 F700.000
G1 X0.347 Y0.046 F700.000
G1 X0.343 Y0.068 F700.000
G1 X0.338 Y0.091 F700.000
G1 X0.331 Y0.113 F700.000
G1 X0.323 Y0.134 F700.000
G1 X0.314 Y0.155 F700.000
G1 X0.303 Y0.175 F700.000
G1 X0.291 Y0.194 F700.000
G1 X0.278 Y0.213 F700.000
G1 X0.263 Y0.231 F700.000
G1 X0.247 Y0.247 F700.000
G1 X0.231 Y0.263 F700.000
G1 X0.213 Y0.278 F700.000
G1 X0.194 Y0.291 F700.000
G1 X0.175 Y0.303 F700.000
G1 X0.155 Y0.314 F700.000
G1 X0.134 Y0.323 F700.000
G1 X0.113 Y0.331 F700.000
G1 X0.091 Y0.338 F700.000
G1 X0.068 Y0.343 F700.000
G1 X0.046 Y0.347 F700.000
G1 X0.023 Y0.349 F700.000
G1 X0.000 Y0.350 F700.000
G1 X-0.023 Y0.349 F700.000
G1 X-0.046 Y0.347 F700.000
G1 X-0.068 Y0.343 F700.000
G1 X-0.091 Y0.338 F700.000
G1 X-0.113 Y0.331 F700.000
G1 X-0.134 Y0.323 F700.000
G1 X-0.155 Y0.314 F700.000
G1 X-0.175 Y0.303 F700.000
G1 X-0.194 Y0.291 F700.000
G1 X-0.213 Y0.278 F700.000
G1 X-0.231 Y0.263 F700.000
G1 X-0.247 Y0.247 F700.000
G1 X-0.263 Y0.231 F700.000
G1 X-0.278 Y0.213 F700.000
G1 X-0.291 Y0.194 F700.000
G1 X-0.303 Y0.175 F700.000
G1 X-0.314 Y0.155 F700.000
G1 X-0.323 Y0.134 F700.000
G1 X-0.331 Y0.113 F700.000
G1 X-0.338 Y0.091 F700.000
G1 X-0.343 Y0.068 F700.000
G1 X-0.347 Y0.046 F700.000
G1 X-0.349 Y0.023 F700.000
G1 X-0.350 Y0.000 F700.000
G1 X-0.349 Y-0.023 F700.000
G1 X-0.347 Y-0.046 F700.000
G1 X-0.343 Y-0.068 F700.000
G1 X-0.338 Y-0.091 F700.000
G1 X-0.331 Y-0.113 F700.000
G1 X-0.323 Y-0.134 F700.000
G1 X-0.314 Y-0.155 F700.000
G1 X-0.303 Y-0.175 F700.000
G1 X-0.291 Y-0.194 F700.000
G1 X-0.278 Y-0.213 F700.000
G1 X-0.263 Y-0.231 F700.000
G1 X-0.247 Y-0.247 F700.000
G1 X-0.231 Y-0.263 F700.000
G1 X-0.213 Y-0.278 F700.000
G1 X-0.194 Y-0.291 F700.000
G1 X-0.175 Y-0.303 F700.000
G1 X-0.155 Y-0.314 F700.000
G1 X-0.134 Y-0.323 F700.000
G1 X-0.113 Y-0.331 F700.000
G1 X-0.091 Y-0.338 F700.000
G1 X-0.068 Y-0.343 F700.000
G1 X-0.046 Y-0.347 F700.000
G1 X-0.023 Y-0.349 F700.000
G1 X-0.000 Y-0.350 F700.000
G1 X0.023 Y-0.349 F700.000
G1 X0.046 Y-0.347 F700.000
G1 X0.068 Y-0.343 F700.000
G1 X0.091 Y-0.338 F700.000
G1 X0.113 Y-0.331 F700.000
G1 X0.134 Y-0.323 F700.000
G1 X0.155 Y-0.314 F700.000
G1 X0.175 Y-0.303 F700.000
G1 X0.194 Y-0.291 F700.000
G1 X0.213 Y-0.278 F700.000
G1 X0.231 Y-0.263 F700.000
G1 X0.247 Y-0.247 F700.000
G1 X0.263 Y-0.231 F700.000
G1 X0.278 Y-0.213 F700.000
G1 X0.291 Y-0.194 F700.000
G1 X0.303 Y-0.175 F700.000
G1 X0.314 Y-0.155 F700.000
G1 X0.323 Y-0.134 F700.000
G1 X0.331 Y-0.113 F700.000
G1 X0.338 Y-0.091 F700.000
G1 X0.343 Y-0.068 F700.000
G1 X0.347 Y-0.046 F700.000
G1 X0.349 Y-0.023 F700.000
G1 X0.350 Y-0.000 F700.000
G0 Z5.000
G0 X9.350 Y0.000
G1 X13.350 Y0.000 Z-2.400 F180.000
G1 X13.350 Y0.000 F700.000
G1 X13.321 Y0.873 F700.000
G1 X13.236 Y1.743 F700.000
G1 X13.093 Y2.604 F700.000
G1 X12.895 Y3.455 F700.000
G1 X12.642 Y4.291 F700.000
G1 X12.334 Y5.109 F700.000
G1 X11.973 Y5.905 F700.000
G1 X11.561 Y6.675 F700.000
G1 X11.100 Y7.417 F700.000
G1 X10.591 Y8.127 F700.000
G1 X10.037 Y8.802 F700.000
G1 X9.440 Y9.440 F700.000
G1 X8.802 Y10.037 F700.000
G1 X8.127 Y10.591 F700.000
G1 X7.417 Y11.100 F700.000
G1 X6.675 Y11.561 F700.000
G1 X5.905 Y11.973 F700.000
G1 X5.109 Y12.334 F700.000
G1 X4.291 Y12.642 F700.000
G1 X3.455 Y12.895 F700.000
G1 X2.604 Y13.093 F700.000
G1 X1.743 Y13.236 F700.000
G1 X0.873 Y13.321 F700.000
G1 X0.000 Y13.350 F700.000
G1 X-0.873 Y13.321 F700.000
G1 X-1.743 Y13.236 F700.000
G1 X-2.604 Y13.093 F700.000
G1 X-3.455 Y12.895 F700.000
G1 X-4.291 Y12.642 F700.000
G1 X-5.109 Y12.334 F700.000
G1 X-5.905 Y11.973 F700.000
G1 X-6.675 Y11.561 F700.000
G1 X-7.417 Y11.100 F700.000
G1 X-8.127 Y10.591 F700.000
G1 X-8.802 Y10.037 F700.000
G1 X-9.440 Y9.440 F700.000
G1 X-10.037 Y8.802 F700.000
G1 X-10.591 Y8.127 F700.000
G1 X-11.100 Y7.417 F700.000
G1 X-11.561 Y6.675 F700.000
G1 X-11.973 Y5.905 F700.000
G1 X-12.334 Y5.109 F700.000
G1 X-12.642 Y4.291 F700.000
G1 X-12.895 Y3.455 F700.000
G1 X-13.093 Y2.604 F700.000
G1 X-13.236 Y1.743 F700.000
G1 X-13.321 Y0.873 F700.000
G1 X-13.350 Y0.000 F700.000
G1 X-13.321 Y-0.873 F700.000
G1 X-13.236 Y-1.743 F700.000
G1 X-13.093 Y-2.604 F700.000
G1 X-12.895 Y-3.455 F700.000
G1 X-12.642 Y-4.291 F700.000
G1 X-12.334 Y-5.109 F700.000
G1 X-11.973 Y-5.905 F700.000
G1 X-11.561 Y-6.675 F700.000
G1 X-11.100 Y-7.417 F700.000
G1 X-10.591 Y-8.127 F700.000
G1 X-10.037 Y-8.802 F700.000
G1 X-9.440 Y-9.440 F700.000
G1 X-8.802 Y-10.037 F700.000
G1 X-8.127 Y-10.591 F700.000
G1 X-7.417 Y-11.100 F700.000
G1 X-6.675 Y-11.561 F700.000
G1 X-5.905 Y-11.973 F700.000
G1 X-5.109 Y-12.334 F700.000
G1 X-4.291 Y-12.642 F700.000
G1 X-3.455 Y-12.895 F700.000
G1 X-2.604 Y-13.093 F700.000
G1 X-1.743 Y-13.236 F700.000
G1 X-0.873 Y-13.321 F700.000
G1 X-0.000 Y-13.350 F700.000
G1 X0.873 Y-13.321 F700.000
G1 X1.743 Y-13.236 F700.000
G1 X2.604 Y-13.093 F700.000
G1 X3.455 Y-12.895 F700.000
G1 X4.291 Y-12.642 F700.000
G1 X5.109 Y-12.334 F700.000
G1 X5.905 Y-11.973 F700.000
G1 X6.675 Y-11.561 F700.000
G1 X7.417 Y-11.100 F700.000
G1 X8.127 Y-10.591 F700.000
G1 X8.802 Y-10.037 F700.000
G1 X9.440 Y-9.440 F700.000
G1 X10.037 Y-8.802 F700.000
G1 X10.591 Y-8.127 F700.000
G1 X11.100 Y-7.417 F700.000
G1 X11.561 Y-6.675 F700.000
G1 X11.973 Y-5.905 F700.000
G1 X12.334 Y-5.109 F700.000
G1 X12.642 Y-4.291 F700.000
G1 X12.895 Y-3.455 F700.000
G1 X13.093 Y-2.604 F700.000
G1 X13.236 Y-1.743 F700.000
G1 X13.321 Y-0.873 F700.000
G1 X13.350 Y-0.000 F700.000
G1 X12.350 Y0.000 F700.000
G1 X12.324 Y0.808 F700.000
G1 X12.244 Y1.612 F700.000
G1 X12.113 Y2.409 F700.000
G1 X11.929 Y3.196 F700.000
G1 X11.695 Y3.970 F700.000
G1 X11.410 Y4.726 F700.000
G1 X11.076 Y5.462 F700.000
G1 X10.695 Y6.175 F700.000
G1 X10.269 Y6.861 F700.000
G1 X9.798 Y7.518 F700.000
G1 X9.285 Y8.143 F700.000
G1 X8.733 Y8.733 F700.000
G1 X8.143 Y9.285 F700.000
G1 X7.518 Y9.798 F700.000
G1 X6.861 Y10.269 F700.000
G1 X6.175 Y10.695 F700.000
G1 X5.462 Y11.076 F700.000
G1 X4.726 Y11.410 F700.000
G1 X3.970 Y11.695 F700.000
G1 X3.196 Y11.929 F700.000
G1 X2.409 Y12.113 F700.000
G1 X1.612 Y12.244 F700.000
G1 X0.808 Y12.324 F700.000
G1 X0.000 Y12.350 F700.000
G1 X-0.808 Y12.324 F700.000
G1 X-1.612 Y12.244 F700.000
G1 X-2.409 Y12.113 F700.000
G1 X-3.196 Y11.929 F700.000
G1 X-3.970 Y11.695 F700.000
G1 X-4.726 Y11.410 F700.000
G1 X-5.462 Y11.076 F700.000
G1 X-6.175 Y10.695 F700.000
G1 X-6.861 Y10.269 F700.000
G1 X-7.518 Y9.798 F700.000
G1 X-8.143 Y9.285 F700.000
G1 X-8.733 Y8.733 F700.000
G1 X-9.285 Y8.143 F700.000
G1 X-9.798 Y7.518 F700.000
G1 X-10.269 Y6.861 F700.000
G1 X-10.695 Y6.175 F700.000
G1 X-11.076 Y5.462 F700.000
G1 X-11.410 Y4.726 F700.000
G1 X-11.695 Y3.970 F700.000
G1 X-11.929 Y3.196 F700.000
G1 X-12.113 Y2.409 F700.000
G1 X-12.244 Y1.612 F700.000
G1 X-12.324 Y0.808 F700.000
G1 X-12.350 Y0.000 F700.000
G1 X-12.324 Y-0.808 F700.000
G1 X-12.244 Y-1.612 F700.000
G1 X-12.113 Y-2.409 F700.000
G1 X-11.929 Y-3.196 F700.000
G1 X-11.695 Y-3.970 F700.000
G1 X-11.410 Y-4.726 F700.000
G1 X-11.076 Y-5.462 F700.000
G1 X-10.695 Y-6.175 F700.000
G1 X-10.269 Y-6.861 F700.000
G1 X-9.798 Y-7.518 F700.000
G1 X-9.285 Y-8.143 F700.000
G1 X-8.733 Y-8.733 F700.000
G1 X-8.143 Y-9.285 F700.000
G1 X-7.518 Y-9.798 F700.000
G1 X-6.861 Y-10.269 F700.000
G1 X-6.175 Y-10.695 F700.000
G1 X-5.462 Y-11.076 F700.000
G1 X-4.726 Y-11.410 F700.000
G1 X-3.970 Y-11.695 F700.000
G1 X-3.196 Y-11.929 F700.000
G1 X-2.409 Y-12.113 F700.000
G1 X-1.612 Y-12.244 F700.000
G1 X-0.808 Y-12.324 F700.000
G1 X-0.000 Y-12.350 F700.000
G1 X0.808 Y-12.324 F700.000
G1 X1.612 Y-12.244 F700.000
G1 X2.409 Y-12.113 F700.000
G1 X3.196 Y-11.929 F700.000
G1 X3.970 Y-11.695 F700.000
G1 X4.726 Y-11.410 F700.000
G1 X5.462 Y-11.076 F700.000
G1 X6.175 Y-10.695 F700.000
G1 X6.861 Y-10.269 F700.000
G1 X7.518 Y-9.798 F700.000
G1 X8.143 Y-9.285 F700.000
G1 X8.733 Y-8.733 F700.000
G1 X9.285 Y-8.143 F700.000
G1 X9.798 Y-7.518 F700.000
G1 X10.269 Y-6.861 F700.000
G1 X10.695 Y-6.175 F700.000
G1 X11.076 Y-5.462 F700.000
G1 X11.410 Y-4.726 F700.000
G1 X11.695 Y-3.970 F700.000
G1 X11.929 Y-3.196 F700.000
G1 X12.113 Y-2.409 F700.000
G1 X12.244 Y-1.612 F700.000
G1 X12.324 Y-0.808 F700.000
G1 X12.350 Y-0.000 F700.000
G1 X11.350 Y0.000 F700.000
G1 X11.326 Y0.742 F700.000
G1 X11.253 Y1.481 F700.000
G1 X11.132 Y2.214 F700.000
G1 X10.963 Y2.938 F700.000
G1 X10.748 Y3.648 F700.000
G1 X10.486 Y4.343 F700.000
G1 X10.180 Y5.020 F700.000
G1 X9.829 Y5.675 F700.000
G1 X9.437 Y6.306 F700.000
G1 X9.005 Y6.909 F700.000
G1 X8.533 Y7.484 F700.000
G1 X8.026 Y8.026 F700.000
G1 X7.484 Y8.533 F700.000
G1 X6.909 Y9.005 F700.000
G1 X6.306 Y9.437 F700.000
G1 X5.675 Y9.829 F700.000
G1 X5.020 Y10.180 F700.000
G1 X4.343 Y10.486 F700.000
G1 X3.648 Y10.748 F700.000
G1 X2.938 Y10.963 F700.000
G1 X2.214 Y11.132 F700.000
G1 X1.481 Y11.253 F700.000
G1 X0.742 Y11.326 F700.000
G1 X0.000 Y11.350 F700.000
G1 X-0.742 Y11.326 F700.000
G1 X-1.481 Y11.253 F700.000
G1 X-2.214 Y11.132 F700.000
G1 X-2.938 Y10.963 F700.000
G1 X-3.648 Y10.748 F700.000
G1 X-4.343 Y10.486 F700.000
G1 X-5.020 Y10.180 F700.000
G1 X-5.675 Y9.829 F700.000
G1 X-6.306 Y9.437 F700.000
G1 X-6.909 Y9.005 F700.000
G1 X-7.484 Y8.533 F700.000
G1 X-8.026 Y8.026 F700.000
G1 X-8.533 Y7.484 F700.000
G1 X-9.005 Y6.909 F700.000
G1 X-9.437 Y6.306 F700.000
G1 X-9.829 Y5.675 F700.000
G1 X-10.180 Y5.020 F700.000
G1 X-10.486 Y4.343 F700.000
G1 X-10.748 Y3.648 F700.000
G1 X-10.963 Y2.938 F700.000
G1 X-11.132 Y2.214 F700.000
G1 X-11.253 Y1.481 F700.000
G1 X-11.326 Y0.742 F700.000
G1 X-11.350 Y0.000 F700.000
G1 X-11.326 Y-0.742 F700.000
G1 X-11.253 Y-1.481 F700.000
G1 X-11.132 Y-2.214 F700.000
G1 X-10.963 Y-2.938 F700.000
G1 X-10.748 Y-3.648 F700.000
G1 X-10.486 Y-4.343 F700.000
G1 X-10.180 Y-5.020 F700.000
G1 X-9.829 Y-5.675 F700.000
G1 X-9.437 Y-6.306 F700.000
G1 X-9.005 Y-6.909 F700.000
G1 X-8.533 Y-7.484 F700.000
G1 X-8.026 Y-8.026 F700.000
G1 X-7.484 Y-8.533 F700.000
G1 X-6.909 Y-9.005 F700.000
G1 X-6.306 Y-9.437 F700.000
G1 X-5.675 Y-9.829 F700.000
G1 X-5.020 Y-10.180 F700.000
G1 X-4.343 Y-10.486 F700.000
G1 X-3.648 Y-10.748 F700.000
G1 X-2.938 Y-10.963 F700.000
G1 X-2.214 Y-11.132 F700.000
G1 X-1.481 Y-11.253 F700.000
G1 X-0.742 Y-11.326 F700.000
G1 X-0.000 Y-11.350 F700.000
G1 X0.742 Y-11.326 F700.000
G1 X1.481 Y-11.253 F700.000
G1 X2.214 Y-11.132 F700.000
G1 X2.938 Y-10.963 F700.000
G1 X3.648 Y-10.748 F700.000
G1 X4.343 Y-10.486 F700.000
G1 X5.020 Y-10.180 F700.000
G1 X5.675 Y-9.829 F700.000
G1 X6.306 Y-9.437 F700.000
G1 X6.909 Y-9.005 F700.000
G1 X7.484 Y-8.533 F700.000
G1 X8.026 Y-8.026 F700.000
G1 X8.533 Y-7.484 F700.000
G1 X9.005 Y-6.909 F700.000
G1 X9.437 Y-6.306 F700.000
G1 X9.829 Y-5.675 F700.000
G1 X10.180 Y-5.020 F700.000
G1 X10.486 Y-4.343 F700.000
G1 X10.748 Y-3.648 F700.000
G1 X10.963 Y-2.938 F700.000
G1 X11.132 Y-2.214 F700.000
G1 X11.253 Y-1.481 F700.000
G1 X11.326 Y-0.742 F700.000
G1 X11.350 Y-0.000 F700.000
G1 X10.350 Y0.000 F700.000
G1 X10.328 Y0.677 F700.000
G1 X10.261 Y1.351 F700.000
G1 X10.151 Y2.019 F700.000
G1 X9.997 Y2.679 F700.000
G1 X9.801 Y3.327 F700.000
G1 X9.562 Y3.961 F700.000
G1 X9.283 Y4.578 F700.000
G1 X8.963 Y5.175 F700.000
G1 X8.606 Y5.750 F700.000
G1 X8.211 Y6.301 F700.000
G1 X7.782 Y6.824 F700.000
G1 X7.319 Y7.319 F700.000
G1 X6.824 Y7.782 F700.000
G1 X6.301 Y8.211 F700.000
G1 X5.750 Y8.606 F700.000
G1 X5.175 Y8.963 F700.000
G1 X4.578 Y9.283 F700.000
G1 X3.961 Y9.562 F700.000
G1 X3.327 Y9.801 F700.000
G1 X2.679 Y9.997 F700.000
G1 X2.019 Y10.151 F700.000
G1 X1.351 Y10.261 F700.000
G1 X0.677 Y10.328 F700.000
G1 X0.000 Y10.350 F700.000
G1 X-0.677 Y10.328 F700.000
G1 X-1.351 Y10.261 F700.000
G1 X-2.019 Y10.151 F700.000
G1 X-2.679 Y9.997 F700.000
G1 X-3.327 Y9.801 F700.000
G1 X-3.961 Y9.562 F700.000
G1 X-4.578 Y9.283 F700.000
G1 X-5.175 Y8.963 F700.000
G1 X-5.750 Y8.606 F700.000
G1 X-6.301 Y8.211 F700.000
G1 X-6.824 Y7.782 F700.000
G1 X-7.319 Y7.319 F700.000
G1 X-7.782 Y6.824 F700.000
G1 X-8.211 Y6.301 F700.000
G1 X-8.606 Y5.750 F700.000
G1 X-8.963 Y5.175 F700.000
G1 X-9.283 Y4.578 F700.000
G1 X-9.562 Y3.961 F700.000
G1 X-9.801 Y3.327 F700.000
G1 X-9.997 Y2.679 F700.000
G1 X-10.151 Y2.019 F700.000
G1 X-10.261 Y1.351 F700.000
G1 X-10.328 Y0.677 F700.000
G1 X-10.350 Y0.000 F700.000
G1 X-10.328 Y-0.677 F700.000
G1 X-10.261 Y-1.351 F700.000
G1 X-10.151 Y-2.019 F700.000
G1 X-9.997 Y-2.679 F700.000
G1 X-9.801 Y-3.327 F700.000
G1 X-9.562 Y-3.961 F700.000
G1 X-9.283 Y-4.578 F700.000
G1 X-8.963 Y-5.175 F700.000
G1 X-8.606 Y-5.750 F700.000
G1 X-8.211 Y-6.301 F700.000
G1 X-7.782 Y-6.824 F700.000
G1 X-7.319 Y-7.319 F700.000
G1 X-6.824 Y-7.782 F700.000
G1 X-6.301 Y-8.211 F700.000
G1 X-5.750 Y-8.606 F700.000
G1 X-5.175 Y-8.963 F700.000
G1 X-4.578 Y-9.283 F700.000
G1 X-3.961 Y-9.562 F700.000
G1 X-3.327 Y-9.801 F700.000
G1 X-2.679 Y-9.997 F700.000
G1 X-2.019 Y-10.151 F700.000
G1 X-1.351 Y-10.261 F700.000
G1 X-0.677 Y-10.328 F700.000
G1 X-0.000 Y-10.350 F700.000
G1 X0.677 Y-10.328 F700.000
G1 X1.351 Y-10.261 F700.000
G1 X2.019 Y-10.151 F700.000
G1 X2.679 Y-9.997 F700.000
G1 X3.327 Y-9.801 F700.000
G1 X3.961 Y-9.562 F700.000
G1 X4.578 Y-9.283 F700.000
G1 X5.175 Y-8.963 F700.000
G1 X5.750 Y-8.606 F700.000
G1 X6.301 Y-8.211 F700.000
G1 X6.824 Y-7.782 F700.000
G1 X7.319 Y-7.319 F700.000
G1 X7.782 Y-6.824 F700.000
G1 X8.211 Y-6.301 F700.000
G1 X8.606 Y-5.750 F700.000
G1 X8.963 Y-5.175 F700.000
G1 X9.283 Y-4.578 F700.000
G1 X9.562 Y-3.961 F700.000
G1 X9.801 Y-3.327 F700.000
G1 X9.997 Y-2.679 F700.000
G1 X10.151 Y-2.019 F700.000
G1 X10.261 Y-1.351 F700.000
G1 X10.328 Y-0.677 F700.000
G1 X10.350 Y-0.000 F700.000
G1 X9.350 Y0.000 F700.000
G1 X9.330 Y0.612 F700.000
G1 X9.270 Y1.220 F700.000
G1 X9.170 Y1.824 F700.000
G1 X9.031 Y2.420 F700.000
G1 X8.854 Y3.005 F700.000
G1 X8.638 Y3.578 F700.000
G1 X8.386 Y4.135 F700.000
G1 X8.097 Y4.675 F700.000
G1 X7.774 Y5.195 F700.000
G1 X7.418 Y5.692 F700.000
G1 X7.030 Y6.165 F700.000
G1 X6.611 Y6.611 F700.000
G1 X6.165 Y7.030 F700.000
G1 X5.692 Y7.418 F700.000
G1 X5.195 Y7.774 F700.000
G1 X4.675 Y8.097 F700.000
G1 X4.135 Y8.386 F700.000
G1 X3.578 Y8.638 F700.000
G1 X3.005 Y8.854 F700.000
G1 X2.420 Y9.031 F700.000
G1 X1.824 Y9.170 F700.000
G1 X1.220 Y9.270 F700.000
G1 X0.612 Y9.330 F700.000
G1 X0.000 Y9.350 F700.000
G1 X-0.612 Y9.330 F700.000
G1 X-1.220 Y9.270 F700.000
G1 X-1.824 Y9.170 F700.000
G1 X-2.420 Y9.031 F700.000
G1 X-3.005 Y8.854 F700.000
G1 X-3.578 Y8.638 F700.000
G1 X-4.135 Y8.386 F700.000
G1 X-4.675 Y8.097 F700.000
G1 X-5.195 Y7.774 F700.000
G1 X-5.692 Y7.418 F700.000
G1 X-6.165 Y7.030 F700.000
G1 X-6.611 Y6.611 F700.000
G1 X-7.030 Y6.165 F700.000
G1 X-7.418 Y5.692 F700.000
G1 X-7.774 Y5.195 F700.000
G1 X-8.097 Y4.675 F700.000
G1 X-8.386 Y4.135 F700.000
G1 X-8.638 Y3.578 F700.000
G1 X-8.854 Y3.005 F700.000
G1 X-9.031 Y2.420 F700.000
G1 X-9.170 Y1.824 F700.000
G1 X-9.270 Y1.220 F700.000
G1 X-9.330 Y0.612 F700.000
G1 X-9.350 Y0.000 F700.000
G1 X-9.330 Y-0.612 F700.000
G1 X-9.270 Y-1.220 F700.000
G1 X-9.170 Y-1.824 F700.000
G1 X-9.031 Y-2.420 F700.000
G1 X-8.854 Y-3.005 F700.000
G1 X-8.638 Y-3.578 F700.000
G1 X-8.386 Y-4.135 F700.000
G1 X-8.097 Y-4.675 F700.000
G1 X-7.774 Y-5.195 F700.000
G1 X-7.418 Y-5.692 F700.000
G1 X-7.030 Y-6.165 F700.000
G1 X-6.611 Y-6.611 F700.000
G1 X-6.165 Y-7.030 F700.000
G1 X-5.692 Y-7.418 F700.000
G1 X-5.195 Y-7.774 F700.000
G1 X-4.675 Y-8.097 F700.000
G1 X-4.135 Y-8.386 F700.000
G1 X-3.578 Y-8.638 F700.000
G1 X-3.005 Y-8.854 F700.000
G1 X-2.420 Y-9.031 F700.000
G1 X-1.824 Y-9.170 F700.000
G1 X-1.220 Y-9.270 F700.000
G1 X-0.612 Y-9.330 F700.000
G1 X-0.000 Y-9.350 F700.000
G1 X0.612 Y-9.330 F700.000
G1 X1.220 Y-9.270 F700.000
G1 X1.824 Y-9.170 F700.000
G1 X2.420 Y-9.031 F700.000
G1 X3.005 Y-8.854 F700.000
G1 X3.578 Y-8.638 F700.000
G1 X4.135 Y-8.386 F700.000
G1 X4.675 Y-8.097 F700.000
G1 X5.195 Y-7.774 F700.000
G1 X5.692 Y-7.418 F700.000
G1 X6.165 Y-7.030 F700.000
G1 X6.611 Y-6.611 F700.000
G1 X7.030 Y-6.165 F700.000
G1 X7.418 Y-5.692 F700.000
G1 X7.774 Y-5.195 F700.000
G1 X8.097 Y-4.675 F700.000
G1 X8.386 Y-4.135 F700.000
G1 X8.638 Y-3.578 F700.000
G1 X8.854 Y-3.005 F700.000
G1 X9.031 Y-2.420 F700.000
G1 X9.170 Y-1.824 F700.000
G1 X9.270 Y-1.220 F700.000
G1 X9.330 Y-0.612 F700.000
G1 X9.350 Y-0.000 F700.000
G1 X8.350 Y0.000 F700.000
G1 X8.332 Y0.546 F700.000
G1 X8.279 Y1.090 F700.000
G1 X8.190 Y1.629 F700.000
G1 X8.065 Y2.161 F700.000
G1 X7.907 Y2.684 F700.000
G1 X7.714 Y3.195 F700.000
G1 X7.489 Y3.693 F700.000
G1 X7.231 Y4.175 F700.000
G1 X6.943 Y4.639 F700.000
G1 X6.625 Y5.083 F700.000
G1 X6.278 Y5.506 F700.000
G1 X5.904 Y5.904 F700.000
G1 X5.506 Y6.278 F700.000
G1 X5.083 Y6.625 F700.000
G1 X4.639 Y6.943 F700.000
G1 X4.175 Y7.231 F700.000
G1 X3.693 Y7.489 F700.000
G1 X3.195 Y7.714 F700.000
G1 X2.684 Y7.907 F700.000
G1 X2.161 Y8.065 F700.000
G1 X1.629 Y8.190 F700.000
G1 X1.090 Y8.279 F700.000
G1 X0.546 Y8.332 F700.000
G1 X0.000 Y8.350 F700.000
G1 X-0.546 Y8.332 F700.000
G1 X-1.090 Y8.279 F700.000
G1 X-1.629 Y8.190 F700.000
G1 X-2.161 Y8.065 F700.000
G1 X-2.684 Y7.907 F700.000
G1 X-3.195 Y7.714 F700.000
G1 X-3.693 Y7.489 F700.000
G1 X-4.175 Y7.231 F700.000
G1 X-4.639 Y6.943 F700.000
G1 X-5.083 Y6.625 F700.000
G1 X-5.506 Y6.278 F700.000
G1 X-5.904 Y5.904 F700.000
G1 X-6.278 Y5.506 F700.000
G1 X-6.625 Y5.083 F700.000
G1 X-6.943 Y4.639 F700.000
G1 X-7.231 Y4.175 F700.000
G1 X-7.489 Y3.693 F700.000
G1 X-7.714 Y3.195 F700.000
G1 X-7.907 Y2.684 F700.000
G1 X-8.065 Y2.161 F700.000
G1 X-8.190 Y1.629 F700.000
G1 X-8.279 Y1.090 F700.000
G1 X-8.332 Y0.546 F700.000
G1 X-8.350 Y0.000 F700.000
G1 X-8.332 Y-0.546 F700.000
G1 X-8.279 Y-1.090 F700.000
G1 X-8.190 Y-1.629 F700.000
G1 X-8.065 Y-2.161 F700.000
G1 X-7.907 Y-2.684 F700.000
G1 X-7.714 Y-3.195 F700.000
G1 X-7.489 Y-3.693 F700.000
G1 X-7.231 Y-4.175 F700.000
G1 X-6.943 Y-4.639 F700.000
G1 X-6.625 Y-5.083 F700.000
G1 X-6.278 Y-5.506 F700.000
G1 X-5.904 Y-5.904 F700.000
G1 X-5.506 Y-6.278 F700.000
G1 X-5.083 Y-6.625 F700.000
G1 X-4.639 Y-6.943 F700.000
G1 X-4.175 Y-7.231 F700.000
G1 X-3.693 Y-7.489 F700.000
G1 X-3.195 Y-7.714 F700.000
G1 X-2.684 Y-7.907 F700.000
G1 X-2.161 Y-8.065 F700.000
G1 X-1.629 Y-8.190 F700.000
G1 X-1.090 Y-8.279 F700.000
G1 X-0.546 Y-8.332 F700.000
G1 X-0.000 Y-8.350 F700.000
G1 X0.546 Y-8.332 F700.000
G1 X1.090 Y-8.279 F700.000
G1 X1.629 Y-8.190 F700.000
G1 X2.161 Y-8.065 F700.000
G1 X2.684 Y-7.907 F700.000
G1 X3.195 Y-7.714 F700.000
G1 X3.693 Y-7.489 F700.000
G1 X4.175 Y-7.231 F700.000
G1 X4.639 Y-6.943 F700.000
G1 X5.083 Y-6.625 F700.000
G1 X5.506 Y-6.278 F700.000
G1 X5.904 Y-5.904 F700.000
G1 X6.278 Y-5.506 F700.000
G1 X6.625 Y-5.083 F700.000
G1 X6.943 Y-4.639 F700.000
G1 X7.231 Y-4.175 F700.000
G1 X7.489 Y-3.693 F700.000
G1 X7.714 Y-3.195 F700.000
G1 X7.907 Y-2.684 F700.000
G1 X8.065 Y-2.161 F700.000
G1 X8.190 Y-1.629 F700.000
G1 X8.279 Y-1.090 F700.000
G1 X8.332 Y-0.546 F700.000
G1 X8.350 Y-0.000 F700.000
G1 X7.350 Y0.000 F700.000
G1 X7.334 Y0.481 F700.000
G1 X7.287 Y0.959 F700.000
G1 X7.209 Y1.434 F700.000
G1 X7.100 Y1.902 F700.000
G1 X6.960 Y2.363 F700.000
G1 X6.791 Y2.813 F700.000
G1 X6.592 Y3.251 F700.000
G1 X6.365 Y3.675 F700.000
G1 X6.111 Y4.083 F700.000
G1 X5.831 Y4.474 F700.000
G1 X5.526 Y4.846 F700.000
G1 X5.197 Y5.197 F700.000
G1 X4.846 Y5.526 F700.000
G1 X4.474 Y5.831 F700.000
G1 X4.083 Y6.111 F700.000
G1 X3.675 Y6.365 F700.000
G1 X3.251 Y6.592 F700.000
G1 X2.813 Y6.791 F700.000
G1 X2.363 Y6.960 F700.000
G1 X1.902 Y7.100 F700.000
G1 X1.434 Y7.209 F700.000
G1 X0.959 Y7.287 F700.000
G1 X0.481 Y7.334 F700.000
G1 X0.000 Y7.350 F700.000
G1 X-0.481 Y7.334 F700.000
G1 X-0.959 Y7.287 F700.000
G1 X-1.434 Y7.209 F700.000
G1 X-1.902 Y7.100 F700.000
G1 X-2.363 Y6.960 F700.000
G1 X-2.813 Y6.791 F700.000
G1 X-3.251 Y6.592 F700.000
G1 X-3.675 Y6.365 F700.000
G1 X-4.083 Y6.111 F700.000
G1 X-4.474 Y5.831 F700.000
G1 X-4.846 Y5.526 F700.000
G1 X-5.197 Y5.197 F700.000
G1 X-5.526 Y4.846 F700.000
G1 X-5.831 Y4.474 F700.000
G1 X-6.111 Y4.083 F700.000
G1 X-6.365 Y3.675 F700.000
G1 X-6.592 Y3.251 F700.000
G1 X-6.791 Y2.813 F700.000
G1 X-6.960 Y2.363 F700.000
G1 X-7.100 Y1.902 F700.000
G1 X-7.209 Y1.434 F700.000
G1 X-7.287 Y0.959 F700.000
G1 X-7.334 Y0.481 F700.000
G1 X-7.350 Y0.000 F700.000
G1 X-7.334 Y-0.481 F700.000
G1 X-7.287 Y-0.959 F700.000
G1 X-7.209 Y-1.434 F700.000
G1 X-7.100 Y-1.902 F700.000
G1 X-6.960 Y-2.363 F700.000
G1 X-6.791 Y-2.813 F700.000
G1 X-6.592 Y-3.251 F700.000
G1 X-6.365 Y-3.675 F700.000
G1 X-6.111 Y-4.083 F700.000
G1 X-5.831 Y-4.474 F700.000
G1 X-5.526 Y-4.846 F700.000
G1 X-5.197 Y-5.197 F700.000
G1 X-4.846 Y-5.526 F700.000
G1 X-4.474 Y-5.831 F700.000
G1 X-4.083 Y-6.111 F700.000
G1 X-3.675 Y-6.365 F700.000
G1 X-3.251 Y-6.592 F700.000
G1 X-2.813 Y-6.791 F700.000
G1 X-2.363 Y-6.960 F700.000
G1 X-1.902 Y-7.100 F700.000
G1 X-1.434 Y-7.209 F700.000
G1 X-0.959 Y-7.287 F700.000
G1 X-0.481 Y-7.334 F700.000
G1 X-0.000 Y-7.350 F700.000
G1 X0.481 Y-7.334 F700.000
G1 X0.959 Y-7.287 F700.000
G1 X1.434 Y-7.209 F700.000
G1 X1.902 Y-7.100 F700.000
G1 X2.363 Y-6.960 F700.000
G1 X2.813 Y-6.791 F700.000
G1 X3.251 Y-6.592 F700.000
G1 X3.675 Y-6.365 F700.000
G1 X4.083 Y-6.111 F700.000
G1 X4.474 Y-5.831 F700.000
G1 X4.846 Y-5.526 F700.000
G1 X5.197 Y-5.197 F700.000
G1 X5.526 Y-4.846 F700.000
G1 X5.831 Y-4.474 F700.000
G1 X6.111 Y-4.083 F700.000
G1 X6.365 Y-3.675 F700.000
G1 X6.592 Y-3.251 F700.000
G1 X6.791 Y-2.813 F700.000
G1 X6.960 Y-2.363 F700.000
G1 X7.100 Y-1.902 F700.000
G1 X7.209 Y-1.434 F700.000
G1 X7.287 Y-0.959 F700.000
G1 X7.334 Y-0.481 F700.000
G1 X7.350 Y-0.000 F700.000
G1 X6.350 Y0.000 F700.000
G1 X6.336 Y0.415 F700.000
G1 X6.296 Y0.829 F700.000
G1 X6.228 Y1.239 F700.000
G1 X6.134 Y1.644 F700.000
G1 X6.013 Y2.041 F700.000
G1 X5.867 Y2.430 F700.000
G1 X5.695 Y2.809 F700.000
G1 X5.499 Y3.175 F700.000
G1 X5.280 Y3.528 F700.000
G1 X5.038 Y3.866 F700.000
G1 X4.774 Y4.187 F700.000
G1 X4.490 Y4.490 F700.000
G1 X4.187 Y4.774 F700.000
G1 X3.866 Y5.038 F700.000
G1 X3.528 Y5.280 F700.000
G1 X3.175 Y5.499 F700.000
G1 X2.809 Y5.695 F700.000
G1 X2.430 Y5.867 F700.000
G1 X2.041 Y6.013 F700.000
G1 X1.644 Y6.134 F700.000
G1 X1.239 Y6.228 F700.000
G1 X0.829 Y6.296 F700.000
G1 X0.415 Y6.336 F700.000
G1 X0.000 Y6.350 F700.000
G1 X-0.415 Y6.336 F700.000
G1 X-0.829 Y6.296 F700.000
G1 X-1.239 Y6.228 F700.000
G1 X-1.644 Y6.134 F700.000
G1 X-2.041 Y6.013 F700.000
G1 X-2.430 Y5.867 F700.000
G1 X-2.809 Y5.695 F700.000
G1 X-3.175 Y5.499 F700.000
G1 X-3.528 Y5.280 F700.000
G1 X-3.866 Y5.038 F700.000
G1 X-4.187 Y4.774 F700.000
G1 X-4.490 Y4.490 F700.000
G1 X-4.774 Y4.187 F700.000
G1 X-5.038 Y3.866 F700.000
G1 X-5.280 Y3.528 F700.000
G1 X-5.499 Y3.175 F700.000
G1 X-5.695 Y2.809 F700.000
G1 X-5.867 Y2.430 F700.000
G1 X-6.013 Y2.041 F700.000
G1 X-6.134 Y1.644 F700.000
G1 X-6.228 Y1.239 F700.000
G1 X-6.296 Y0.829 F700.000
G1 X-6.336 Y0.415 F700.000
G1 X-6.350 Y0.000 F700.000
G1 X-6.336 Y-0.415 F700.000
G1 X-6.296 Y-0.829 F700.000
G1 X-6.228 Y-1.239 F700.000
G1 X-6.134 Y-1.644 F700.000
G1 X-6.013 Y-2.041 F700.000
G1 X-5.867 Y-2.430 F700.000
G1 X-5.695 Y-2.809 F700.000
G1 X-5.499 Y-3.175 F700.000
G1 X-5.280 Y-3.528 F700.000
G1 X-5.038 Y-3.866 F700.000
G1 X-4.774 Y-4.187 F700.000
G1 X-4.490 Y-4.490 F700.000
G1 X-4.187 Y-4.774 F700.000
G1 X-3.866 Y-5.038 F700.000
G1 X-3.528 Y-5.280 F700.000
G1 X-3.175 Y-5.499 F700.000
G1 X-2.809 Y-5.695 F700.000
G1 X-2.430 Y-5.867 F700.000
G1 X-2.041 Y-6.013 F700.000
G1 X-1.644 Y-6.134 F700.000
G1 X-1.239 Y-6.228 F700.000
G1 X-0.829 Y-6.296 F700.000
G1 X-0.415 Y-6.336 F700.000
G1 X-0.000 Y-6.350 F700.000
G1 X0.415 Y-6.336 F700.000
G1 X0.829 Y-6.296 F700.000
G1 X1.239 Y-6.228 F700.000
G1 X1.644 Y-6.134 F700.000
G1 X2.041 Y-6.013 F700.000
G1 X2.430 Y-5.867 F700.000
G1 X2.809 Y-5.695 F700.000
G1 X3.175 Y-5.499 F700.000
G1 X3.528 Y-5.280 F700.000
G1 X3.866 Y-5.038 F700.000
G1 X4.187 Y-4.774 F700.000
G1 X4.490 Y-4.490 F700.000
G1 X4.774 Y-4.187 F700.000
G1 X5.038 Y-3.866 F700.000
G1 X5.280 Y-3.528 F700.000
G1 X5.499 Y-3.175 F700.000
G1 X5.695 Y-2.809 F700.000
G1 X5.867 Y-2.430 F700.000
G1 X6.013 Y-2.041 F700.000
G1 X6.134 Y-1.644 F700.000
G1 X6.228 Y-1.239 F700.000
G1 X6.296 Y-0.829 F700.000
G1 X6.336 Y-0.415 F700.000
G1 X6.350 Y-0.000 F700.000
G1 X5.350 Y0.000 F700.000
G1 X5.339 Y0.350 F700.000
G1 X5.304 Y0.698 F700.000
G1 X5.247 Y1.044 F700.000
G1 X5.168 Y1.385 F700.000
G1 X5.066 Y1.720 F700.000
G1 X4.943 Y2.047 F700.000
G1 X4.798 Y2.366 F700.000
G1 X4.633 Y2.675 F700.000
G1 X4.448 Y2.972 F700.000
G1 X4.244 Y3.257 F700.000
G1 X4.022 Y3.528 F700.000
G1 X3.783 Y3.783 F700.000
G1 X3.528 Y4.022 F700.000
G1 X3.257 Y4.244 F700.000
G1 X2.972 Y4.448 F700.000
G1 X2.675 Y4.633 F700.000
G1 X2.366 Y4.798 F700.000
G1 X2.047 Y4.943 F700.000
G1 X1.720 Y5.066 F700.000
G1 X1.385 Y5.168 F700.000
G1 X1.044 Y5.247 F700.000
G1 X0.698 Y5.304 F700.000
G1 X0.350 Y5.339 F700.000
G1 X0.000 Y5.350 F700.000
G1 X-0.350 Y5.339 F700.000
G1 X-0.698 Y5.304 F700.000
G1 X-1.044 Y5.247 F700.000
G1 X-1.385 Y5.168 F700.000
G1 X-1.720 Y5.066 F700.000
G1 X-2.047 Y4.943 F700.000
G1 X-2.366 Y4.798 F700.000
G1 X-2.675 Y4.633 F700.000
G1 X-2.972 Y4.448 F700.000
G1 X-3.257 Y4.244 F700.000
G1 X-3.528 Y4.022 F700.000
G1 X-3.783 Y3.783 F700.000
G1 X-4.022 Y3.528 F700.000
G1 X-4.244 Y3.257 F700.000
G1 X-4.448 Y2.972 F700.000
G1 X-4.633 Y2.675 F700.000
G1 X-4.798 Y2.366 F700.000
G1 X-4.943 Y2.047 F700.000
G1 X-5.066 Y1.720 F700.000
G1 X-5.168 Y1.385 F700.000
G1 X-5.247 Y1.044 F700.000
G1 X-5.304 Y0.698 F700.000
G1 X-5.339 Y0.350 F700.000
G1 X-5.350 Y0.000 F700.000
G1 X-5.339 Y-0.350 F700.000
G1 X-5.304 Y-0.698 F700.000
G1 X-5.247 Y-1.044 F700.000
G1 X-5.168 Y-1.385 F700.000
G1 X-5.066 Y-1.720 F700.000
G1 X-4.943 Y-2.047 F700.000
G1 X-4.798 Y-2.366 F700.000
G1 X-4.633 Y-2.675 F700.000
G1 X-4.448 Y-2.972 F700.000
G1 X-4.244 Y-3.257 F700.000
G1 X-4.022 Y-3.528 F700.000
G1 X-3.783 Y-3.783 F700.000
G1 X-3.528 Y-4.022 F700.000
G1 X-3.257 Y-4.244 F700.000
G1 X-2.972 Y-4.448 F700.000
G1 X-2.675 Y-4.633 F700.000
G1 X-2.366 Y-4.798 F700.000
G1 X-2.047 Y-4.943 F700.000
G1 X-1.720 Y-5.066 F700.000
G1 X-1.385 Y-5.168 F700.000
G1 X-1.044 Y-5.247 F700.000
G1 X-0.698 Y-5.304 F700.000
G1 X-0.350 Y-5.339 F700.000
G1 X-0.000 Y-5.350 F700.000
G1 X0.350 Y-5.339 F700.000
G1 X0.698 Y-5.304 F700.000
G1 X1.044 Y-5.247 F700.000
G1 X1.385 Y-5.168 F700.000
G1 X1.720 Y-5.066 F700.000
G1 X2.047 Y-4.943 F700.000
G1 X2.366 Y-4.798 F700.000
G1 X2.675 Y-4.633 F700.000
G1 X2.972 Y-4.448 F700.000
G1 X3.257 Y-4.244 F700.000
G1 X3.528 Y-4.022 F700.000
G1 X3.783 Y-3.783 F700.000
G1 X4.022 Y-3.528 F700.000
G1 X4.244 Y-3.257 F700.000
G1 X4.448 Y-2.972 F700.000
G1 X4.633 Y-2.675 F700.000
G1 X4.798 Y-2.366 F700.000
G1 X4.943 Y-2.047 F700.000
G1 X5.066 Y-1.720 F700.000
G1 X5.168 Y-1.385 F700.000
G1 X5.247 Y-1.044 F700.000
G1 X5.304 Y-0.698 F700.000
G1 X5.339 Y-0.350 F700.000
G1 X5.350 Y-0.000 F700.000
G1 X4.350 Y0.000 F700.000
G1 X4.341 Y0.285 F700.000
G1 X4.313 Y0.568 F700.000
G1 X4.266 Y0.849 F700.000
G1 X4.202 Y1.126 F700.000
G1 X4.119 Y1.398 F700.000
G1 X4.019 Y1.665 F700.000
G1 X3.901 Y1.924 F700.000
G1 X3.767 Y2.175 F700.000
G1 X3.617 Y2.417 F700.000
G1 X3.451 Y2.648 F700.000
G1 X3.271 Y2.868 F700.000
G1 X3.076 Y3.076 F700.000
G1 X2.868 Y3.271 F700.000
G1 X2.648 Y3.451 F700.000
G1 X2.417 Y3.617 F700.000
G1 X2.175 Y3.767 F700.000
G1 X1.924 Y3.901 F700.000
G1 X1.665 Y4.019 F700.000
G1 X1.398 Y4.119 F700.000
G1 X1.126 Y4.202 F700.000
G1 X0.849 Y4.266 F700.000
G1 X0.568 Y4.313 F700.000
G1 X0.285 Y4.341 F700.000
G1 X0.000 Y4.350 F700.000
G1 X-0.285 Y4.341 F700.000
G1 X-0.568 Y4.313 F700.000
G1 X-0.849 Y4.266 F700.000
G1 X-1.126 Y4.202 F700.000
G1 X-1.398 Y4.119 F700.000
G1 X-1.665 Y4.019 F700.000
G1 X-1.924 Y3.901 F700.000
G1 X-2.175 Y3.767 F700.000
G1 X-2.417 Y3.617 F700.000
G1 X-2.648 Y3.451 F700.000
G1 X-2.868 Y3.271 F700.000
G1 X-3.076 Y3.076 F700.000
G1 X-3.271 Y2.868 F700.000
G1 X-3.451 Y2.648 F700.000
G1 X-3.617 Y2.417 F700.000
G1 X-3.767 Y2.175 F700.000
G1 X-3.901 Y1.924 F700.000
G1 X-4.019 Y1.665 F700.000
G1 X-4.119 Y1.398 F700.000
G1 X-4.202 Y1.126 F700.000
G1 X-4.266 Y0.849 F700.000
G1 X-4.313 Y0.568 F700.000
G1 X-4.341 Y0.285 F700.000
G1 X-4.350 Y0.000 F700.000
G1 X-4.341 Y-0.285 F700.000
G1 X-4.313 Y-0.568 F700.000
G1 X-4.266 Y-0.849 F700.000
G1 X-4.202 Y-1.126 F700.000
G1 X-4.119 Y-1.398 F700.000
G1 X-4.019 Y-1.665 F700.000
G1 X-3.901 Y-1.924 F700.000
G1 X-3.767 Y-2.175 F700.000
G1 X-3.617 Y-2.417 F700.000
G1 X-3.451 Y-2.648 F700.000
G1 X-3.271 Y-2.868 F700.000
G1 X-3.076 Y-3.076 F700.000
G1 X-2.868 Y-3.271 F700.000
G1 X-2.648 Y-3.451 F700.000
G1 X-2.417 Y-3.617 F700.000
G1 X-2.175 Y-3.767 F700.000
G1 X-1.924 Y-3.901 F700.000
G1 X-1.665 Y-4.019 F700.000
G1 X-1.398 Y-4.119 F700.000
G1 X-1.126 Y-4.202 F700.000
G1 X-0.849 Y-4.266 F700.000
G1 X-0.568 Y-4.313 F700.000
G1 X-0.285 Y-4.341 F700.000
G1 X-0.000 Y-4.350 F700.000
G1 X0.285 Y-4.341 F700.000
G1 X0.568 Y-4.313 F700.000
G1 X0.849 Y-4.266 F700.000
G1 X1.126 Y-4.202 F700.000
