(Generated by fabex_workshop.toolkit)
(Material: hardwood)
G90
G21
G17
M3 S10000
G0 Z5.000
G0 X-32.800 Y-16.800
G1 X-26.800 Y-16.800 Z-1.500 F250.000
G1 X-26.800 Y-16.800 F900.000
G1 X26.800 Y-16.800 F900.000
G1 X26.800 Y-14.400 F900.000
G1 X-26.800 Y-14.400 F900.000
G1 X-26.800 Y-12.000 F900.000
G1 X26.800 Y-12.000 F900.000
G1 X26.800 Y-9.600 F900.000
G1 X-26.800 Y-9.600 F900.000
G1 X-26.800 Y-7.200 F900.000
G1 X26.800 Y-7.200 F900.000
G1 X26.800 Y-4.800 F900.000
G1 X-26.800 Y-4.800 F900.000
G1 X-26.800 Y-2.400 F900.000
G1 X26.800 Y-2.400 F900.000
G1 X26.800 Y0.000 F900.000
G1 X-26.800 Y0.000 F900.000
G1 X-26.800 Y2.400 F900.000
G1 X26.800 Y2.400 F900.000
G1 X26.800 Y4.800 F900.000
G1 X-26.800 Y4.800 F900.000
G1 X-26.800 Y7.200 F900.000
G1 X26.800 Y7.200 F900.000
G1 X26.800 Y9.600 F900.000
G1 X-26.800 Y9.600 F900.000
G1 X-26.800 Y12.000 F900.000
G1 X26.800 Y12.000 F900.000
G1 X26.800 Y14.400 F900.000
G1 X-26.800 Y14.400 F900.000
G1 X-26.800 Y16.800 F900.000
G1 X26.800 Y16.800 F900.000
G0 Z5.000
G0 X-32.800 Y-16.800
G1 X-26.800 Y-16.800 Z-3.000 F250.000
G1 X26.800 Y-16.800 F900.000
G1 X-26.800 Y-16.800 F900.000
G1 X-26.800 Y-14.400 F900.000
G1 X26.800 Y-14.400 F900.000
G1 X26.800 Y-12.000 F900.000
G1 X-26.800 Y-12.000 F900.000
G1 X-26.800 Y-9.600 F900.000
G1 X26.800 Y-9.600 F900.000
G1 X26.800 Y-7.200 F900.000
G1 X-26.800 Y-7.200 F900.000
G1 X-26.800 Y-4.800 F900.000
G1 X26.800 Y-4.800 F900.000
G1 X26.800 Y-2.400 F900.000
G1 X-26.800 Y-2.400 F900.000
G1 X-26.800 Y0.000 F900.000
G1 X26.800 Y0.000 F900.000
G1 X26.800 Y2.400 F900.000
G1 X-26.800 Y2.400 F900.000
G1 X-26.800 Y4.800 F900.000
G1 X26.800 Y4.800 F900.000
G1 X26.800 Y7.200 F900.000
G1 X-26.800 Y7.200 F900.000
G1 X-26.800 Y9.600 F900.000
G1 X26.800 Y9.600 F900.000
G1 X26.800 Y12.000 F900.000
G1 X-26.800 Y12.000 F900.000
G1 X-26.800 Y14.400 F900.000
G1 X26.800 Y14.400 F900.000
G1 X26.800 Y16.800 F900.000
G1 X-26.800 Y16.800 F900.000
G0 Z5.000
G0 X-32.800 Y-16.800
G1 X-26.800 Y-16.800 Z-4.500 F250.000
G1 X-26.800 Y-16.800 F900.000
G1 X26.800 Y-16.800 F900.000
G1 X26.800 Y-14.400 F900.000
G1 X-26.800 Y-14.400 F900.000
G1 X-26.800 Y-12.000 F900.000
G1 X26.800 Y-12.000 F900.000
G1 X26.800 Y-9.600 F900.000
G1 X-26.800 Y-9.600 F900.000
G1 X-26.800 Y-7.200 F900.000
G1 X26.800 Y-7.200 F900.000
G1 X26.800 Y-4.800 F900.000
G1 X-26.800 Y-4.800 F900.000
G1 X-26.800 Y-2.400 F900.000
G1 X26.800 Y-2.400 F900.000
G1 X26.800 Y0.000 F900.000
G1 X-26.800 Y0.000 F900.000
G1 X-26.800 Y2.400 F900.000
G1 X26.800 Y2.400 F900.000
G1 X26.800 Y4.800 F900.000
G1 X-26.800 Y4.800 F900.000
G1 X-26.800 Y7.200 F900.000
G1 X26.800 Y7.200 F900.000
G1 X26.800 Y9.600 F900.000
G1 X-26.800 Y9.600 F900.000
G1 X-26.800 Y12.000 F900.000
G1 X26.800 Y12.000 F900.000
G1 X26.800 Y14.400 F900.000
G1 X-26.800 Y14.400 F900.000
G1 X-26.800 Y16.800 F900.000
G1 X26.800 Y16.800 F900.000
G0 Z5.000
G0 X-32.800 Y-16.800
G1 X-26.800 Y-16.800 Z-6.000 F250.000
G1 X26.800 Y-16.800 F900.000
G1 X-26.800 Y-16.800 F900.000
G1 X-26.800 Y-14.400 F900.000
G1 X26.800 Y-14.400 F900.000
G1 X26.800 Y-12.000 F900.000
G1 X-26.800 Y-12.000 F900.000
G1 X-26.800 Y-9.600 F900.000
G1 X26.800 Y-9.600 F900.000
G1 X26.800 Y-7.200 F900.000
G1 X-26.800 Y-7.200 F900.000
G1 X-26.800 Y-4.800 F900.000
G1 X26.800 Y-4.800 F900.000
G1 X26.800 Y-2.400 F900.000
G1 X-26.800 Y-2.400 F900.000
G1 X-26.800 Y0.000 F900.000
G1 X26.800 Y0.000 F900.000
G1 X26.800 Y2.400 F900.000
G1 X-26.800 Y2.400 F900.000
G1 X-26.800 Y4.800 F900.000
G1 X26.800 Y4.800 F900.000
G1 X26.800 Y7.200 F900.000
G1 X-26.800 Y7.200 F900.000
G1 X-26.800 Y9.600 F900.000
G1 X26.800 Y9.600 F900.000
G1 X26.800 Y12.000 F900.000
G1 X-26.800 Y12.000 F900.000
G1 X-26.800 Y14.400 F900.000
G1 X26.800 Y14.400 F900.000
G1 X26.800 Y16.800 F900.000
G1 X-26.800 Y16.800 F900.000
G0 Z5.000
G0 X-27.000 Y-17.000
G1 Z-6.000 F250.000
G1 X-27.000 Y-17.000 F500.000
G1 X27.000 Y-17.000 F500.000
G1 X27.000 Y17.000 F500.000
G1 X-27.000 Y17.000 F500.000
G1 X-27.000 Y-17.000 F500.000
G0 Z5.000
M5
G0 X0.000 Y0.000
M30
