(Generated by fabex_workshop.toolkit)
(Material: brass)
G90
G21
G17
M3 S12000
G0 Z5.000
G0 X10.900 Y0.000
G1 X13.900 Y0.000 Z-1.000 F150.000
G1 X13.900 Y0.000 F500.000
G1 X13.883 Y0.682 F500.000
G1 X13.833 Y1.362 F500.000
G1 X13.750 Y2.040 F500.000
G1 X13.633 Y2.712 F500.000
G1 X13.483 Y3.377 F500.000
G1 X13.301 Y4.035 F500.000
G1 X13.087 Y4.683 F500.000
G1 X12.842 Y5.319 F500.000
G1 X12.565 Y5.943 F500.000
G1 X12.259 Y6.552 F500.000
G1 X11.922 Y7.146 F500.000
G1 X11.557 Y7.722 F500.000
G1 X11.165 Y8.280 F500.000
G1 X10.745 Y8.818 F500.000
G1 X10.299 Y9.335 F500.000
G1 X9.829 Y9.829 F500.000
G1 X9.335 Y10.299 F500.000
G1 X8.818 Y10.745 F500.000
G1 X8.280 Y11.165 F500.000
G1 X7.722 Y11.557 F500.000
G1 X7.146 Y11.922 F500.000
G1 X6.552 Y12.259 F500.000
G1 X5.943 Y12.565 F500.000
G1 X5.319 Y12.842 F500.000
G1 X4.683 Y13.087 F500.000
G1 X4.035 Y13.301 F500.000
G1 X3.377 Y13.483 F500.000
G1 X2.712 Y13.633 F500.000
G1 X2.040 Y13.750 F500.000
G1 X1.362 Y13.833 F500.000
G1 X0.682 Y13.883 F500.000
G1 X0.000 Y13.900 F500.000
G1 X-0.682 Y13.883 F500.000
G1 X-1.362 Y13.833 F500.000
G1 X-2.040 Y13.750 F500.000
G1 X-2.712 Y13.633 F500.000
G1 X-3.377 Y13.483 F500.000
G1 X-4.035 Y13.301 F500.000
G1 X-4.683 Y13.087 F500.000
G1 X-5.319 Y12.842 F500.000
G1 X-5.943 Y12.565 F500.000
G1 X-6.552 Y12.259 F500.000
G1 X-7.146 Y11.922 F500.000
G1 X-7.722 Y11.557 F500.000
G1 X-8.280 Y11.165 F500.000
G1 X-8.818 Y10.745 F500.000
G1 X-9.335 Y10.299 F500.000
G1 X-9.829 Y9.829 F500.000
G1 X-10.299 Y9.335 F500.000
G1 X-10.745 Y8.818 F500.000
G1 X-11.165 Y8.280 F500.000
G1 X-11.557 Y7.722 F500.000
G1 X-11.922 Y7.146 F500.000
G1 X-12.259 Y6.552 F500.000
G1 X-12.565 Y5.943 F500.000
G1 X-12.842 Y5.319 F500.000
G1 X-13.087 Y4.683 F500.000
G1 X-13.301 Y4.035 F500.000
G1 X-13.483 Y3.377 F500.000
G1 X-13.633 Y2.712 F500.000
G1 X-13.750 Y2.040 F500.000
G1 X-13.833 Y1.362 F500.000
G1 X-13.883 Y0.682 F500.000
G1 X-13.900 Y0.000 F500.000
G1 X-13.883 Y-0.682 F500.000
G1 X-13.833 Y-1.362 F500.000
G1 X-13.750 Y-2.040 F500.000
G1 X-13.633 Y-2.712 F500.000
G1 X-13.483 Y-3.377 F500.000
G1 X-13.301 Y-4.035 F500.000
G1 X-13.087 Y-4.683 F500.000
G1 X-12.842 Y-5.319 F500.000
G1 X-12.565 Y-5.943 F500.000
G1 X-12.259 Y-6.552 F500.000
G1 X-11.922 Y-7.146 F500.000
G1 X-11.557 Y-7.722 F500.000
G1 X-11.165 Y-8.280 F500.000
G1 X-10.745 Y-8.818 F500.000
G1 X-10.299 Y-9.335 F500.000
G1 X-9.829 Y-9.829 F500.000
G1 X-9.335 Y-10.299 F500.000
G1 X-8.818 Y-10.745 F500.000
G1 X-8.280 Y-11.165 F500.000
G1 X-7.722 Y-11.557 F500.000
G1 X-7.146 Y-11.922 F500.000
G1 X-6.552 Y-12.259 F500.000
G1 X-5.943 Y-12.565 F500.000
G1 X-5.319 Y-12.842 F500.000
G1 X-4.683 Y-13.087 F500.000
G1 X-4.035 Y-13.301 F500.000
G1 X-3.377 Y-13.483 F500.000
G1 X-2.712 Y-13.633 F500.000
G1 X-2.040 Y-13.750 F500.000
G1 X-1.362 Y-13.833 F500.000
G1 X-0.682 Y-13.883 F500.000
G1 X-0.000 Y-13.900 F500.000
G1 X0.682 Y-13.883 F500.000
G1 X1.362 Y-13.833 F500.000
G1 X2.040 Y-13.750 F500.000
G1 X2.712 Y-13.633 F500.000
G1 X3.377 Y-13.483 F500.000
G1 X4.035 Y-13.301 F500.000
G1 X4.683 Y-13.087 F500.000
G1 X5.319 Y-12.842 F500.000
G1 X5.943 Y-12.565 F500.000
G1 X6.552 Y-12.259 F500.000
G1 X7.146 Y-11.922 F500.000
G1 X7.722 Y-11.557 F500.000
G1 X8.280 Y-11.165 F500.000
G1 X8.818 Y-10.745 F500.000
G1 X9.335 Y-10.299 F500.000
G1 X9.829 Y-9.829 F500.000
G1 X10.299 Y-9.335 F500.000
G1 X10.745 Y-8.818 F500.000
G1 X11.165 Y-8.280 F500.000
G1 X11.557 Y-7.722 F500.000
G1 X11.922 Y-7.146 F500.000
G1 X12.259 Y-6.552 F500.000
G1 X12.565 Y-5.943 F500.000
G1 X12.842 Y-5.319 F500.000
G1 X13.087 Y-4.683 F500.000
G1 X13.301 Y-4.035 F500.000
G1 X13.483 Y-3.377 F500.000
G1 X13.633 Y-2.712 F500.000
G1 X13.750 Y-2.040 F500.000
G1 X13.833 Y-1.362 F500.000
G1 X13.883 Y-0.682 F500.000
G1 X13.900 Y-0.000 F500.000
G0 Z5.000
G0 Z5.000
G0 X8.100 Y0.000
G1 X11.100 Y0.000 Z-1.000 F150.000
G1 X11.100 Y-0.000 F500.000
G1 X11.087 Y-0.545 F500.000
G1 X11.047 Y-1.088 F500.000
G1 X10.980 Y-1.629 F500.000
G1 X10.887 Y-2.166 F500.000
G1 X10.767 Y-2.697 F500.000
G1 X10.622 Y-3.222 F500.000
G1 X10.451 Y-3.739 F500.000
G1 X10.255 Y-4.248 F500.000
G1 X10.034 Y-4.746 F500.000
G1 X9.789 Y-5.233 F500.000
G1 X9.521 Y-5.707 F500.000
G1 X9.229 Y-6.167 F500.000
G1 X8.916 Y-6.612 F500.000
G1 X8.580 Y-7.042 F500.000
G1 X8.225 Y-7.454 F500.000
G1 X7.849 Y-7.849 F500.000
G1 X7.454 Y-8.225 F500.000
G1 X7.042 Y-8.580 F500.000
G1 X6.612 Y-8.916 F500.000
G1 X6.167 Y-9.229 F500.000
G1 X5.707 Y-9.521 F500.000
G1 X5.233 Y-9.789 F500.000
G1 X4.746 Y-10.034 F500.000
G1 X4.248 Y-10.255 F500.000
G1 X3.739 Y-10.451 F500.000
G1 X3.222 Y-10.622 F500.000
G1 X2.697 Y-10.767 F500.000
G1 X2.166 Y-10.887 F500.000
G1 X1.629 Y-10.980 F500.000
G1 X1.088 Y-11.047 F500.000
G1 X0.545 Y-11.087 F500.000
G1 X-0.000 Y-11.100 F500.000
G1 X-0.545 Y-11.087 F500.000
G1 X-1.088 Y-11.047 F500.000
G1 X-1.629 Y-10.980 F500.000
G1 X-2.166 Y-10.887 F500.000
G1 X-2.697 Y-10.767 F500.000
G1 X-3.222 Y-10.622 F500.000
G1 X-3.739 Y-10.451 F500.000
G1 X-4.248 Y-10.255 F500.000
G1 X-4.746 Y-10.034 F500.000
G1 X-5.233 Y-9.789 F500.000
G1 X-5.707 Y-9.521 F500.000
G1 X-6.167 Y-9.229 F500.000
G1 X-6.612 Y-8.916 F500.000
G1 X-7.042 Y-8.580 F500.000
G1 X-7.454 Y-8.225 F500.000
G1 X-7.849 Y-7.849 F500.000
G1 X-8.225 Y-7.454 F500.000
G1 X-8.580 Y-7.042 F500.000
G1 X-8.916 Y-6.612 F500.000
G1 X-9.229 Y-6.167 F500.000
G1 X-9.521 Y-5.707 F500.000
G1 X-9.789 Y-5.233 F500.000
G1 X-10.034 Y-4.746 F500.000
G1 X-10.255 Y-4.248 F500.000
G1 X-10.451 Y-3.739 F500.000
G1 X-10.622 Y-3.222 F500.000
G1 X-10.767 Y-2.697 F500.000
G1 X-10.887 Y-2.166 F500.000
G1 X-10.980 Y-1.629 F500.000
G1 X-11.047 Y-1.088 F500.000
G1 X-11.087 Y-0.545 F500.000
G1 X-11.100 Y0.000 F500.000
G1 X-11.087 Y0.545 F500.000
G1 X-11.047 Y1.088 F500.000
G1 X-10.980 Y1.629 F500.000
G1 X-10.887 Y2.166 F500.000
G1 X-10.767 Y2.697 F500.000
G1 X-10.622 Y3.222 F500.000
G1 X-10.451 Y3.739 F500.000
G1 X-10.255 Y4.248 F500.000
G1 X-10.034 Y4.746 F500.000
G1 X-9.789 Y5.233 F500.000
G1 X-9.521 Y5.707 F500.000
G1 X-9.229 Y6.167 F500.000
G1 X-8.916 Y6.612 F500.000
G1 X-8.580 Y7.042 F500.000
G1 X-8.225 Y7.454 F500.000
G1 X-7.849 Y7.849 F500.000
G1 X-7.454 Y8.225 F500.000
G1 X-7.042 Y8.580 F500.000
G1 X-6.612 Y8.916 F500.000
G1 X-6.167 Y9.229 F500.000
G1 X-5.707 Y9.521 F500.000
G1 X-5.233 Y9.789 F500.000
G1 X-4.746 Y10.034 F500.000
G1 X-4.248 Y10.255 F500.000
G1 X-3.739 Y10.451 F500.000
G1 X-3.222 Y10.622 F500.000
G1 X-2.697 Y10.767 F500.000
G1 X-2.166 Y10.887 F500.000
G1 X-1.629 Y10.980 F500.000
G1 X-1.088 Y11.047 F500.000
G1 X-0.545 Y11.087 F500.000
G1 X0.000 Y11.100 F500.000
G1 X0.545 Y11.087 F500.000
G1 X1.088 Y11.047 F500.000
G1 X1.629 Y10.980 F500.000
G1 X2.166 Y10.887 F500.000
G1 X2.697 Y10.767 F500.000
G1 X3.222 Y10.622 F500.000
G1 X3.739 Y10.451 F500.000
G1 X4.248 Y10.255 F500.000
G1 X4.746 Y10.034 F500.000
G1 X5.233 Y9.789 F500.000
G1 X5.707 Y9.521 F500.000
G1 X6.167 Y9.229 F500.000
G1 X6.612 Y8.916 F500.000
G1 X7.042 Y8.580 F500.000
G1 X7.454 Y8.225 F500.000
G1 X7.849 Y7.849 F500.000
G1 X8.225 Y7.454 F500.000
G1 X8.580 Y7.042 F500.000
G1 X8.916 Y6.612 F500.000
G1 X9.229 Y6.167 F500.000
G1 X9.521 Y5.707 F500.000
G1 X9.789 Y5.233 F500.000
G1 X10.034 Y4.746 F500.000
G1 X10.255 Y4.248 F500.000
G1 X10.451 Y3.739 F500.000
G1 X10.622 Y3.222 F500.000
G1 X10.767 Y2.697 F500.000
G1 X10.887 Y2.166 F500.000
G1 X10.980 Y1.629 F500.000
G1 X11.047 Y1.088 F500.000
G1 X11.087 Y0.545 F500.000
G1 X11.100 Y0.000 F500.000
G0 Z5.000
G0 X10.900 Y0.000
G1 X13.900 Y0.000 Z-2.000 F150.000
G1 X13.900 Y0.000 F500.000
G1 X13.883 Y0.682 F500.000
G1 X13.833 Y1.362 F500.000
G1 X13.750 Y2.040 F500.000
G1 X13.633 Y2.712 F500.000
G1 X13.483 Y3.377 F500.000
G1 X13.301 Y4.035 F500.000
G1 X13.087 Y4.683 F500.000
G1 X12.842 Y5.319 F500.000
G1 X12.565 Y5.943 F500.000
G1 X12.259 Y6.552 F500.000
G1 X11.922 Y7.146 F500.000
G1 X11.557 Y7.722 F500.000
G1 X11.165 Y8.280 F500.000
G1 X10.745 Y8.818 F500.000
G1 X10.299 Y9.335 F500.000
G1 X9.829 Y9.829 F500.000
G1 X9.335 Y10.299 F500.000
G1 X8.818 Y10.745 F500.000
G1 X8.280 Y11.165 F500.000
G1 X7.722 Y11.557 F500.000
G1 X7.146 Y11.922 F500.000
G1 X6.552 Y12.259 F500.000
G1 X5.943 Y12.565 F500.000
G1 X5.319 Y12.842 F500.000
G1 X4.683 Y13.087 F500.000
G1 X4.035 Y13.301 F500.000
G1 X3.377 Y13.483 F500.000
G1 X2.712 Y13.633 F500.000
G1 X2.040 Y13.750 F500.000
G1 X1.362 Y13.833 F500.000
G1 X0.682 Y13.883 F500.000
G1 X0.000 Y13.900 F500.000
G1 X-0.682 Y13.883 F500.000
G1 X-1.362 Y13.833 F500.000
G1 X-2.040 Y13.750 F500.000
G1 X-2.712 Y13.633 F500.000
G1 X-3.377 Y13.483 F500.000
G1 X-4.035 Y13.301 F500.000
G1 X-4.683 Y13.087 F500.000
G1 X-5.319 Y12.842 F500.000
G1 X-5.943 Y12.565 F500.000
G1 X-6.552 Y12.259 F500.000
G1 X-7.146 Y11.922 F500.000
G1 X-7.722 Y11.557 F500.000
G1 X-8.280 Y11.165 F500.000
G1 X-8.818 Y10.745 F500.000
G1 X-9.335 Y10.299 F500.000
G1 X-9.829 Y9.829 F500.000
G1 X-10.299 Y9.335 F500.000
G1 X-10.745 Y8.818 F500.000
G1 X-11.165 Y8.280 F500.000
G1 X-11.557 Y7.722 F500.000
G1 X-11.922 Y7.146 F500.000
G1 X-12.259 Y6.552 F500.000
G1 X-12.565 Y5.943 F500.000
G1 X-12.842 Y5.319 F500.000
G1 X-13.087 Y4.683 F500.000
G1 X-13.301 Y4.035 F500.000
G1 X-13.483 Y3.377 F500.000
G1 X-13.633 Y2.712 F500.000
G1 X-13.750 Y2.040 F500.000
G1 X-13.833 Y1.362 F500.000
G1 X-13.883 Y0.682 F500.000
G1 X-13.900 Y0.000 F500.000
G1 X-13.883 Y-0.682 F500.000
G1 X-13.833 Y-1.362 F500.000
G1 X-13.750 Y-2.040 F500.000
G1 X-13.633 Y-2.712 F500.000
G1 X-13.483 Y-3.377 F500.000
G1 X-13.301 Y-4.035 F500.000
G1 X-13.087 Y-4.683 F500.000
G1 X-12.842 Y-5.319 F500.000
G1 X-12.565 Y-5.943 F500.000
G1 X-12.259 Y-6.552 F500.000
G1 X-11.922 Y-7.146 F500.000
G1 X-11.557 Y-7.722 F500.000
G1 X-11.165 Y-8.280 F500.000
G1 X-10.745 Y-8.818 F500.000
G1 X-10.299 Y-9.335 F500.000
G1 X-9.829 Y-9.829 F500.000
G1 X-9.335 Y-10.299 F500.000
G1 X-8.818 Y-10.745 F500.000
G1 X-8.280 Y-11.165 F500.000
G1 X-7.722 Y-11.557 F500.000
G1 X-7.146 Y-11.922 F500.000
G1 X-6.552 Y-12.259 F500.000
G1 X-5.943 Y-12.565 F500.000
G1 X-5.319 Y-12.842 F500.000
G1 X-4.683 Y-13.087 F500.000
G1 X-4.035 Y-13.301 F500.000
G1 X-3.377 Y-13.483 F500.000
G1 X-2.712 Y-13.633 F500.000
G1 X-2.040 Y-13.750 F500.000
G1 X-1.362 Y-13.833 F500.000
G1 X-0.682 Y-13.883 F500.000
G1 X-0.000 Y-13.900 F500.000
G1 X0.682 Y-13.883 F500.000
G1 X1.362 Y-13.833 F500.000
G1 X2.040 Y-13.750 F500.000
G1 X2.712 Y-13.633 F500.000
G1 X3.377 Y-13.483 F500.000
G1 X4.035 Y-13.301 F500.000
G1 X4.683 Y-13.087 F500.000
G1 X5.319 Y-12.842 F500.000
G1 X5.943 Y-12.565 F500.000
G1 X6.552 Y-12.259 F500.000
G1 X7.146 Y-11.922 F500.000
G1 X7.722 Y-11.557 F500.000
G1 X8.280 Y-11.165 F500.000
G1 X8.818 Y-10.745 F500.000
G1 X9.335 Y-10.299 F500.000
G1 X9.829 Y-9.829 F500.000
G1 X10.299 Y-9.335 F500.000
G1 X10.745 Y-8.818 F500.000
G1 X11.165 Y-8.280 F500.000
G1 X11.557 Y-7.722 F500.000
G1 X11.922 Y-7.146 F500.000
G1 X12.259 Y-6.552 F500.000
G1 X12.565 Y-5.943 F500.000
G1 X12.842 Y-5.319 F500.000
G1 X13.087 Y-4.683 F500.000
G1 X13.301 Y-4.035 F500.000
G1 X13.483 Y-3.377 F500.000
G1 X13.633 Y-2.712 F500.000
G1 X13.750 Y-2.040 F500.000
G1 X13.833 Y-1.362 F500.000
G1 X13.883 Y-0.682 F500.000
G1 X13.900 Y-0.000 F500.000
G0 Z5.000
G0 Z5.000
G0 X8.100 Y0.000
G1 X11.100 Y0.000 Z-2.000 F150.000
G1 X11.100 Y-0.000 F500.000
G1 X11.087 Y-0.545 F500.000
G1 X11.047 Y-1.088 F500.000
G1 X10.980 Y-1.629 F500.000
G1 X10.887 Y-2.166 F500.000
G1 X10.767 Y-2.697 F500.000
G1 X10.622 Y-3.222 F500.000
G1 X10.451 Y-3.739 F500.000
G1 X10.255 Y-4.248 F500.000
G1 X10.034 Y-4.746 F500.000
G1 X9.789 Y-5.233 F500.000
G1 X9.521 Y-5.707 F500.000
G1 X9.229 Y-6.167 F500.000
G1 X8.916 Y-6.612 F500.000
G1 X8.580 Y-7.042 F500.000
G1 X8.225 Y-7.454 F500.000
G1 X7.849 Y-7.849 F500.000
G1 X7.454 Y-8.225 F500.000
G1 X7.042 Y-8.580 F500.000
G1 X6.612 Y-8.916 F500.000
G1 X6.167 Y-9.229 F500.000
G1 X5.707 Y-9.521 F500.000
G1 X5.233 Y-9.789 F500.000
G1 X4.746 Y-10.034 F500.000
G1 X4.248 Y-10.255 F500.000
G1 X3.739 Y-10.451 F500.000
G1 X3.222 Y-10.622 F500.000
G1 X2.697 Y-10.767 F500.000
G1 X2.166 Y-10.887 F500.000
G1 X1.629 Y-10.980 F500.000
G1 X1.088 Y-11.047 F500.000
G1 X0.545 Y-11.087 F500.000
G1 X-0.000 Y-11.100 F500.000
G1 X-0.545 Y-11.087 F500.000
G1 X-1.088 Y-11.047 F500.000
G1 X-1.629 Y-10.980 F500.000
G1 X-2.166 Y-10.887 F500.000
G1 X-2.697 Y-10.767 F500.000
G1 X-3.222 Y-10.622 F500.000
G1 X-3.739 Y-10.451 F500.000
G1 X-4.248 Y-10.255 F500.000
G1 X-4.746 Y-10.034 F500.000
G1 X-5.233 Y-9.789 F500.000
G1 X-5.707 Y-9.521 F500.000
G1 X-6.167 Y-9.229 F500.000
G1 X-6.612 Y-8.916 F500.000
G1 X-7.042 Y-8.580 F500.000
G1 X-7.454 Y-8.225 F500.000
G1 X-7.849 Y-7.849 F500.000
G1 X-8.225 Y-7.454 F500.000
G1 X-8.580 Y-7.042 F500.000
G1 X-8.916 Y-6.612 F500.000
G1 X-9.229 Y-6.167 F500.000
G1 X-9.521 Y-5.707 F500.000
G1 X-9.789 Y-5.233 F500.000
G1 X-10.034 Y-4.746 F500.000
G1 X-10.255 Y-4.248 F500.000
G1 X-10.451 Y-3.739 F500.000
G1 X-10.622 Y-3.222 F500.000
G1 X-10.767 Y-2.697 F500.000
G1 X-10.887 Y-2.166 F500.000
G1 X-10.980 Y-1.629 F500.000
G1 X-11.047 Y-1.088 F500.000
G1 X-11.087 Y-0.545 F500.000
G1 X-11.100 Y0.000 F500.000
G1 X-11.087 Y0.545 F500.000
G1 X-11.047 Y1.088 F500.000
G1 X-10.980 Y1.629 F500.000
G1 X-10.887 Y2.166 F500.000
G1 X-10.767 Y2.697 F500.000
G1 X-10.622 Y3.222 F500.000
G1 X-10.451 Y3.739 F500.000
G1 X-10.255 Y4.248 F500.000
G1 X-10.034 Y4.746 F500.000
G1 X-9.789 Y5.233 F500.000
G1 X-9.521 Y5.707 F500.000
G1 X-9.229 Y6.167 F500.000
G1 X-8.916 Y6.612 F500.000
G1 X-8.580 Y7.042 F500.000
G1 X-8.225 Y7.454 F500.000
G1 X-7.849 Y7.849 F500.000
G1 X-7.454 Y8.225 F500.000
G1 X-7.042 Y8.580 F500.000
G1 X-6.612 Y8.916 F500.000
G1 X-6.167 Y9.229 F500.000
G1 X-5.707 Y9.521 F500.000
G1 X-5.233 Y9.789 F500.000
G1 X-4.746 Y10.034 F500.000
G1 X-4.248 Y10.255 F500.000
G1 X-3.739 Y10.451 F500.000
G1 X-3.222 Y10.622 F500.000
G1 X-2.697 Y10.767 F500.000
G1 X-2.166 Y10.887 F500.000
G1 X-1.629 Y10.980 F500.000
G1 X-1.088 Y11.047 F500.000
G1 X-0.545 Y11.087 F500.000
G1 X0.000 Y11.100 F500.000
G1 X0.545 Y11.087 F500.000
G1 X1.088 Y11.047 F500.000
G1 X1.629 Y10.980 F500.000
G1 X2.166 Y10.887 F500.000
G1 X2.697 Y10.767 F500.000
G1 X3.222 Y10.622 F500.000
G1 X3.739 Y10.451 F500.000
G1 X4.248 Y10.255 F500.000
G1 X4.746 Y10.034 F500.000
G1 X5.233 Y9.789 F500.000
G1 X5.707 Y9.521 F500.000
G1 X6.167 Y9.229 F500.000
G1 X6.612 Y8.916 F500.000
G1 X7.042 Y8.580 F500.000
G1 X7.454 Y8.225 F500.000
G1 X7.849 Y7.849 F500.000
G1 X8.225 Y7.454 F500.000
G1 X8.580 Y7.042 F500.000
G1 X8.916 Y6.612 F500.000
G1 X9.229 Y6.167 F500.000
G1 X9.521 Y5.707 F500.000
G1 X9.789 Y5.233 F500.000
G1 X10.034 Y4.746 F500.000
G1 X10.255 Y4.248 F500.000
G1 X10.451 Y3.739 F500.000
G1 X10.622 Y3.222 F500.000
G1 X10.767 Y2.697 F500.000
G1 X10.887 Y2.166 F500.000
G1 X10.980 Y1.629 F500.000
G1 X11.047 Y1.088 F500.000
G1 X11.087 Y0.545 F500.000
G1 X11.100 Y0.000 F500.000
G0 Z5.000
G0 X10.900 Y0.000
G1 X13.900 Y0.000 Z-3.000 F150.000
G1 X13.900 Y0.000 F500.000
G1 X13.883 Y0.682 F500.000
G1 X13.833 Y1.362 F500.000
G1 X13.750 Y2.040 F500.000
G1 X13.633 Y2.712 F500.000
G1 X13.483 Y3.377 F500.000
G1 X13.301 Y4.035 F500.000
G1 X13.087 Y4.683 F500.000
G1 X12.842 Y5.319 F500.000
G1 X12.565 Y5.943 F500.000
G1 X12.259 Y6.552 F500.000
G1 X11.922 Y7.146 F500.000
G1 X11.557 Y7.722 F500.000
G1 X11.165 Y8.280 F500.000
G1 X10.745 Y8.818 F500.000
G1 X10.299 Y9.335 F500.000
G1 X9.829 Y9.829 F500.000
G1 X9.335 Y10.299 F500.000
G1 X8.818 Y10.745 F500.000
G1 X8.280 Y11.165 F500.000
G1 X7.722 Y11.557 F500.000
G1 X7.146 Y11.922 F500.000
G1 X6.552 Y12.259 F500.000
G1 X5.943 Y12.565 F500.000
G1 X5.319 Y12.842 F500.000
G1 X4.683 Y13.087 F500.000
G1 X4.035 Y13.301 F500.000
G1 X3.377 Y13.483 F500.000
G1 X2.712 Y13.633 F500.000
G1 X2.040 Y13.750 F500.000
G1 X1.362 Y13.833 F500.000
G1 X0.682 Y13.883 F500.000
G1 X0.000 Y13.900 F500.000
G1 X-0.682 Y13.883 F500.000
G1 X-1.362 Y13.833 F500.000
G1 X-2.040 Y13.750 F500.000
G1 X-2.712 Y13.633 F500.000
G1 X-3.377 Y13.483 F500.000
G1 X-4.035 Y13.301 F500.000
G1 X-4.683 Y13.087 F500.000
G1 X-5.319 Y12.842 F500.000
G1 X-5.943 Y12.565 F500.000
G1 X-6.552 Y12.259 F500.000
G1 X-7.146 Y11.922 F500.000
G1 X-7.722 Y11.557 F500.000
G1 X-8.280 Y11.165 F500.000
G1 X-8.818 Y10.745 F500.000
G1 X-9.335 Y10.299 F500.000
G1 X-9.829 Y9.829 F500.000
G1 X-10.299 Y9.335 F500.000
G1 X-10.745 Y8.818 F500.000
G1 X-11.165 Y8.280 F500.000
G1 X-11.557 Y7.722 F500.000
G1 X-11.922 Y7.146 F500.000
G1 X-12.259 Y6.552 F500.000
G1 X-12.565 Y5.943 F500.000
G1 X-12.842 Y5.319 F500.000
G1 X-13.087 Y4.683 F500.000
G1 X-13.301 Y4.035 F500.000
G1 X-13.483 Y3.377 F500.000
G1 X-13.633 Y2.712 F500.000
G1 X-13.750 Y2.040 F500.000
G1 X-13.833 Y1.362 F500.000
G1 X-13.883 Y0.682 F500.000
G1 X-13.900 Y0.000 F500.000
G1 X-13.883 Y-0.682 F500.000
G1 X-13.833 Y-1.362 F500.000
G1 X-13.750 Y-2.040 F500.000
G1 X-13.633 Y-2.712 F500.000
G1 X-13.483 Y-3.377 F500.000
G1 X-13.301 Y-4.035 F500.000
G1 X-13.087 Y-4.683 F500.000
G1 X-12.842 Y-5.319 F500.000
G1 X-12.565 Y-5.943 F500.000
G1 X-12.259 Y-6.552 F500.000
G1 X-11.922 Y-7.146 F500.000
G1 X-11.557 Y-7.722 F500.000
G1 X-11.165 Y-8.280 F500.000
G1 X-10.745 Y-8.818 F500.000
G1 X-10.299 Y-9.335 F500.000
G1 X-9.829 Y-9.829 F500.000
G1 X-9.335 Y-10.299 F500.000
G1 X-8.818 Y-10.745 F500.000
G1 X-8.280 Y-11.165 F500.000
G1 X-7.722 Y-11.557 F500.000
G1 X-7.146 Y-11.922 F500.000
G1 X-6.552 Y-12.259 F500.000
G1 X-5.943 Y-12.565 F500.000
G1 X-5.319 Y-12.842 F500.000
G1 X-4.683 Y-13.087 F500.000
G1 X-4.035 Y-13.301 F500.000
G1 X-3.377 Y-13.483 F500.000
G1 X-2.712 Y-13.633 F500.000
G1 X-2.040 Y-13.750 F500.000
G1 X-1.362 Y-13.833 F500.000
G1 X-0.682 Y-13.883 F500.000
G1 X-0.000 Y-13.900 F500.000
G1 X0.682 Y-13.883 F500.000
G1 X1.362 Y-13.833 F500.000
G1 X2.040 Y-13.750 F500.000
G1 X2.712 Y-13.633 F500.000
G1 X3.377 Y-13.483 F500.000
G1 X4.035 Y-13.301 F500.000
G1 X4.683 Y-13.087 F500.000
G1 X5.319 Y-12.842 F500.000
G1 X5.943 Y-12.565 F500.000
G1 X6.552 Y-12.259 F500.000
G1 X7.146 Y-11.922 F500.000
G1 X7.722 Y-11.557 F500.000
G1 X8.280 Y-11.165 F500.000
G1 X8.818 Y-10.745 F500.000
G1 X9.335 Y-10.299 F500.000
G1 X9.829 Y-9.829 F500.000
G1 X10.299 Y-9.335 F500.000
G1 X10.745 Y-8.818 F500.000
G1 X11.165 Y-8.280 F500.000
G1 X11.557 Y-7.722 F500.000
G1 X11.922 Y-7.146 F500.000
G1 X12.259 Y-6.552 F500.000
G1 X12.565 Y-5.943 F500.000
G1 X12.842 Y-5.319 F500.000
G1 X13.087 Y-4.683 F500.000
G1 X13.301 Y-4.035 F500.000
G1 X13.483 Y-3.377 F500.000
G1 X13.633 Y-2.712 F500.000
G1 X13.750 Y-2.040 F500.000
G1 X13.833 Y-1.362 F500.000
G1 X13.883 Y-0.682 F500.000
G1 X13.900 Y-0.000 F500.000
G0 Z5.000
G0 Z5.000
G0 X8.100 Y0.000
G1 X11.100 Y0.000 Z-3.000 F150.000
G1 X11.100 Y-0.000 F500.000
G1 X11.087 Y-0.545 F500.000
G1 X11.047 Y-1.088 F500.000
G1 X10.980 Y-1.629 F500.000
G1 X10.887 Y-2.166 F500.000
G1 X10.767 Y-2.697 F500.000
G1 X10.622 Y-3.222 F500.000
G1 X10.451 Y-3.739 F500.000
G1 X10.255 Y-4.248 F500.000
G1 X10.034 Y-4.746 F500.000
G1 X9.789 Y-5.233 F500.000
G1 X9.521 Y-5.707 F500.000
G1 X9.229 Y-6.167 F500.000
G1 X8.916 Y-6.612 F500.000
G1 X8.580 Y-7.042 F500.000
G1 X8.225 Y-7.454 F500.000
G1 X7.849 Y-7.849 F500.000
G1 X7.454 Y-8.225 F500.000
G1 X7.042 Y-8.580 F500.000
G1 X6.612 Y-8.916 F500.000
G1 X6.167 Y-9.229 F500.000
G1 X5.707 Y-9.521 F500.000
G1 X5.233 Y-9.789 F500.000
G1 X4.746 Y-10.034 F500.000
G1 X4.248 Y-10.255 F500.000
G1 X3.739 Y-10.451 F500.000
G1 X3.222 Y-10.622 F500.000
G1 X2.697 Y-10.767 F500.000
G1 X2.166 Y-10.887 F500.000
G1 X1.629 Y-10.980 F500.000
G1 X1.088 Y-11.047 F500.000
G1 X0.545 Y-11.087 F500.000
G1 X-0.000 Y-11.100 F500.000
G1 X-0.545 Y-11.087 F500.000
G1 X-1.088 Y-11.047 F500.000
G1 X-1.629 Y-10.980 F500.000
G1 X-2.166 Y-10.887 F500.000
G1 X-2.697 Y-10.767 F500.000
G1 X-3.222 Y-10.622 F500.000
G1 X-3.739 Y-10.451 F500.000
G1 X-4.248 Y-10.255 F500.000
G1 X-4.746 Y-10.034 F500.000
G1 X-5.233 Y-9.789 F500.000
G1 X-5.707 Y-9.521 F500.000
G1 X-6.167 Y-9.229 F500.000
G1 X-6.612 Y-8.916 F500.000
G1 X-7.042 Y-8.580 F500.000
G1 X-7.454 Y-8.225 F500.000
G1 X-7.849 Y-7.849 F500.000
G1 X-8.225 Y-7.454 F500.000
G1 X-8.580 Y-7.042 F500.000
G1 X-8.916 Y-6.612 F500.000
G1 X-9.229 Y-6.167 F500.000
G1 X-9.521 Y-5.707 F500.000
G1 X-9.789 Y-5.233 F500.000
G1 X-10.034 Y-4.746 F500.000
G1 X-10.255 Y-4.248 F500.000
G1 X-10.451 Y-3.739 F500.000
G1 X-10.622 Y-3.222 F500.000
G1 X-10.767 Y-2.697 F500.000
G1 X-10.887 Y-2.166 F500.000
G1 X-10.980 Y-1.629 F500.000
G1 X-11.047 Y-1.088 F500.000
G1 X-11.087 Y-0.545 F500.000
G1 X-11.100 Y0.000 F500.000
G1 X-11.087 Y0.545 F500.000
G1 X-11.047 Y1.088 F500.000
G1 X-10.980 Y1.629 F500.000
G1 X-10.887 Y2.166 F500.000
G1 X-10.767 Y2.697 F500.000
G1 X-10.622 Y3.222 F500.000
G1 X-10.451 Y3.739 F500.000
G1 X-10.255 Y4.248 F500.000
G1 X-10.034 Y4.746 F500.000
G1 X-9.789 Y5.233 F500.000
G1 X-9.521 Y5.707 F500.000
G1 X-9.229 Y6.167 F500.000
G1 X-8.916 Y6.612 F500.000
G1 X-8.580 Y7.042 F500.000
G1 X-8.225 Y7.454 F500.000
G1 X-7.849 Y7.849 F500.000
G1 X-7.454 Y8.225 F500.000
G1 X-7.042 Y8.580 F500.000
G1 X-6.612 Y8.916 F500.000
G1 X-6.167 Y9.229 F500.000
G1 X-5.707 Y9.521 F500.000
G1 X-5.233 Y9.789 F500.000
G1 X-4.746 Y10.034 F500.000
G1 X-4.248 Y10.255 F500.000
G1 X-3.739 Y10.451 F500.000
G1 X-3.222 Y10.622 F500.000
G1 X-2.697 Y10.767 F500.000
G1 X-2.166 Y10.887 F500.000
G1 X-1.629 Y10.980 F500.000
G1 X-1.088 Y11.047 F500.000
G1 X-0.545 Y11.087 F500.000
G1 X0.000 Y11.100 F500.000
G1 X0.545 Y11.087 F500.000
G1 X1.088 Y11.047 F500.000
G1 X1.629 Y10.980 F500.000
G1 X2.166 Y10.887 F500.000
G1 X2.697 Y10.767 F500.000
G1 X3.222 Y10.622 F500.000
G1 X3.739 Y10.451 F500.000
G1 X4.248 Y10.255 F500.000
G1 X4.746 Y10.034 F500.000
G1 X5.233 Y9.789 F500.000
G1 X5.707 Y9.521 F500.000
G1 X6.167 Y9.229 F500.000
G1 X6.612 Y8.916 F500.000
G1 X7.042 Y8.580 F500.000
G1 X7.454 Y8.225 F500.000
G1 X7.849 Y7.849 F500.000
G1 X8.225 Y7.454 F500.000
G1 X8.580 Y7.042 F500.000
G1 X8.916 Y6.612 F500.000
G1 X9.229 Y6.167 F500.000
G1 X9.521 Y5.707 F500.000
G1 X9.789 Y5.233 F500.000
G1 X10.034 Y4.746 F500.000
G1 X10.255 Y4.248 F500.000
G1 X10.451 Y3.739 F500.000
G1 X10.622 Y3.222 F500.000
G1 X10.767 Y2.697 F500.000
G1 X10.887 Y2.166 F500.000
G1 X10.980 Y1.629 F500.000
G1 X11.047 Y1.088 F500.000
G1 X11.087 Y0.545 F500.000
G1 X11.100 Y0.000 F500.000
G0 Z5.000
G0 X10.900 Y0.000
G1 X13.900 Y0.000 Z-4.000 F150.000
G1 X13.900 Y0.000 F500.000
G1 X13.883 Y0.682 F500.000
G1 X13.833 Y1.362 F500.000
G1 X13.750 Y2.040 F500.000
G1 X13.633 Y2.712 F500.000
G1 X13.483 Y3.377 F500.000
G1 X13.301 Y4.035 F500.000
G1 X13.087 Y4.683 F500.000
G1 X12.842 Y5.319 F500.000
G1 X12.565 Y5.943 F500.000
G1 X12.259 Y6.552 F500.000
G1 X11.922 Y7.146 F500.000
G1 X11.557 Y7.722 F500.000
G1 X11.165 Y8.280 F500.000
G1 X10.745 Y8.818 F500.000
G1 X10.299 Y9.335 F500.000
G1 X9.829 Y9.829 F500.000
G1 X9.335 Y10.299 F500.000
G1 X8.818 Y10.745 F500.000
G1 X8.280 Y11.165 F500.000
G1 X7.722 Y11.557 F500.000
G1 X7.146 Y11.922 F500.000
G1 X6.552 Y12.259 F500.000
G1 X5.943 Y12.565 F500.000
G1 X5.319 Y12.842 F500.000
G1 X4.683 Y13.087 F500.000
G1 X4.035 Y13.301 F500.000
G1 X3.377 Y13.483 F500.000
G1 X2.712 Y13.633 F500.000
G1 X2.040 Y13.750 F500.000
G1 X1.362 Y13.833 F500.000
G1 X0.682 Y13.883 F500.000
G1 X0.000 Y13.900 F500.000
G1 X-0.682 Y13.883 F500.000
G1 X-1.362 Y13.833 F500.000
G1 X-2.040 Y13.750 F500.000
G1 X-2.712 Y13.633 F500.000
G1 X-3.377 Y13.483 F500.000
G1 X-4.035 Y13.301 F500.000
G1 X-4.683 Y13.087 F500.000
G1 X-5.319 Y12.842 F500.000
G1 X-5.943 Y12.565 F500.000
G1 X-6.552 Y12.259 F500.000
G1 X-7.146 Y11.922 F500.000
G1 X-7.722 Y11.557 F500.000
G1 X-8.280 Y11.165 F500.000
G1 X-8.818 Y10.745 F500.000
G1 X-9.335 Y10.299 F500.000
G1 X-9.829 Y9.829 F500.000
G1 X-10.299 Y9.335 F500.000
G1 X-10.745 Y8.818 F500.000
G1 X-11.165 Y8.280 F500.000
G1 X-11.557 Y7.722 F500.000
G1 X-11.922 Y7.146 F500.000
G1 X-12.259 Y6.552 F500.000
G1 X-12.565 Y5.943 F500.000
G1 X-12.842 Y5.319 F500.000
G1 X-13.087 Y4.683 F500.000
G1 X-13.301 Y4.035 F500.000
G1 X-13.483 Y3.377 F500.000
G1 X-13.633 Y2.712 F500.000
G1 X-13.750 Y2.040 F500.000
G1 X-13.833 Y1.362 F500.000
G1 X-13.883 Y0.682 F500.000
G1 X-13.900 Y0.000 F500.000
G1 X-13.883 Y-0.682 F500.000
G1 X-13.833 Y-1.362 F500.000
G1 X-13.750 Y-2.040 F500.000
G1 X-13.633 Y-2.712 F500.000
G1 X-13.483 Y-3.377 F500.000
G1 X-13.301 Y-4.035 F500.000
G1 X-13.087 Y-4.683 F500.000
G1 X-12.842 Y-5.319 F500.000
G1 X-12.565 Y-5.943 F500.000
G1 X-12.259 Y-6.552 F500.000
G1 X-11.922 Y-7.146 F500.000
G1 X-11.557 Y-7.722 F500.000
G1 X-11.165 Y-8.280 F500.000
G1 X-10.745 Y-8.818 F500.000
G1 X-10.299 Y-9.335 F500.000
G1 X-9.829 Y-9.829 F500.000
G1 X-9.335 Y-10.299 F500.000
G1 X-8.818 Y-10.745 F500.000
G1 X-8.280 Y-11.165 F500.000
G1 X-7.722 Y-11.557 F500.000
G1 X-7.146 Y-11.922 F500.000
G1 X-6.552 Y-12.259 F500.000
G1 X-5.943 Y-12.565 F500.000
G1 X-5.319 Y-12.842 F500.000
G1 X-4.683 Y-13.087 F500.000
G1 X-4.035 Y-13.301 F500.000
G1 X-3.377 Y-13.483 F500.000
G1 X-2.712 Y-13.633 F500.000
G1 X-2.040 Y-13.750 F500.000
G1 X-1.362 Y-13.833 F500.000
G1 X-0.682 Y-13.883 F500.000
G1 X-0.000 Y-13.900 F500.000
G1 X0.682 Y-13.883 F500.000
G1 X1.362 Y-13.833 F500.000
G1 X2.040 Y-13.750 F500.000
G1 X2.712 Y-13.633 F500.000
G1 X3.377 Y-13.483 F500.000
G1 X4.035 Y-13.301 F500.000
G1 X4.683 Y-13.087 F500.000
G1 X5.319 Y-12.842 F500.000
G1 X5.943 Y-12.565 F500.000
G1 X6.552 Y-12.259 F500.000
G1 X7.146 Y-11.922 F500.000
G1 X7.722 Y-11.557 F500.000
G1 X8.280 Y-11.165 F500.000
G1 X8.818 Y-10.745 F500.000
G1 X9.335 Y-10.299 F500.000
G1 X9.829 Y-9.829 F500.000
G1 X10.299 Y-9.335 F500.000
G1 X10.745 Y-8.818 F500.000
G1 X11.165 Y-8.280 F500.000
G1 X11.557 Y-7.722 F500.000
G1 X11.922 Y-7.146 F500.000
G1 X12.259 Y-6.552 F500.000
G1 X12.565 Y-5.943 F500.000
G1 X12.842 Y-5.319 F500.000
G1 X13.087 Y-4.683 F500.000
G1 X13.301 Y-4.035 F500.000
G1 X13.483 Y-3.377 F500.000
G1 X13.633 Y-2.712 F500.000
G1 X13.750 Y-2.040 F500.000
G1 X13.833 Y-1.362 F500.000
G1 X13.883 Y-0.682 F500.000
G1 X13.900 Y-0.000 F500.000
G0 Z5.000
G0 Z5.000
G0 X8.100 Y0.000
G1 X11.100 Y0.000 Z-4.000 F150.000
G1 X11.100 Y-0.000 F500.000
G1 X11.087 Y-0.545 F500.000
G1 X11.047 Y-1.088 F500.000
G1 X10.980 Y-1.629 F500.000
G1 X10.887 Y-2.166 F500.000
G1 X10.767 Y-2.697 F500.000
G1 X10.622 Y-3.222 F500.000
G1 X10.451 Y-3.739 F500.000
G1 X10.255 Y-4.248 F500.000
G1 X10.034 Y-4.746 F500.000
G1 X9.789 Y-5.233 F500.000
G1 X9.521 Y-5.707 F500.000
G1 X9.229 Y-6.167 F500.000
G1 X8.916 Y-6.612 F500.000
G1 X8.580 Y-7.042 F500.000
G1 X8.225 Y-7.454 F500.000
G1 X7.849 Y-7.849 F500.000
G1 X7.454 Y-8.225 F500.000
G1 X7.042 Y-8.580 F500.000
G1 X6.612 Y-8.916 F500.000
G1 X6.167 Y-9.229 F500.000
G1 X5.707 Y-9.521 F500.000
G1 X5.233 Y-9.789 F500.000
G1 X4.746 Y-10.034 F500.000
G1 X4.248 Y-10.255 F500.000
G1 X3.739 Y-10.451 F500.000
G1 X3.222 Y-10.622 F500.000
G1 X2.697 Y-10.767 F500.000
G1 X2.166 Y-10.887 F500.000
G1 X1.629 Y-10.980 F500.000
G1 X1.088 Y-11.047 F500.000
G1 X0.545 Y-11.087 F500.000
G1 X-0.000 Y-11.100 F500.000
G1 X-0.545 Y-11.087 F500.000
G1 X-1.088 Y-11.047 F500.000
G1 X-1.629 Y-10.980 F500.000
G1 X-2.166 Y-10.887 F500.000
G1 X-2.697 Y-10.767 F500.000
G1 X-3.222 Y-10.622 F500.000
G1 X-3.739 Y-10.451 F500.000
G1 X-4.248 Y-10.255 F500.000
G1 X-4.746 Y-10.034 F500.000
G1 X-5.233 Y-9.789 F500.000
G1 X-5.707 Y-9.521 F500.000
G1 X-6.167 Y-9.229 F500.000
G1 X-6.612 Y-8.916 F500.000
G1 X-7.042 Y-8.580 F500.000
G1 X-7.454 Y-8.225 F500.000
G1 X-7.849 Y-7.849 F500.000
G1 X-8.225 Y-7.454 F500.000
G1 X-8.580 Y-7.042 F500.000
G1 X-8.916 Y-6.612 F500.000
G1 X-9.229 Y-6.167 F500.000
G1 X-9.521 Y-5.707 F500.000
G1 X-9.789 Y-5.233 F500.000
G1 X-10.034 Y-4.746 F500.000
G1 X-10.255 Y-4.248 F500.000
G1 X-10.451 Y-3.739 F500.000
G1 X-10.622 Y-3.222 F500.000
G1 X-10.767 Y-2.697 F500.000
G1 X-10.887 Y-2.166 F500.000
G1 X-10.980 Y-1.629 F500.000
G1 X-11.047 Y-1.088 F500.000
G1 X-11.087 Y-0.545 F500.000
G1 X-11.100 Y0.000 F500.000
G1 X-11.087 Y0.545 F500.000
G1 X-11.047 Y1.088 F500.000
G1 X-10.980 Y1.629 F500.000
G1 X-10.887 Y2.166 F500.000
G1 X-10.767 Y2.697 F500.000
G1 X-10.622 Y3.222 F500.000
G1 X-10.451 Y3.739 F500.000
G1 X-10.255 Y4.248 F500.000
G1 X-10.034 Y4.746 F500.000
G1 X-9.789 Y5.233 F500.000
G1 X-9.521 Y5.707 F500.000
G1 X-9.229 Y6.167 F500.000
G1 X-8.916 Y6.612 F500.000
G1 X-8.580 Y7.042 F500.000
G1 X-8.225 Y7.454 F500.000
G1 X-7.849 Y7.849 F500.000
G1 X-7.454 Y8.225 F500.000
G1 X-7.042 Y8.580 F500.000
G1 X-6.612 Y8.916 F500.000
G1 X-6.167 Y9.229 F500.000
G1 X-5.707 Y9.521 F500.000
G1 X-5.233 Y9.789 F500.000
G1 X-4.746 Y10.034 F500.000
G1 X-4.248 Y10.255 F500.000
G1 X-3.739 Y10.451 F500.000
G1 X-3.222 Y10.622 F500.000
G1 X-2.697 Y10.767 F500.000
G1 X-2.166 Y10.887 F500.000
G1 X-1.629 Y10.980 F500.000
G1 X-1.088 Y11.047 F500.000
G1 X-0.545 Y11.087 F500.000
G1 X0.000 Y11.100 F500.000
G1 X0.545 Y11.087 F500.000
G1 X1.088 Y11.047 F500.000
G1 X1.629 Y10.980 F500.000
G1 X2.166 Y10.887 F500.000
G1 X2.697 Y10.767 F500.000
G1 X3.222 Y10.622 F500.000
G1 X3.739 Y10.451 F500.000
G1 X4.248 Y10.255 F500.000
G1 X4.746 Y10.034 F500.000
G1 X5.233 Y9.789 F500.000
G1 X5.707 Y9.521 F500.000
G1 X6.167 Y9.229 F500.000
G1 X6.612 Y8.916 F500.000
G1 X7.042 Y8.580 F500.000
G1 X7.454 Y8.225 F500.000
G1 X7.849 Y7.849 F500.000
G1 X8.225 Y7.454 F500.000
G1 X8.580 Y7.042 F500.000
G1 X8.916 Y6.612 F500.000
G1 X9.229 Y6.167 F500.000
G1 X9.521 Y5.707 F500.000
G1 X9.789 Y5.233 F500.000
G1 X10.034 Y4.746 F500.000
G1 X10.255 Y4.248 F500.000
G1 X10.451 Y3.739 F500.000
G1 X10.622 Y3.222 F500.000
G1 X10.767 Y2.697 F500.000
G1 X10.887 Y2.166 F500.000
G1 X10.980 Y1.629 F500.000
G1 X11.047 Y1.088 F500.000
G1 X11.087 Y0.545 F500.000
G1 X11.100 Y0.000 F500.000
G0 Z5.000
G0 X10.900 Y0.000
G1 X13.900 Y0.000 Z-5.000 F150.000
G1 X13.900 Y0.000 F500.000
G1 X13.883 Y0.682 F500.000
G1 X13.833 Y1.362 F500.000
G1 X13.750 Y2.040 F500.000
G1 X13.633 Y2.712 F500.000
G1 X13.483 Y3.377 F500.000
G1 X13.301 Y4.035 F500.000
G1 X13.087 Y4.683 F500.000
G1 X12.842 Y5.319 F500.000
G1 X12.565 Y5.943 F500.000
G1 X12.259 Y6.552 F500.000
G1 X11.922 Y7.146 F500.000
G1 X11.557 Y7.722 F500.000
G1 X11.165 Y8.280 F500.000
G1 X10.745 Y8.818 F500.000
G1 X10.299 Y9.335 F500.000
G1 X9.829 Y9.829 F500.000
G1 X9.335 Y10.299 F500.000
G1 X8.818 Y10.745 F500.000
G1 X8.280 Y11.165 F500.000
G1 X7.722 Y11.557 F500.000
G1 X7.146 Y11.922 F500.000
G1 X6.552 Y12.259 F500.000
G1 X5.943 Y12.565 F500.000
G1 X5.319 Y12.842 F500.000
G1 X4.683 Y13.087 F500.000
G1 X4.035 Y13.301 F500.000
G1 X3.377 Y13.483 F500.000
G1 X2.712 Y13.633 F500.000
G1 X2.040 Y13.750 F500.000
G1 X1.362 Y13.833 F500.000
G1 X0.682 Y13.883 F500.000
G1 X0.000 Y13.900 F500.000
G1 X-0.682 Y13.883 F500.000
G1 X-1.362 Y13.833 F500.000
G1 X-2.040 Y13.750 F500.000
G1 X-2.712 Y13.633 F500.000
G1 X-3.377 Y13.483 F500.000
G1 X-4.035 Y13.301 F500.000
G1 X-4.683 Y13.087 F500.000
G1 X-5.319 Y12.842 F500.000
G1 X-5.943 Y12.565 F500.000
G1 X-6.552 Y12.259 F500.000
G1 X-7.146 Y11.922 F500.000
G1 X-7.722 Y11.557 F500.000
G1 X-8.280 Y11.165 F500.000
G1 X-8.818 Y10.745 F500.000
G1 X-9.335 Y10.299 F500.000
G1 X-9.829 Y9.829 F500.000
G1 X-10.299 Y9.335 F500.000
G1 X-10.745 Y8.818 F500.000
G1 X-11.165 Y8.280 F500.000
G1 X-11.557 Y7.722 F500.000
G1 X-11.922 Y7.146 F500.000
G1 X-12.259 Y6.552 F500.000
G1 X-12.565 Y5.943 F500.000
G1 X-12.842 Y5.319 F500.000
G1 X-13.087 Y4.683 F500.000
G1 X-13.301 Y4.035 F500.000
G1 X-13.483 Y3.377 F500.000
G1 X-13.633 Y2.712 F500.000
G1 X-13.750 Y2.040 F500.000
G1 X-13.833 Y1.362 F500.000
G1 X-13.883 Y0.682 F500.000
G1 X-13.900 Y0.000 F500.000
G1 X-13.883 Y-0.682 F500.000
G1 X-13.833 Y-1.362 F500.000
G1 X-13.750 Y-2.040 F500.000
G1 X-13.633 Y-2.712 F500.000
G1 X-13.483 Y-3.377 F500.000
G1 X-13.301 Y-4.035 F500.000
G1 X-13.087 Y-4.683 F500.000
G1 X-12.842 Y-5.319 F500.000
G1 X-12.565 Y-5.943 F500.000
G1 X-12.259 Y-6.552 F500.000
G1 X-11.922 Y-7.146 F500.000
G1 X-11.557 Y-7.722 F500.000
G1 X-11.165 Y-8.280 F500.000
G1 X-10.745 Y-8.818 F500.000
G1 X-10.299 Y-9.335 F500.000
G1 X-9.829 Y-9.829 F500.000
G1 X-9.335 Y-10.299 F500.000
G1 X-8.818 Y-10.745 F500.000
G1 X-8.280 Y-11.165 F500.000
G1 X-7.722 Y-11.557 F500.000
G1 X-7.146 Y-11.922 F500.000
G1 X-6.552 Y-12.259 F500.000
G1 X-5.943 Y-12.565 F500.000
G1 X-5.319 Y-12.842 F500.000
G1 X-4.683 Y-13.087 F500.000
G1 X-4.035 Y-13.301 F500.000
G1 X-3.377 Y-13.483 F500.000
G1 X-2.712 Y-13.633 F500.000
G1 X-2.040 Y-13.750 F500.000
G1 X-1.362 Y-13.833 F500.000
G1 X-0.682 Y-13.883 F500.000
G1 X-0.000 Y-13.900 F500.000
G1 X0.682 Y-13.883 F500.000
G1 X1.362 Y-13.833 F500.000
G1 X2.040 Y-13.750 F500.000
G1 X2.712 Y-13.633 F500.000
G1 X3.377 Y-13.483 F500.000
G1 X4.035 Y-13.301 F500.000
G1 X4.683 Y-13.087 F500.000
G1 X5.319 Y-12.842 F500.000
G1 X5.943 Y-12.565 F500.000
G1 X6.552 Y-12.259 F500.000
G1 X7.146 Y-11.922 F500.000
G1 X7.722 Y-11.557 F500.000
G1 X8.280 Y-11.165 F500.000
G1 X8.818 Y-10.745 F500.000
G1 X9.335 Y-10.299 F500.000
G1 X9.829 Y-9.829 F500.000
G1 X10.299 Y-9.335 F500.000
G1 X10.745 Y-8.818 F500.000
G1 X11.165 Y-8.280 F500.000
G1 X11.557 Y-7.722 F500.000
G1 X11.922 Y-7.146 F500.000
G1 X12.259 Y-6.552 F500.000
G1 X12.565 Y-5.943 F500.000
G1 X12.842 Y-5.319 F500.000
G1 X13.087 Y-4.683 F500.000
G1 X13.301 Y-4.035 F500.000
G1 X13.483 Y-3.377 F500.000
G1 X13.633 Y-2.712 F500.000
G1 X13.750 Y-2.040 F500.000
G1 X13.833 Y-1.362 F500.000
G1 X13.883 Y-0.682 F500.000
G1 X13.900 Y-0.000 F500.000
G0 Z5.000
G0 Z5.000
G0 X8.100 Y0.000
G1 X11.100 Y0.000 Z-5.000 F150.000
G1 X11.100 Y-0.000 F500.000
G1 X11.087 Y-0.545 F500.000
G1 X11.047 Y-1.088 F500.000
G1 X10.980 Y-1.629 F500.000
G1 X10.887 Y-2.166 F500.000
G1 X10.767 Y-2.697 F500.000
G1 X10.622 Y-3.222 F500.000
G1 X10.451 Y-3.739 F500.000
G1 X10.255 Y-4.248 F500.000
G1 X10.034 Y-4.746 F500.000
G1 X9.789 Y-5.233 F500.000
G1 X9.521 Y-5.707 F500.000
G1 X9.229 Y-6.167 F500.000
G1 X8.916 Y-6.612 F500.000
G1 X8.580 Y-7.042 F500.000
G1 X8.225 Y-7.454 F500.000
G1 X7.849 Y-7.849 F500.000
G1 X7.454 Y-8.225 F500.000
G1 X7.042 Y-8.580 F500.000
G1 X6.612 Y-8.916 F500.000
G1 X6.167 Y-9.229 F500.000
G1 X5.707 Y-9.521 F500.000
G1 X5.233 Y-9.789 F500.000
G1 X4.746 Y-10.034 F500.000
G1 X4.248 Y-10.255 F500.000
G1 X3.739 Y-10.451 F500.000
G1 X3.222 Y-10.622 F500.000
G1 X2.697 Y-10.767 F500.000
G1 X2.166 Y-10.887 F500.000
G1 X1.629 Y-10.980 F500.000
G1 X1.088 Y-11.047 F500.000
G1 X0.545 Y-11.087 F500.000
G1 X-0.000 Y-11.100 F500.000
G1 X-0.545 Y-11.087 F500.000
G1 X-1.088 Y-11.047 F500.000
G1 X-1.629 Y-10.980 F500.000
G1 X-2.166 Y-10.887 F500.000
G1 X-2.697 Y-10.767 F500.000
G1 X-3.222 Y-10.622 F500.000
G1 X-3.739 Y-10.451 F500.000
G1 X-4.248 Y-10.255 F500.000
G1 X-4.746 Y-10.034 F500.000
G1 X-5.233 Y-9.789 F500.000
G1 X-5.707 Y-9.521 F500.000
G1 X-6.167 Y-9.229 F500.000
G1 X-6.612 Y-8.916 F500.000
G1 X-7.042 Y-8.580 F500.000
G1 X-7.454 Y-8.225 F500.000
G1 X-7.849 Y-7.849 F500.000
G1 X-8.225 Y-7.454 F500.000
G1 X-8.580 Y-7.042 F500.000
G1 X-8.916 Y-6.612 F500.000
G1 X-9.229 Y-6.167 F500.000
G1 X-9.521 Y-5.707 F500.000
G1 X-9.789 Y-5.233 F500.000
G1 X-10.034 Y-4.746 F500.000
G1 X-10.255 Y-4.248 F500.000
G1 X-10.451 Y-3.739 F500.000
G1 X-10.622 Y-3.222 F500.000
G1 X-10.767 Y-2.697 F500.000
G1 X-10.887 Y-2.166 F500.000
G1 X-10.980 Y-1.629 F500.000
G1 X-11.047 Y-1.088 F500.000
G1 X-11.087 Y-0.545 F500.000
G1 X-11.100 Y0.000 F500.000
G1 X-11.087 Y0.545 F500.000
G1 X-11.047 Y1.088 F500.000
G1 X-10.980 Y1.629 F500.000
G1 X-10.887 Y2.166 F500.000
G1 X-10.767 Y2.697 F500.000
G1 X-10.622 Y3.222 F500.000
G1 X-10.451 Y3.739 F500.000
G1 X-10.255 Y4.248 F500.000
G1 X-10.034 Y4.746 F500.000
G1 X-9.789 Y5.233 F500.000
G1 X-9.521 Y5.707 F500.000
G1 X-9.229 Y6.167 F500.000
G1 X-8.916 Y6.612 F500.000
G1 X-8.580 Y7.042 F500.000
G1 X-8.225 Y7.454 F500.000
G1 X-7.849 Y7.849 F500.000
G1 X-7.454 Y8.225 F500.000
G1 X-7.042 Y8.580 F500.000
G1 X-6.612 Y8.916 F500.000
G1 X-6.167 Y9.229 F500.000
G1 X-5.707 Y9.521 F500.000
G1 X-5.233 Y9.789 F500.000
G1 X-4.746 Y10.034 F500.000
G1 X-4.248 Y10.255 F500.000
G1 X-3.739 Y10.451 F500.000
G1 X-3.222 Y10.622 F500.000
G1 X-2.697 Y10.767 F500.000
G1 X-2.166 Y10.887 F500.000
G1 X-1.629 Y10.980 F500.000
G1 X-1.088 Y11.047 F500.000
G1 X-0.545 Y11.087 F500.000
G1 X0.000 Y11.100 F500.000
G1 X0.545 Y11.087 F500.000
G1 X1.088 Y11.047 F500.000
G1 X1.629 Y10.980 F500.000
G1 X2.166 Y10.887 F500.000
G1 X2.697 Y10.767 F500.000
G1 X3.222 Y10.622 F500.000
G1 X3.739 Y10.451 F500.000
G1 X4.248 Y10.255 F500.000
G1 X4.746 Y10.034 F500.000
G1 X5.233 Y9.789 F500.000
G1 X5.707 Y9.521 F500.000
G1 X6.167 Y9.229 F500.000
G1 X6.612 Y8.916 F500.000
G1 X7.042 Y8.580 F500.000
G1 X7.454 Y8.225 F500.000
G1 X7.849 Y7.849 F500.000
G1 X8.225 Y7.454 F500.000
G1 X8.580 Y7.042 F500.000
G1 X8.916 Y6.612 F500.000
G1 X9.229 Y6.167 F500.000
G1 X9.521 Y5.707 F500.000
G1 X9.789 Y5.233 F500.000
G1 X10.034 Y4.746 F500.000
G1 X10.255 Y4.248 F500.000
G1 X10.451 Y3.739 F500.000
G1 X10.622 Y3.222 F500.000
G1 X10.767 Y2.697 F500.000
G1 X10.887 Y2.166 F500.000
G1 X10.980 Y1.629 F500.000
G1 X11.047 Y1.088 F500.000
G1 X11.087 Y0.545 F500.000
G1 X11.100 Y0.000 F500.000
G0 Z5.000
G0 X10.900 Y0.000
G1 X13.900 Y0.000 Z-6.000 F150.000
G1 X13.900 Y0.000 F500.000
G1 X13.883 Y0.682 F500.000
G1 X13.833 Y1.362 F500.000
G1 X13.750 Y2.040 F500.000
G1 X13.633 Y2.712 F500.000
G1 X13.483 Y3.377 F500.000
G1 X13.301 Y4.035 F500.000
G1 X13.087 Y4.683 F500.000
G1 X12.842 Y5.319 F500.000
G1 X12.565 Y5.943 F500.000
G1 X12.259 Y6.552 F500.000
G1 X11.922 Y7.146 F500.000
G1 X11.557 Y7.722 F500.000
G1 X11.165 Y8.280 F500.000
G1 X10.745 Y8.818 F500.000
G1 X10.299 Y9.335 F500.000
G1 X9.829 Y9.829 F500.000
G1 X9.335 Y10.299 F500.000
G1 X8.818 Y10.745 F500.000
G1 X8.280 Y11.165 F500.000
G1 X7.722 Y11.557 F500.000
G1 X7.146 Y11.922 F500.000
G1 X6.552 Y12.259 F500.000
G1 X5.943 Y12.565 F500.000
G1 X5.319 Y12.842 F500.000
G1 X4.683 Y13.087 F500.000
G1 X4.035 Y13.301 F500.000
G1 X3.377 Y13.483 F500.000
G1 X2.712 Y13.633 F500.000
G1 X2.040 Y13.750 F500.000
G1 X1.362 Y13.833 F500.000
G1 X0.682 Y13.883 F500.000
G1 X0.000 Y13.900 F500.000
G1 X-0.682 Y13.883 F500.000
G1 X-1.362 Y13.833 F500.000
G1 X-2.040 Y13.750 F500.000
G1 X-2.712 Y13.633 F500.000
G1 X-3.377 Y13.483 F500.000
G1 X-4.035 Y13.301 F500.000
G1 X-4.683 Y13.087 F500.000
G1 X-5.319 Y12.842 F500.000
G1 X-5.943 Y12.565 F500.000
G1 X-6.552 Y12.259 F500.000
G1 X-7.146 Y11.922 F500.000
G1 X-7.722 Y11.557 F500.000
G1 X-8.280 Y11.165 F500.000
G1 X-8.818 Y10.745 F500.000
G1 X-9.335 Y10.299 F500.000
G1 X-9.829 Y9.829 F500.000
G1 X-10.299 Y9.335 F500.000
G1 X-10.745 Y8.818 F500.000
G1 X-11.165 Y8.280 F500.000
G1 X-11.557 Y7.722 F500.000
G1 X-11.922 Y7.146 F500.000
G1 X-12.259 Y6.552 F500.000
G1 X-12.565 Y5.943 F500.000
G1 X-12.842 Y5.319 F500.000
G1 X-13.087 Y4.683 F500.000
G1 X-13.301 Y4.035 F500.000
G1 X-13.483 Y3.377 F500.000
G1 X-13.633 Y2.712 F500.000
G1 X-13.750 Y2.040 F500.000
G1 X-13.833 Y1.362 F500.000
G1 X-13.883 Y0.682 F500.000
G1 X-13.900 Y0.000 F500.000
G1 X-13.883 Y-0.682 F500.000
G1 X-13.833 Y-1.362 F500.000
G1 X-13.750 Y-2.040 F500.000
G1 X-13.633 Y-2.712 F500.000
G1 X-13.483 Y-3.377 F500.000
G1 X-13.301 Y-4.035 F500.000
G1 X-13.087 Y-4.683 F500.000
G1 X-12.842 Y-5.319 F500.000
G1 X-12.565 Y-5.943 F500.000
G1 X-12.259 Y-6.552 F500.000
G1 X-11.922 Y-7.146 F500.000
G1 X-11.557 Y-7.722 F500.000
G1 X-11.165 Y-8.280 F500.000
G1 X-10.745 Y-8.818 F500.000
G1 X-10.299 Y-9.335 F500.000
G1 X-9.829 Y-9.829 F500.000
G1 X-9.335 Y-10.299 F500.000
G1 X-8.818 Y-10.745 F500.000
G1 X-8.280 Y-11.165 F500.000
G1 X-7.722 Y-11.557 F500.000
G1 X-7.146 Y-11.922 F500.000
G1 X-6.552 Y-12.259 F500.000
G1 X-5.943 Y-12.565 F500.000
G1 X-5.319 Y-12.842 F500.000
G1 X-4.683 Y-13.087 F500.000
G1 X-4.035 Y-13.301 F500.000
G1 X-3.377 Y-13.483 F500.000
G1 X-2.712 Y-13.633 F500.000
G1 X-2.040 Y-13.750 F500.000
G1 X-1.362 Y-13.833 F500.000
G1 X-0.682 Y-13.883 F500.000
G1 X-0.000 Y-13.900 F500.000
G1 X0.682 Y-13.883 F500.000
G1 X1.362 Y-13.833 F500.000
G1 X2.040 Y-13.750 F500.000
G1 X2.712 Y-13.633 F500.000
G1 X3.377 Y-13.483 F500.000
G1 X4.035 Y-13.301 F500.000
G1 X4.683 Y-13.087 F500.000
G1 X5.319 Y-12.842 F500.000
G1 X5.943 Y-12.565 F500.000
G1 X6.552 Y-12.259 F500.000
G1 X7.146 Y-11.922 F500.000
G1 X7.722 Y-11.557 F500.000
G1 X8.280 Y-11.165 F500.000
G1 X8.818 Y-10.745 F500.000
G1 X9.335 Y-10.299 F500.000
G1 X9.829 Y-9.829 F500.000
G1 X10.299 Y-9.335 F500.000
G1 X10.745 Y-8.818 F500.000
G1 X11.165 Y-8.280 F500.000
G1 X11.557 Y-7.722 F500.000
G1 X11.922 Y-7.146 F500.000
G1 X12.259 Y-6.552 F500.000
G1 X12.565 Y-5.943 F500.000
G1 X12.842 Y-5.319 F500.000
G1 X13.087 Y-4.683 F500.000
G1 X13.301 Y-4.035 F500.000
G1 X13.483 Y-3.377 F500.000
G1 X13.633 Y-2.712 F500.000
G1 X13.750 Y-2.040 F500.000
G1 X13.833 Y-1.362 F500.000
G1 X13.883 Y-0.682 F500.000
G1 X13.900 Y-0.000 F500.000
G0 Z5.000
G0 Z5.000
G0 X8.100 Y0.000
G1 X11.100 Y0.000 Z-6.000 F150.000
G1 X11.100 Y-0.000 F500.000
G1 X11.087 Y-0.545 F500.000
G1 X11.047 Y-1.088 F500.000
G1 X10.980 Y-1.629 F500.000
G1 X10.887 Y-2.166 F500.000
G1 X10.767 Y-2.697 F500.000
G1 X10.622 Y-3.222 F500.000
G1 X10.451 Y-3.739 F500.000
G1 X10.255 Y-4.248 F500.000
G1 X10.034 Y-4.746 F500.000
G1 X9.789 Y-5.233 F500.000
G1 X9.521 Y-5.707 F500.000
G1 X9.229 Y-6.167 F500.000
G1 X8.916 Y-6.612 F500.000
G1 X8.580 Y-7.042 F500.000
G1 X8.225 Y-7.454 F500.000
G1 X7.849 Y-7.849 F500.000
G1 X7.454 Y-8.225 F500.000
G1 X7.042 Y-8.580 F500.000
G1 X6.612 Y-8.916 F500.000
G1 X6.167 Y-9.229 F500.000
G1 X5.707 Y-9.521 F500.000
G1 X5.233 Y-9.789 F500.000
G1 X4.746 Y-10.034 F500.000
G1 X4.248 Y-10.255 F500.000
G1 X3.739 Y-10.451 F500.000
G1 X3.222 Y-10.622 F500.000
G1 X2.697 Y-10.767 F500.000
G1 X2.166 Y-10.887 F500.000
G1 X1.629 Y-10.980 F500.000
G1 X1.088 Y-11.047 F500.000
G1 X0.545 Y-11.087 F500.000
G1 X-0.000 Y-11.100 F500.000
G1 X-0.545 Y-11.087 F500.000
G1 X-1.088 Y-11.047 F500.000
G1 X-1.629 Y-10.980 F500.000
G1 X-2.166 Y-10.887 F500.000
G1 X-2.697 Y-10.767 F500.000
G1 X-3.222 Y-10.622 F500.000
G1 X-3.739 Y-10.451 F500.000
G1 X-4.248 Y-10.255 F500.000
G1 X-4.746 Y-10.034 F500.000
G1 X-5.233 Y-9.789 F500.000
G1 X-5.707 Y-9.521 F500.000
G1 X-6.167 Y-9.229 F500.000
G1 X-6.612 Y-8.916 F500.000
G1 X-7.042 Y-8.580 F500.000
G1 X-7.454 Y-8.225 F500.000
G1 X-7.849 Y-7.849 F500.000
G1 X-8.225 Y-7.454 F500.000
G1 X-8.580 Y-7.042 F500.000
G1 X-8.916 Y-6.612 F500.000
G1 X-9.229 Y-6.167 F500.000
G1 X-9.521 Y-5.707 F500.000
G1 X-9.789 Y-5.233 F500.000
G1 X-10.034 Y-4.746 F500.000
G1 X-10.255 Y-4.248 F500.000
G1 X-10.451 Y-3.739 F500.000
G1 X-10.622 Y-3.222 F500.000
G1 X-10.767 Y-2.697 F500.000
G1 X-10.887 Y-2.166 F500.000
G1 X-10.980 Y-1.629 F500.000
G1 X-11.047 Y-1.088 F500.000
G1 X-11.087 Y-0.545 F500.000
G1 X-11.100 Y0.000 F500.000
G1 X-11.087 Y0.545 F500.000
G1 X-11.047 Y1.088 F500.000
G1 X-10.980 Y1.629 F500.000
G1 X-10.887 Y2.166 F500.000
G1 X-10.767 Y2.697 F500.000
G1 X-10.622 Y3.222 F500.000
G1 X-10.451 Y3.739 F500.000
G1 X-10.255 Y4.248 F500.000
G1 X-10.034 Y4.746 F500.000
G1 X-9.789 Y5.233 F500.000
G1 X-9.521 Y5.707 F500.000
G1 X-9.229 Y6.167 F500.000
G1 X-8.916 Y6.612 F500.000
G1 X-8.580 Y7.042 F500.000
G1 X-8.225 Y7.454 F500.000
G1 X-7.849 Y7.849 F500.000
G1 X-7.454 Y8.225 F500.000
G1 X-7.042 Y8.580 F500.000
G1 X-6.612 Y8.916 F500.000
G1 X-6.167 Y9.229 F500.000
G1 X-5.707 Y9.521 F500.000
G1 X-5.233 Y9.789 F500.000
G1 X-4.746 Y10.034 F500.000
G1 X-4.248 Y10.255 F500.000
G1 X-3.739 Y10.451 F500.000
G1 X-3.222 Y10.622 F500.000
G1 X-2.697 Y10.767 F500.000
G1 X-2.166 Y10.887 F500.000
G1 X-1.629 Y10.980 F500.000
G1 X-1.088 Y11.047 F500.000
G1 X-0.545 Y11.087 F500.000
G1 X0.000 Y11.100 F500.000
G1 X0.545 Y11.087 F500.000
G1 X1.088 Y11.047 F500.000
G1 X1.629 Y10.980 F500.000
G1 X2.166 Y10.887 F500.000
G1 X2.697 Y10.767 F500.000
G1 X3.222 Y10.622 F500.000
G1 X3.739 Y10.451 F500.000
G1 X4.248 Y10.255 F500.000
G1 X4.746 Y10.034 F500.000
G1 X5.233 Y9.789 F500.000
G1 X5.707 Y9.521 F500.000
G1 X6.167 Y9.229 F500.000
G1 X6.612 Y8.916 F500.000
G1 X7.042 Y8.580 F500.000
G1 X7.454 Y8.225 F500.000
G1 X7.849 Y7.849 F500.000
G1 X8.225 Y7.454 F500.000
G1 X8.580 Y7.042 F500.000
G1 X8.916 Y6.612 F500.000
G1 X9.229 Y6.167 F500.000
G1 X9.521 Y5.707 F500.000
G1 X9.789 Y5.233 F500.000
G1 X10.034 Y4.746 F500.000
G1 X10.255 Y4.248 F500.000
G1 X10.451 Y3.739 F500.000
G1 X10.622 Y3.222 F500.000
G1 X10.767 Y2.697 F500.000
G1 X10.887 Y2.166 F500.000
G1 X10.980 Y1.629 F500.000
G1 X11.047 Y1.088 F500.000
G1 X11.087 Y0.545 F500.000
G1 X11.100 Y0.000 F500.000
G0 Z5.000
G0 X14.000 Y0.000
G1 Z-6.000 F150.000
G1 X14.000 Y0.000 Z-5.000 F180.000
G1 X13.983 Y0.687 Z-5.000 F180.000
G1 X13.933 Y1.372 Z-5.000 F180.000
G1 X13.848 Y2.054 Z-6.000 F180.000
G1 X13.731 Y2.731 Z-6.000 F180.000
G1 X13.580 Y3.402 Z-6.000 F180.000
G1 X13.397 Y4.064 Z-6.000 F180.000
G1 X13.182 Y4.716 Z-6.000 F180.000
G1 X12.934 Y5.358 Z-6.000 F180.000
G1 X12.656 Y5.986 Z-6.000 F180.000
G1 X12.347 Y6.600 Z-6.000 F180.000
G1 X12.008 Y7.197 Z-6.000 F180.000
G1 X11.641 Y7.778 Z-6.000 F180.000
G1 X11.245 Y8.340 Z-6.000 F180.000
G1 X10.822 Y8.882 Z-6.000 F180.000
G1 X10.373 Y9.402 Z-6.000 F180.000
G1 X9.899 Y9.899 Z-6.000 F180.000
G1 X9.402 Y10.373 Z-6.000 F180.000
G1 X8.882 Y10.822 Z-6.000 F180.000
G1 X8.340 Y11.245 Z-6.000 F180.000
G1 X7.778 Y11.641 Z-6.000 F180.000
G1 X7.197 Y12.008 Z-6.000 F180.000
G1 X6.600 Y12.347 Z-6.000 F180.000
G1 X5.986 Y12.656 Z-6.000 F180.000
G1 X5.358 Y12.934 Z-6.000 F180.000
G1 X4.716 Y13.182 Z-6.000 F180.000
G1 X4.064 Y13.397 Z-6.000 F180.000
G1 X3.402 Y13.580 Z-6.000 F180.000
G1 X2.731 Y13.731 Z-6.000 F180.000
G1 X2.054 Y13.848 Z-6.000 F180.000
G1 X1.372 Y13.933 Z-5.000 F180.000
G1 X0.687 Y13.983 Z-5.000 F180.000
G1 X0.000 Y14.000 Z-5.000 F180.000
G1 X-0.687 Y13.983 Z-5.000 F180.000
G1 X-1.372 Y13.933 Z-5.000 F180.000
G1 X-2.054 Y13.848 Z-6.000 F180.000
G1 X-2.731 Y13.731 Z-6.000 F180.000
G1 X-3.402 Y13.580 Z-6.000 F180.000
G1 X-4.064 Y13.397 Z-6.000 F180.000
G1 X-4.716 Y13.182 Z-6.000 F180.000
G1 X-5.358 Y12.934 Z-6.000 F180.000
G1 X-5.986 Y12.656 Z-6.000 F180.000
G1 X-6.600 Y12.347 Z-6.000 F180.000
G1 X-7.197 Y12.008 Z-6.000 F180.000
G1 X-7.778 Y11.641 Z-6.000 F180.000
G1 X-8.340 Y11.245 Z-6.000 F180.000
G1 X-8.882 Y10.822 Z-6.000 F180.000
G1 X-9.402 Y10.373 Z-6.000 F180.000
G1 X-9.899 Y9.899 Z-6.000 F180.000
G1 X-10.373 Y9.402 Z-6.000 F180.000
G1 X-10.822 Y8.882 Z-6.000 F180.000
G1 X-11.245 Y8.340 Z-6.000 F180.000
G1 X-11.641 Y7.778 Z-6.000 F180.000
G1 X-12.008 Y7.197 Z-6.000 F180.000
G1 X-12.347 Y6.600 Z-6.000 F180.000
G1 X-12.656 Y5.986 Z-6.000 F180.000
G1 X-12.934 Y5.358 Z-6.000 F180.000
G1 X-13.182 Y4.716 Z-6.000 F180.000
G1 X-13.397 Y4.064 Z-6.000 F180.000
G1 X-13.580 Y3.402 Z-6.000 F180.000
G1 X-13.731 Y2.731 Z-6.000 F180.000
G1 X-13.848 Y2.054 Z-6.000 F180.000
G1 X-13.933 Y1.372 Z-5.000 F180.000
G1 X-13.983 Y0.687 Z-5.000 F180.000
G1 X-14.000 Y0.000 Z-5.000 F180.000
G1 X-13.983 Y-0.687 Z-5.000 F180.000
G1 X-13.933 Y-1.372 Z-5.000 F180.000
G1 X-13.848 Y-2.054 Z-6.000 F180.000
G1 X-13.731 Y-2.731 Z-6.000 F180.000
G1 X-13.580 Y-3.402 Z-6.000 F180.000
G1 X-13.397 Y-4.064 Z-6.000 F180.000
G1 X-13.182 Y-4.716 Z-6.000 F180.000
G1 X-12.934 Y-5.358 Z-6.000 F180.000
G1 X-12.656 Y-5.986 Z-6.000 F180.000
G1 X-12.347 Y-6.600 Z-6.000 F180.000
G1 X-12.008 Y-7.197 Z-6.000 F180.000
G1 X-11.641 Y-7.778 Z-6.000 F180.000
G1 X-11.245 Y-8.340 Z-6.000 F180.000
G1 X-10.822 Y-8.882 Z-6.000 F180.000
G1 X-10.373 Y-9.402 Z-6.000 F180.000
G1 X-9.899 Y-9.899 Z-6.000 F180.000
G1 X-9.402 Y-10.373 Z-6.000 F180.000
G1 X-8.882 Y-10.822 Z-6.000 F180.000
G1 X-8.340 Y-11.245 Z-6.000 F180.000
G1 X-7.778 Y-11.641 Z-6.000 F180.000
G1 X-7.197 Y-12.008 Z-6.000 F180.000
G1 X-6.600 Y-12.347 Z-6.000 F180.000
G1 X-5.986 Y-12.656 Z-6.000 F180.000
G1 X-5.358 Y-12.934 Z-6.000 F180.000
G1 X-4.716 Y-13.182 Z-6.000 F180.000
G1 X-4.064 Y-13.397 Z-6.000 F180.000
G1 X-3.402 Y-13.580 Z-6.000 F180.000
G1 X-2.731 Y-13.731 Z-6.000 F180.000
G1 X-2.054 Y-13.848 Z-6.000 F180.000
G1 X-1.372 Y-13.933 Z-5.000 F180.000
G1 X-0.687 Y-13.983 Z-5.000 F180.000
G1 X-0.000 Y-14.000 Z-5.000 F180.000
G1 X0.687 Y-13.983 Z-5.000 F180.000
G1 X1.372 Y-13.933 Z-5.000 F180.000
G1 X2.054 Y-13.848 Z-6.000 F180.000
G1 X2.731 Y-13.731 Z-6.000 F180.000
G1 X3.402 Y-13.580 Z-6.000 F180.000
G1 X4.064 Y-13.397 Z-6.000 F180.000
G1 X4.716 Y-13.182 Z-6.000 F180.000
G1 X5.358 Y-12.934 Z-6.000 F180.000
G1 X5.986 Y-12.656 Z-6.000 F180.000
G1 X6.600 Y-12.347 Z-6.000 F180.000
G1 X7.197 Y-12.008 Z-6.000 F180.000
G1 X7.778 Y-11.641 Z-6.000 F180.000
G1 X8.340 Y-11.245 Z-6.000 F180.000
G1 X8.882 Y-10.822 Z-6.000 F180.000
G1 X9.402 Y-10.373 Z-6.000 F180.000
G1 X9.899 Y-9.899 Z-6.000 F180.000
G1 X10.373 Y-9.402 Z-6.000 F180.000
G1 X10.822 Y-8.882 Z-6.000 F180.000
G1 X11.245 Y-8.340 Z-6.000 F180.000
G1 X11.641 Y-7.778 Z-6.000 F180.000
G1 X12.008 Y-7.197 Z-6.000 F180.000
G1 X12.347 Y-6.600 Z-6.000 F180.000
G1 X12.656 Y-5.986 Z-6.000 F180.000
G1 X12.934 Y-5.358 Z-6.000 F180.000
G1 X13.182 Y-4.716 Z-6.000 F180.000
G1 X13.397 Y-4.064 Z-6.000 F180.000
G1 X13.580 Y-3.402 Z-6.000 F180.000
G1 X13.731 Y-2.731 Z-6.000 F180.000
G1 X13.848 Y-2.054 Z-6.000 F180.000
G1 X13.933 Y-1.372 Z-5.000 F180.000
G1 X13.983 Y-0.687 Z-5.000 F180.000
G1 X14.000 Y-0.000 Z-5.000 F180.000
G0 Z5.000
G0 X11.000 Y0.000
G1 Z-6.000 F150.000
G1 X11.000 Y-0.000 F180.000
G1 X10.987 Y-0.540 F180.000
G1 X10.947 Y-1.078 F180.000
G1 X10.881 Y-1.614 F180.000
G1 X10.789 Y-2.146 F180.000
G1 X10.670 Y-2.673 F180.000
G1 X10.526 Y-3.193 F180.000
G1 X10.357 Y-3.706 F180.000
G1 X10.163 Y-4.210 F180.000
G1 X9.944 Y-4.703 F180.000
G1 X9.701 Y-5.185 F180.000
G1 X9.435 Y-5.655 F180.000
G1 X9.146 Y-6.111 F180.000
G1 X8.835 Y-6.553 F180.000
G1 X8.503 Y-6.978 F180.000
G1 X8.150 Y-7.387 F180.000
G1 X7.778 Y-7.778 F180.000
G1 X7.387 Y-8.150 F180.000
G1 X6.978 Y-8.503 F180.000
G1 X6.553 Y-8.835 F180.000
G1 X6.111 Y-9.146 F180.000
G1 X5.655 Y-9.435 F180.000
G1 X5.185 Y-9.701 F180.000
G1 X4.703 Y-9.944 F180.000
G1 X4.210 Y-10.163 F180.000
G1 X3.706 Y-10.357 F180.000
G1 X3.193 Y-10.526 F180.000
G1 X2.673 Y-10.670 F180.000
G1 X2.146 Y-10.789 F180.000
G1 X1.614 Y-10.881 F180.000
G1 X1.078 Y-10.947 F180.000
G1 X0.540 Y-10.987 F180.000
G1 X-0.000 Y-11.000 F180.000
G1 X-0.540 Y-10.987 F180.000
G1 X-1.078 Y-10.947 F180.000
G1 X-1.614 Y-10.881 F180.000
G1 X-2.146 Y-10.789 F180.000
G1 X-2.673 Y-10.670 F180.000
G1 X-3.193 Y-10.526 F180.000
G1 X-3.706 Y-10.357 F180.000
G1 X-4.210 Y-10.163 F180.000
G1 X-4.703 Y-9.944 F180.000
G1 X-5.185 Y-9.701 F180.000
G1 X-5.655 Y-9.435 F180.000
G1 X-6.111 Y-9.146 F180.000
G1 X-6.553 Y-8.835 F180.000
G1 X-6.978 Y-8.503 F180.000
G1 X-7.387 Y-8.150 F180.000
G1 X-7.778 Y-7.778 F180.000
G1 X-8.150 Y-7.387 F180.000
G1 X-8.503 Y-6.978 F180.000
G1 X-8.835 Y-6.553 F180.000
G1 X-9.146 Y-6.111 F180.000
G1 X-9.435 Y-5.655 F180.000
G1 X-9.701 Y-5.185 F180.000
G1 X-9.944 Y-4.703 F180.000
G1 X-10.163 Y-4.210 F180.000
G1 X-10.357 Y-3.706 F180.000
G1 X-10.526 Y-3.193 F180.000
G1 X-10.670 Y-2.673 F180.000
G1 X-10.789 Y-2.146 F180.000
G1 X-10.881 Y-1.614 F180.000
G1 X-10.947 Y-1.078 F180.000
G1 X-10.987 Y-0.540 F180.000
G1 X-11.000 Y0.000 F180.000
G1 X-10.987 Y0.540 F180.000
G1 X-10.947 Y1.078 F180.000
G1 X-10.881 Y1.614 F180.000
G1 X-10.789 Y2.146 F180.000
G1 X-10.670 Y2.673 F180.000
G1 X-10.526 Y3.193 F180.000
G1 X-10.357 Y3.706 F180.000
G1 X-10.163 Y4.210 F180.000
G1 X-9.944 Y4.703 F180.000
G1 X-9.701 Y5.185 F180.000
G1 X-9.435 Y5.655 F180.000
G1 X-9.146 Y6.111 F180.000
G1 X-8.835 Y6.553 F180.000
G1 X-8.503 Y6.978 F180.000
G1 X-8.150 Y7.387 F180.000
G1 X-7.778 Y7.778 F180.000
G1 X-7.387 Y8.150 F180.000
G1 X-6.978 Y8.503 F180.000
G1 X-6.553 Y8.835 F180.000
G1 X-6.111 Y9.146 F180.000
G1 X-5.655 Y9.435 F180.000
G1 X-5.185 Y9.701 F180.000
G1 X-4.703 Y9.944 F180.000
G1 X-4.210 Y10.163 F180.000
G1 X-3.706 Y10.357 F180.000
G1 X-3.193 Y10.526 F180.000
G1 X-2.673 Y10.670 F180.000
G1 X-2.146 Y10.789 F180.000
G1 X-1.614 Y10.881 F180.000
G1 X-1.078 Y10.947 F180.000
G1 X-0.540 Y10.987 F180.000
G1 X0.000 Y11.000 F180.000
G1 X0.540 Y10.987 F180.000
G1 X1.078 Y10.947 F180.000
G1 X1.614 Y10.881 F180.000
G1 X2.146 Y10.789 F180.000
G1 X2.673 Y10.670 F180.000
G1 X3.193 Y10.526 F180.000
G1 X3.706 Y10.357 F180.000
G1 X4.210 Y10.163 F180.000
G1 X4.703 Y9.944 F180.000
G1 X5.185 Y9.701 F180.000
G1 X5.655 Y9.435 F180.000
G1 X6.111 Y9.146 F180.000
G1 X6.553 Y8.835 F180.000
G1 X6.978 Y8.503 F180.000
G1 X7.387 Y8.150 F180.000
G1 X7.778 Y7.778 F180.000
G1 X8.150 Y7.387 F180.000
G1 X8.503 Y6.978 F180.000
G1 X8.835 Y6.553 F180.000
G1 X9.146 Y6.111 F180.000
G1 X9.435 Y5.655 F180.000
G1 X9.701 Y5.185 F180.000
G1 X9.944 Y4.703 F180.000
G1 X10.163 Y4.210 F180.000
G1 X10.357 Y3.706 F180.000
G1 X10.526 Y3.193 F180.000
G1 X10.670 Y2.673 F180.000
G1 X10.789 Y2.146 F180.000
G1 X10.881 Y1.614 F180.000
G1 X10.947 Y1.078 F180.000
G1 X10.987 Y0.540 F180.000
G1 X11.000 Y0.000 F180.000
G0 Z5.000
M5
G0 X0.000 Y0.000
M30
